/* XPM */
static const char *button_png[] = {
/* columns rows colors chars-per-pixel */
"169 30 3 1 ",
"  c black",
". c white",
"X c None",
/* pixels */
"X                                                                                                                                                                 XXXXXXX",
"                                                                                                                                                                   XXXXXX",
"                                                                                                                                                                   XXXXXX",
"                                                                                                                                                                   XXXXXX",
"                                                                                                                                                                    XXXXX",
"X     ........................................................................................................................................................      XXXXX",
"X     .........................................................................................................................................................     XXXXX",
"X      ........................................................................................................................................................     XXXXX",
"X      ........................................................................................................................................................      XXXX",
"XX     ........................................................................................................................................................      XXXX",
"XX     .........................................................................................................................................................     XXXX",
"XX      ........................................................................................................................................................     XXXX",
"XX      ........................................................................................................................................................      XXX",
"XXX     ........................................................................................................................................................      XXX",
"XXX     .........................................................................................................................................................     XXX",
"XXX     .........................................................................................................................................................     XXX",
"XXX      ........................................................................................................................................................     XXX",
"XXX      ........................................................................................................................................................      XX",
"XXXX     ........................................................................................................................................................      XX",
"XXXX     .........................................................................................................................................................     XX",
"XXXX      ........................................................................................................................................................     XX",
"XXXX      ........................................................................................................................................................      X",
"XXXXX     ........................................................................................................................................................      X",
"XXXXX     .........................................................................................................................................................     X",
"XXXXX      ........................................................................................................................................................     X",
"XXXXX                                                                                                                                                                    ",
"XXXXXX                                                                                                                                                                   ",
"XXXXXX                                                                                                                                                                   ",
"XXXXXX                                                                                                                                                                   ",
"XXXXXXX                                                                                                                                                                 X"
};
