/* XPM */
static const char *_[] = {
/* columns rows colors chars-per-pixel */
"267 533 8 1 ",
"  c black",
". c gray10",
"X c #252525",
"o c #00BFBF",
"O c gray75",
"+ c #FFDAA5",
"@ c white",
"# c None",
/* pixels */
"###########################################################################################################################################################################################################################################################################",
"###########################################################################################################################################################################################################################################################################",
"###########################################################################################################################################################################################################################################################################",
"###########################################################################################################################################################################################################################################################################",
"###########################################################################################################################################################################################################################################################################",
"###########################################################################################################################################################################################################################################################################",
"###########################################################################################################################################################################################################################################################################",
"###########################################################################################################################################################################################################################################################################",
"###########################################################################################################################################################################################################################################################################",
"###########################################################################################################################################################################################################################################################################",
"###########################################################################################################################################################################################################################################################################",
"###########################################################################################################################################################################################################################################################################",
"###########################################################################################################################################################################################################################################################################",
"###########################################################################################################################################################################################################################################################################",
"###########################################################################################################################################################################################################################################################################",
"###########################################################################################################################################################################################################################################################################",
"###########################################################################################################################################################################################################################################################################",
"###########################################################################################################################################################################################################################################################################",
"###########################################################################################################################################################################################################################################################################",
"###########################################################################################################################################################################################################################################################################",
"###########################################################################################################################################################################################################################################################################",
"###########################################################################################################################################################################################################################################################################",
"###########################################################################################################################################################################################################################################################################",
"###########################################################################################################################################################################################################################################################################",
"###########################################################################################################################################################################################################################################################################",
"###########################################################################################################################################################################################################################################################################",
"###########################################################################################################################################################################################################################################################################",
"###########################################################################################################################################################################################################################################################################",
"###########################################################################################################################################################################################################################################################################",
"###########################################################################################################################################################################################################################################################################",
"###########################################################################################################################################################################################################################################################################",
"###########################################################################################################################################################################################################################################################################",
"###########################################################################################################################################################################################################################################################################",
"###########################################################################################################################################################################################################################################################################",
"###########################################################################################################################################################################################################################################################################",
"###########################################################################################################################################################################################################################################################################",
"###########################################################################################################################################################################################################################################################################",
"###########################################################################################################################################################################################################################################################################",
"###########################################################################################################################################################################################################################################################################",
"###########################################################################################################################################################################################################################################################################",
"###########################################################################################################################################################################################################################################################################",
"###########################################################################################################################################################################################################################################################################",
"###########################################################################################################################################################################################################################################################################",
"###########################################################################################################################################################################################################################################################################",
"###########################################################################################################################################################################################################################################################################",
"###########################################################################################################################################################################################################################################################################",
"###########################################################################################################################################################################################################################################################################",
"###########################################################################################################################################################################################################################################################################",
"###########################################################################################################################################################################################################################################################################",
"###########################################################################################################################################################################################################################################################################",
"###########################################################################################################################################################################################################################################################################",
"###########################################################################################################################################################################################################################################################################",
"###########################################################################################################################################################################################################################################################################",
"###########################################################################################################################################################################################################################################################################",
"###########################################################################################################################################################################################################################################################################",
"###########################################################################################################################################################################################################################################################################",
"###########################################################################################################################################################################################################################################################################",
"###########################################################################################################################################################################################################################################################################",
"###########################################################################################################################################################################################################################################################################",
"###########################################################################################################################################################################################################################################################################",
"###########################################################################################################################################################################################################################################################################",
"###########################################################################################################################################################################################################################################################################",
"###########################################################################################################################################################################################################################################################################",
"###########################################################################################################################################################################################################################################################################",
"###########################################################################################################################################################################################################################################################################",
"###########################################################################################################################################################################################################################################################################",
"###########################################################################################################################################################################################################################################################################",
"###########################################################################################################################################################################################################################################################################",
"###########################################################################################################################################################################################################################################################################",
"###########################################################################################################################################################################################################################################################################",
"###########################################################################################################################################################################################################################################################################",
"###########################################################################################################################################################################################################################################################################",
"###########################################################################################################################################################################################################################################################################",
"###########################################################################################################################################################################################################################################################################",
"###########################################################################################################################################################################################################################################################################",
"###########################################################################################################################################################################################################################################################################",
"###########################################################################################################################################################################################################################################################################",
"###########################################################################################################################################################################################################################################################################",
"###########################################################################################################################################################################################################################################################################",
"###########################################################################################################################################################################################################################################################################",
"###########################################################################################################################################################################################################################################################################",
"###########################################################################################################################################################################################################################################################################",
"###########################################################################################################################################################################################################################################################################",
"###########################################################################################################################################################################################################################################################################",
"###########################################################################################################################################################################################################################################################################",
"###########################################################################################################################################################################################################################################################################",
"###########################################################################################################################################################################################################################################################################",
"###########################################################################################################################################################################################################################################################################",
"###########################################################################################################################################################################################################################################################################",
"###########################################################################################################################################################################################################################################################################",
"###########################################################################################################################################################################################################################################################################",
"###########################################################################################################################################################################################################################################################################",
"###########################################################################################################################################################################################################################################################################",
"###########################################################################################################################################################################################################################################################################",
"###########################################################################################################################################################################################################################################################################",
"###########################################################################################################################################################################################################################################################################",
"###########################################################################################################################################################################################################################################################################",
"###########################################################################################################################################################################################################################################################################",
"###########################################################################################################################################################################################################################################################################",
"###########################################################################################################################################################################################################################################################################",
"###########################################################################################################################################################################################################################################################################",
"###########################################################################################################################################################################################################################################################################",
"###########################################################################################################################################################################################################################################################################",
"###########################################################################################################################################################################################################################################################################",
"###########################################################################################################################################################################################################################################################################",
"###########################################################################################################################################################################################################################################################################",
"###########################################################################################################################################################################################################################################################################",
"###########################################################################################################################################################################################################################################################################",
"###########################################################################################################################################################################################################################################################################",
"###########################################################################################################################################################################################################################################################################",
"###########################################################################################################################################################################################################################################################################",
"###########################################################################################################################################################################################################################################################################",
"###########################################################################################################################################################################################################################################################################",
"###########################################################################################################################################################################################################################################################################",
"###########################################################################################################################################################################################################################################################################",
"###########################################################################################################################################################################################################################################################################",
"#######################################################################################################  ##################################################################################################################################################################",
"######################################################################################################    #################################################################################################################################################################",
"#####################################################################################################      ################################################################################################################################################################",
"#####################################################################################################      #############   ################################################################################################################################################",
"#####################################################################################################       ###########      ##############################################################################################################################################",
"######################################################################################################       ##########       #############################################################################################################################################",
"######################################################################################################       ##########        ############################################################################################################################################",
"############################################################################################     #####        ##########         ##########################################################################################################################################",
"############################################################################################                  ##########          #########################################################################################################################################",
"###########################################################################################                    #########           ########################################################################################################################################",
"############################################################################################                    #########            ######################################################################################################################################",
"#############################################################################################                   #########             #####################################################################################################################################",
"##############################################################################################                   ########               ###################################################################################################################################",
"################################################################################################                   #######                #################################################################################################################################",
"##################################################################################################                    ####                 ################################################################################################################################",
"####################################################################################################                    ##                   ##############################################################################################################################",
"#############################################################################################      ###                                         ############################################################################################################################",
"######################################################################################                                                           ##########################################################################################################################",
"#####################################################################################                                                              ########################################################################################################################",
"#####################################################################################                                                                 #####################################################################################################################",
"#####################################################################################                                                                     #################################################################################################################",
"#####################################################################################                                                                            ##########################################################################################################",
"#######################################################################################                                                                              ######################################################################################################",
"##############################################################################################                                                                          ###################################################################################################",
"################################################################################################                                                                           ################################################################################################",
"############################################################################################                                                                                 ##############################################################################################",
"#######################################################################################                                                                                        ############################################################################################",
"#####################################################################################                                                                                            ##########################################################################################",
"#####################################################################################                                                                                              ########################################################################################",
"#####################################################################################                                                                                               #######################################################################################",
"#####################################################################################                                                                                                 #####################################################################################",
"#################################################################################                                                                                                      ####################################################################################",
"################################################################################                                                                                                        ###################################################################################",
"###############################################################################                                                                                                           #################################################################################",
"###############################################################################                                                                                                            ################################################################################",
"################################################################################                                                                                                            ###############################################################################",
"################################################################################                                                                                                             ##############################################################################",
"################################################################################                                                                                                             ##############################################################################",
"##################################################################################                                                                                                            #############################################################################",
"####################################################################################                                                                                                           ############################################################################",
"######################################################################################                                                                                                          ###########################################################################",
"#######################################################################################                                                                                                          ##########################################################################",
"################################################################################                                                                                                                 ##########################################################################",
"###########################################################################                                                                                                                       #########################################################################",
"########################################################################                                                                                                                           ########################################################################",
"######################################################################                                                                                                                             ########################################################################",
"######################################################################                                                                                                                              #######################################################################",
"######################################################################                                                                                                                              #######################################################################",
"######################################################################                                                                                                                               ######################################################################",
"########################################################################                                                                                                                             ######################################################################",
"##########################################################################                                                                                                                            #####################################################################",
"############################################################################                                                                                                                          #####################################################################",
"##############################################################################                                                                                                                        #####################################################################",
"################################################################################                                                                                                                       ####################################################################",
"###################################################################################                                                                                                                    ####################################################################",
"#####################################################################################                                                                                                                  ####################################################################",
"#####################################################################################                                                                                                                   ###################################################################",
"###################################################################################                                XXXXXX                                           XX                                  ###################################################################",
"#################################################################################                                XXXXXXXXXXX                                     XXXXXXXX                               ###################################################################",
"###############################################################################                                XXXXXXXXXXXXXX                                  XXXXXXXXXXXX                             ###################################################################",
"#############################################################################                                XXXXXX       XXXXX                               XXXXX    XXXXXX                           ###################################################################",
"############################################################################                                 XXXX          XXXXX                            XXXXX        XXXXXX                         ###################################################################",
"###########################################################################                                  XX              XXX                            XXXX           XXXX                         ###################################################################",
"##########################################################################                                                                                  XX               XX                          ##################################################################",
"########################################################################                                                                                                                                  #################################################################",
"#######################################################################                                                                                                                                    ################################################################",
"######################################################################                                                             ++++++++++++++++++++++++++++++++++++++++                                  ##############################################################",
"#####################################################################                                                 ++++++++++++++++++++++++++++++++++++++++++++++++++++++++++++                            #############################################################",
"####################################################################                                          +++++       ++++++++++++++++++++++++++++++++++++++++      ++++++++++++                           ############################################################",
"###################################################################                                       +++++++           +++++++++++++++++++++++++++++++++++            ++++++++++                          ############################################################",
"##################################################################               ########               +++++++               ++++++++++++++++++++++++++++++++              ++++++++++                         ############################################################",
"##################################################################            ###########              +++++++                 +++++++++++++++++++++++++++++                 +++++++++                        #############################################################",
"#################################################################          ##############            ++++++++                   +++++++++++++++++++++++++++                   +++++++++                      ##############################################################",
"#################################################################        ################           ++++++++         @@@         ++++++++++++++++++++++++++         @@@        ++++++++                     ###############################################################",
"#################################################################      ##################         ++++++++++       @@@@@@@        ++++++++++++++++++++++++       @@@@@@@@       ++++++++                    ###############################################################",
"##################################################################   ####################       +++++++++++       @@@@@@@@@@       ++++++++++++++++++++++       @@@@@@@@@@      ++++++++                     ##############################################################",
"#########################################################################################       +++++++++++      @@@@@@@@@@@@      +++++++++++++++++++++       @@@@@@@@@@@@      ++++++++                      ############################################################",
"#########################################################################################       ++++++++++      o@@@@@@@@@@@@       ++++++++++++++++++++      @@@@@@@@@@@@@      ++++++++                       ###########################################################",
"#########################################################################################       ++++++++++      oo@@@@@@@@@@@@      +++++++++++++++++++      o@@@@@@@@@@@@@@      ++++++++                      ###########################################################",
"#########################################################################################       +++++++++      oooo@@@@@@@@@@@@      ++++++++++++++++++      oo@@@@@@@@@@@@@      ++++++++                       ##########################################################",
"#########################################################################################       +++++++++      oooo@@@@@@@@@@@@      +++++++++++++++++      ooo@@@@@@@@@@@@@@      +++++++                      ###########################################################",
"#########################################################################################       ++++++++      o@@ooo@@@@@@@@@@@@      ++++++++++++++++      @oo@@@@@@@@@@@@@@      ++++++++             ###     ###########################################################",
"#########################################################################################       ++++++++      o@@ooo@@@@@@@@@@@@      ++++++++++++++++     @@ooo@@@@@@@@@@@@@@     ++++++++              ##################################################################",
"#########################################################################################       ++++++++     o@@@@oo@@@@@@@@@@@@@    +++++++++++++++++     @@ooo@@@@@@@@@@@@@@      ++++++               ##################################################################",
"#########################################################################################       ++++++++     o@@@@oo@@@@@@@@@@@@@@  ++++++++++++++++++++  @@@ooo@@@@@@@@@@@@@@      ++++++                #################################################################",
"#########################################################################################       +++++++      o@@@@ooo@@@@@@@@@@@@@@+++++++++++++++++++++oo@@@ooo@@@@@@@@@@@@@@@     ++++++                #################################################################",
"#########################################################################################        ++++++      o@@@@ooo@@@@@@@@@@@@@@+++++++++++++++++++++oo@@@@oo@@@@@@@@@@@@@@@     +++++++      ++++      ################################################################",
"#########################################################################################        ++++++     oo@@@@ooo@@@@@@@@@@@@@@+++++++++++++++++++++oo@@@@oo@@@@@@@@@@@@@@@      ++++++++++++++++      ################################################################",
"########################################################################################         ++++++     oo@@@@ooo@@@@@@@@@@@@@@+++++++++++++++++++++o@@@@@oo@@@@@@@@@@@@@@@      ++++++++++++++++      ################################################################",
"########################################################################################         +++++++    oo@@@@ooo@@@@@@@@@@@@@@+++++++++++++++++++++o@@@@@oo@@@@@@@@@@@@@@@@    ++++++++++++++++++     ################################################################",
"########################################################################################         +++++++++@ooo@@@@ooo@@@@@@@@@@@@@@+++++++++++++++++++++oo@@@@oo@@@@@@@@@@@@@@@@@+++++++++++++++++++++     ################################################################",
"########################################################################################         +++++++++@ooo@@@@ooo@@@@@@@@@@@@@@+++++++++++++++++++++oo@@@@oo@@@@@@@@@@@@@@@@@+++++++++++++++++++++     ################################################################",
"########################################################################################          +++++++++ooo@@@@ooo@@@@@@@@@@@@@@+++++++++++++++++++++oo@@@@oo@@@@@@@@@@@@@@@@@+++++++++++++++++++++     ################################################################",
"########################################################################################          +++++++++ooo@@@@ooo@@@@@@@@@@@@@@+++++++++++++++++++++oo@@@ooo@@@@@@@@@@@@@@@@@+++++++++++++++++++++      ###############################################################",
"########################################################################################          +++++++++@oo@@@@oo@@@@@@@@@@@@@@@+++++++++++++++++++++oo@@@ooo@@@@@@@@@@@@@@@@++++++++++++++++++++++     ################################################################",
"########################################################################################          ++++++++++oo@@@ooo@@@@@@@@@@@@@@@+++++++++++++++++++++oo@@@ooo@@@@@@@@@@@@@@@@++++++++++++++++++++++     ################################################################",
"########################################################################################          ++++++++++ooo@@ooo@@@@@@@@@@@@@@@+++++++++++++++++++++oo@@@ooo@@@@@@@@@@@@@@@@++++++++++++++++++++++     ################################################################",
"########################################################################################           +++++++++ooo@@ooo@@@@@@@@@@@@@@@++++++++++++++++++++++oooooo@@@@@@@@@@@@@@@@+++++++++++++++++++++++     ################################################################",
"########################################################################################           ++++++++++oooooo@@@@@@@@@@@@@@@@++++++++++++++++++++++oooooo@@@@@@@@@@@@@@@@+++++++++++++++++++++++     ################################################################",
"########################################################################################           ++++++++++oooooo@@@@@@@@@@@@@@@@++++++++++++++++++++++ooooo@@@@@@@@@@@@@@@@++++++++++++++++++++++++     ################################################################",
"########################################################################################           +++++++++++oooo@@@@@@@@@@@@@@@@+++++++++++++++++++++++@oooo@@@@@@@@@@@@@@@@+++++++++++++++++++++++      ################################################################",
"########################################################################################            ++++++++++@@@@@@@@@@@@@@@@@@@+++++++++++++++++++++++++@@@@@@@@@@@@@@@@@@@++++++++++++++++++++++++      ################################################################",
"########################################################################################            ++++++++++++@@@@@@@@@@@@@@@@++++++++++++++++++++++++++++@@@@@@@@@@@@@@@@+++++++++++++++++++++++++      ################################################################",
"########################################################################################            ++++++++++++++@@@@@@@@@@@@++++++++++++++++++++++++++++++++@@@@@@@@@@@+++++++++++++++++++++++++++       ################################################################",
"########################################################################################             ++++++++++++++++++++++++++++++++++++++++++++++++++++++++++++++++++++++++++++++++++++++++++++++         ###############################################################",
"########################################################################################             +++++++++++++++++++++++++++++++++++++++++++++++++++++++++++++++++++++++++++++++++++++   ++++++         ###############################################################",
"########################################################################################             ++++++++++++++++++++++++++++++++++++++++++++++++++++++++++++++++++++++++++++++++++++                   ###############################################################",
"########################################################################################              ++++++++++++++++++++++++++++++++++++++++++++++++++++++++++++++++++++++++++++++++++                    ###############################################################",
"#######################################################################################               ++++++++++++++++++++++++++++++++++++++++++++++++++++++++++++++++++++++++++++++++++                     ##############################################################",
"########################################################################################               ++++++++++++++++++++++++++++++++++++++++++++++++++++++++++++++++++++++++++++++++++                    ##############################################################",
"########################################################################################               +++++++++++++++++++++++++++++++++++++++++++++++++++++++++++++++++++++++++++++++++++                   ##############################################################",
"#############################################################################################          +++++++++++++++++++++++++++++++++++++++++++++++++++++++++++++++++++++++++++++++++++      ######       ##############################################################",
"#############################################################################################           +++++++++++++++++++++++++++++++++++++++++++++++++++++++++++++++++++++++++++++++++      #########     ##############################################################",
"############################################################################################            +++++++++++++++++++++++++++++++++++++++++++++++++++++++++++++++++++++++++++++++++      ##########   ###############################################################",
"############################################################################################      #      +++++++++++++++++++++++++++++++++++++++++++++++++++++++++++++++++++++++++++++++      #############################################################################",
"############################################################################################     ##      ++++++++++++++++++++++++++++++++++++++++++++++++++++++++++++++++++++++++++++++       #############################################################################",
"############################################################################################     ###      ++++++++++++++++++++++++  +++++++++++++++++++++++++++++++++++++++++++++++++++      ##############################################################################",
"############################################################################################    ####       +++++++++++++++++++++++     ++++++++++++++++   ++++++++++++++++++++++++++++      ###############################################################################",
"#####################################################################################################       +++++++++++++++++++++++              +++++    +++++++++++++++++++++++++++       ###############################################################################",
"######################################################################################################      ++++++++++++++++++++++++                     +++++++++++++++++++++++++++       ################################################################################",
"######################################################################################################       +++++++++++++++++++++++++++++++            +++++++++++++++++++++++++++       #################################################################################",
"#######################################################################################################       ++++++++++++++++++++++++++++++++++++    ++++++++++++++++++++++++++++        #################################################################################",
"########################################################################################################       ++++++++++++++++++++++++++++++++++++++++++++++++++++++++++++++++++        ##################################################################################",
"#########################################################################################################       ++++++++++++++++++++++++++++++++++++++++++++++++++++++++++++++++        ###################################################################################",
"##########################################################################################################        +++++++++++++++++++++++++++++++++++++++++++++++++++++++++++++        ####################################################################################",
"###########################################################################################################        +++++++++++++++++++++++++++++++++++++++++++++++++++++++++++        #####################################################################################",
"############################################################################################################        ++++++++++++++++++++++++++++++++++++++++++++++++++++++++         ######################################################################################",
"#############################################################################################################         +++++++++++++++++++++++++++++++++++++++++++++++++++++         #######################################################################################",
"##############################################################################################################         ++++++++++++++++++++++++++++++++++++++++++++++++++         #########################################################################################",
"###############################################################################################################          ++++++++++++++++++++++++++++++++++++++++++++++          ##########################################################################################",
"#################################################################################################################          ++++++++++++++++++++++++++++++++++++++++++           ###########################################################################################",
"##################################################################################################################           ++++++++++++++++++++++++++++++++++++++           #############################################################################################",
"####################################################################################################################           +++++++++++++++++++++++++++++++++             ##############################################################################################",
"#####################################################################################################################             +++++++++++++++++++++++++++              ################################################################################################",
"#######################################################################################################################               +++++++++++++++++++                ##################################################################################################",
"#########################################################################################################################                                              ####################################################################################################",
"###########################################################################################################################                                          ######################################################################################################",
"#############################################################################################################################                                     #########################################################################################################",
"################################################################################################################################                               ############################################################################################################",
"####################################################################################################################################                        ###############################################################################################################",
"#######################################################################################################################################              +      ###############################################################################################################",
"#######################################################################################################################################     ++++++++++      ###############################################################################################################",
"#######################################################################################################################################     ++++++++++      ###############################################################################################################",
"#######################################################################################################################################     ++++++++++     ################################################################################################################",
"#######################################################################################################################################     ++++++++++     ################################################################################################################",
"##############################################################################################################################                   +++++     ################################################################################################################",
"#############################################################################################################################                                       #######################################################################################################",
"#############################################################################################################################                                        ######################################################################################################",
"#############################################################################################################################                                        ######################################################################################################",
"#############################################################################################################################                                        ######################################################################################################",
"##########################################################################################################################                                                   ##############################################################################################",
"###################################################################################################################                                 ++                                         ############################################################################",
"###############################################################################################################                                      +                                           ##########################################################################",
"############################################################################################################                                                                                        #######################################################################",
"#########################################################################################################                                                                                             #####################################################################",
"########################################################################################################                         XXXXXX                    XXXXXX                                     #####################################################################",
"#######################################################################################################              @@@@@         XXX       OOOOO        XXXX                            ...         #####################################################################",
"######################################################################################################          @@@@@@@@@@@          X      OOOOOOO      XX             @@@@@@             .....      #####################################################################",
"#####################################################################################################        @@@@@@@@@@@@@@@               OOOOOOOO                   @@@@@@@@@@@@          ....      #####################################################################",
"#####################################################################################################      @@@@@@@@@@@@@@@@@@              OOOOOOOOO                @@@@@@@@@@@@@@@@@        ...     ######################################################################",
"####################################################################################################      @@@@@@@@@@@@@@@@@@@@@            OOOOOOOOO              @@@@@@@@@@@@@@@@@@@@        .      ######################################################################",
"####################################################################################################      @@@@@@@@@@@@@@@@@@@@@@@          OOOOOOOOO            @@@@@@@@@@@@@@@@@@@@@@@@      .      ######################################################################",
"####################################################################################################     @@@@@@@@@@@@@@@@@@@@@@@@@@        OOOOOOOO          @@@@@@@@@@@@@@@@@@@@@@@@@@@@     .     #######################################################################",
"####################################################################################################     @@@@@@@@@@@@@@@@@@@@@@@@@@@@@      OOOOOO       @@@@@@@@@@@@@@@@@@@@@@@@@@@@@@@@           #######################################################################",
"####################################################################################################     @@@@@@@@@@@@@@@@@@@@@@@@@@@@@        OOO       @@@@@@@@@@@@@@@@@@@@@@@@@@@@@@@@@           #######################################################################",
"###################################################################################################      @@@@@@@@@@@@@@@@@@@@@@@@@@@@@                  @@@@@@@@@@@@@@@@@@@@@@@@@@@@@@@@@           #######################################################################",
"###################################################################################################      @@@@@@@@@@@@@@@@@@@@@@@@@@@@@                  @@@@@@@@@@@@@@@@@@@@@@@@@@@@@@@@@           #######################################################################",
"###################################################################################################     @@@@@@@@@@@@@@@@@@@@@@@@@@@@@@                  @@@@@@@@@@@@@@@@@@@@@@@@@@@@@@@@@     .      ######################################################################",
"###################################################################################################     @@@@@@@@@@@@@@@@@@@@@@@@@@@@@@   @              @@@@@@@@@@@@@@@@@@@@@@@@@@@@@@@@@     .      ######################################################################",
"###################################################################################################     @@@@@@@@@@@@@@@@@@@@@@@@@@@@@@   @@@       @@   @@@@@@@@@@@@@@@@@@@@@@@@@@@@@@@@@     .      ######################################################################",
"###################################################################################################     @@@@@@@@@@@@@@@@@@@@@@@@@@@@@@   @@@@@@@@@@@@   @@@@@@@@@@@@@@@@@@@@@@@@@@@@@@@@@           #######################################################################",
"##################################################################################################      @@@@@@@@@@@@@@@@@@@@@@@@@@@@@@   @@@@@@@@@@@@   @@@@@@@@@@@@@@@@@@@@@@@@@@@@@@@@@           #######################################################################",
"##################################################################################################      @@@@@@@@@@@@@@@@@@@@@@@@@@@@@@   @@@@@@@@@@@@   @@@@@@@@@@@@@@@@@@@@@@@@@@@@@@@@@          ########################################################################",
"##################################################################################################     @@@@@@@@@@@@@@@@@@@@@@@@@@@@@@@   @@@@@@@@@@@@   @@@@@@@@@@@@@@@@@@@@@@@@@@@@@@@@@         #########################################################################",
"##################################################################################################     @@@@@@@@@@@@@@@@@@@@@@@@@@@@@@@   @@@@@@@@@@@@   @@@@@@@@@@@@@@@@@@@@@@@@@@@@@@@@@         #########################################################################",
"##################################################################################################     @@@@@@@@@@@@@@@@@@@@@@@@@@@@@@@   @@@@@@@@@@@@   @@@@@@@@@@@@@@@@@@@@@@@@@@@@@@@@@        ##########################################################################",
"#################################################################################################      @@@@@@@@@@@@@@@@@@@@@@@@@@@@@@@   @@@@@@@@@@@@   @@@@@@@@@@@@@@@@@@@@@@@@@@@@@@@@@       ###########################################################################",
"##################################################################    ###########################      @@@@@@@@@@@@@@@@@@@@@@@@@@@@@@@   @@@@@@@@@@@@   @@@@@@@@@@@@@@@@@@@@@@@@@@@@@@@@@       ###########################################################################",
"#################################################################      ##########################     @@@@@@@@@@@@@@@ @@@@@@@@@@@@@@@@   @@@@@@@@@@@@   @@@@@@@@@@@@@@@@@@@@@@@@@@@@@@@@@     #############################################################################",
"################################################################        #########################     @@@@@@@@@@@@@@    @@@@@@@@@@@@@@@@@@@@@@@@@@@@@   @@@@@@@@@@@@@    @@@@@@@@@@@@@@@@     #############################################################################",
"################################################################         ########################         @@@@@@@@@     @@@@@@@@@@@@@@@@@@@@@@@@@@@@@   @@@@@@@@@@@@@     @@@@@@@@@@@@@@@     #############################################################################",
"###############################################################           #######################             @@@@@      @@@@@@@@@@@@@@@@@@@@@@@@@@@@   @@@@@@@@@@@@      @@@@@@@@@@@@@@@     #############################################################################",
"##############################################################             #####################                  @      @@@@@@@@@@@@@@@@@@@@@@@@@@@@   @@@@@@@@@@@@      @@@@@@@@@@@@@@@     #############################################################################",
"#############################################################               ####################                         @@@@@@@@@@@@@@@@@@@@@@@@@@@@   @@@@@@@@@@@@      @@@@@@@@@@@@@@@     #############################################################################",
"#############################################################      +++       ###################                         @@@@@@@@@@@@@@@@@@@@@@@@@@@@@  @@@@@@@@@@@@      @@@@@@@@@@@@@@@      ############################################################################",
"######################################################              +++       ####  ############     ...                 @@@@@@@@@@@@@@@@@@@@@@@@@@@@@@@@@@@@@@@@@@@@     @@@@@@@@@@@@@@@      ############################################################################",
"#####################################################                +++             ###########     .......             @@@@@@@@@@@@@@@@@@@@@@@@@@@@@@@@@@@@@@@@@@@@     @@@@@@@@@@@@@@@      ############################################################################",
"#####################################################                ++++             #########      ...........         @@@@@@@@@@@@@@@@@@@@@@@@@@@@@@@@@@@@@@@@@@@@     @@@@@@@@@@@@@@@      ############################################################################",
"#####################################################                 ++++             ########      ..............      @@@@@@@@@@@@@@@@@@@@@@@@@@@@@@@@@@@@@@@@@@@@     @@@@@@@@@@@@@@@      ############################################################################",
"####################################################                 ++++++             #######      ..............      @@@@@@@@@@@@@@@@@@@@@@@@@@@@@@@@@@@@@@@@@@@@                          ############################################################################",
"####################################################      ++         +++++++              #####     ...............      @@@@@@@@@@@@@@@@@@@@@@@@@@@@@@@@@@@@@@@@@@@@                          ############################################################################",
"####################################################      +++++++++++++++++++                ##     ...............      @@@@@@@@@@@@@@@@@@@@@@@@@@@@@@@@@@@@@@@@@@@@                          ############################################################################",
"####################################################                       ++                       ...............      @@@@@@@@@@@@@@@@@@@@@@@@@@@@@@@@@@@@@@@@@@@@                          ############################################################################",
"###################################################                               ..                ...............      @@@@@@@@@@@@@@@@@@@@@@@@@@@@@@@@@@@@@@@@@@@@                          ############################################################################",
"####################################################                              ....              ...............      @@@@@@@@@@@@@@@@@@@@@@@@@@@@@@@@@@@@@@@@@@@@          ..........      ############################################################################",
"####################################################                              ......               ............      @@@@@@@@@@@@@@@@@@@@@@@@@@@@@@@@@@@@@@@@@@@@     ...............      ############################################################################",
"#######################################################                          ..........              ..........      @@@@@@@@@@@@@@@@@@@@@@@@@@@@@@@@@@@@@@@@@@@@     ...............      ############################################################################",
"###############################################################                  ............               .......      @@@@@@@@@@@@@@@@@@@@@@@@@@@@@@@@@@@@@@@@@@@@     ...............      ############################################################################",
"###############################################################     ++++         ...............             ......      @@@@@@@@@@@@@@@@@@@@@@@@@@@@@@@@@@@@@@@@@@@@     ...............      ############################################################################",
"###############################################################     ++++         .................           ......      @@@@@@@@@@@@@@@@@@@@@@@@@@@@@@@@@@@@@@@@@@@@     ...............      ############################################################################",
"###############################################################     ++++        .....................        ......      @@@@@@@@@@@@@@@@@@@@@@@@@@@@@@@@@@@@@@@@@@@@     ...............      ############################################################################",
"###############################################################     ++++        .......................      ......      @@@@@@@@@@@@@@@@@@@@@@@@@@@@@@@@@@@@@@@@@@@@     ...............      ############################################################################",
"###############################################################     ++++       ...........................  .......      @@@@@@@@@@@@@@@@@@@@@@@@@@@@@@@@@@@@@@@@@@@@     ...............      ############################################################################",
"###############################################################     ++++       ....................................      @@@@@@@@@@@@@@@@@@@@@@@@@@@@@@@@@@@@@@@@@@@@     ...............      ############################################################################",
"###############################################################     ++++       ....................................      @@@@@@@@@@@@@@@@@@@@@@@@@@@@@@@@@@@@@@@@@@@@     ...............      ############################################################################",
"###############################################################     ++++      .....................................      @@@@@@@@@@@@@@@@@@@@@@@@@@@@@@@@@@@@@@@  @@@     ...............      ############################################################################",
"###############################################################              .....................................       @@@@   @@@@@@@@@@@@@@@@@@@@@@@@@@@@@@@    @@     ...............      ############################################################################",
"###############################################################              .....................................       @@@      @@@@@@@@@@@@@@@@@@@@@@@@@@@       @     ...............      ############################################################################",
"###############################################################                ...................................       @@@       @@@@@@@@@@@@@@@@@@@@@@@@@        @     ...............      ############################################################################",
"###############################################################                  .................................       @@         @@@@@@@@@@@@@@@@@@@@@@@         @     ...............      ############################################################################",
"###############################################################                     .............................        @@           @@@@@@@@@@@@@@@@@@@                 ...............      ############################################################################",
"#################################################################                     ...........................        @@            @@@@@@@@@@@@@@@@@                  ...............      ############################################################################",
"######################################################################                  .........................        @               @@@@@@@@@@@@@@                   ................     ############################################################################",
"#######################################################################                    .....................         @                @@@@@@@@@@@         ..          ................     ############################################################################",
"########################################################################   ####              ..................          @     ...                           ...          ................     ############################################################################",
"##################################################################################             ...............                 .....                        ....          ................     ############################################################################",
"####################################################################################              ...........                  ......                     .......         ................     ############################################################################",
"######################################################################################              ......                    ........                   ........         ................     ############################################################################",
"#########################################################################################                                     ..........               ..........         ................     ############################################################################",
"###########################################################################################                       #           ............ ......................         ................     ############################################################################",
"#############################################################################################                   ###          .....................................        ................     ############################################################################",
"################################################################################################               ####         ......................................        ................     ############################################################################",
"##################################################################################################          #######         ........................................      ................     ############################################################################",
"###################################################################################################################        ..........................................     ................     ############################################################################",
"###################################################################################################################       ...........................................     ................     ############################################################################",
"###################################################################################################################       ...........................................     ................     ############################################################################",
"###################################################################################################################      ............................................     ................     ############################################################################",
"###################################################################################################################      ............................................     ................     ############################################################################",
"###################################################################################################################      ............................................     ................     ############################################################################",
"###################################################################################################################      ............................................     ................     ############################################################################",
"###################################################################################################################      ............................................     ................     ############################################################################",
"###################################################################################################################      ............................................     ................     ############################################################################",
"###################################################################################################################      ............................................     ................     ############################################################################",
"###################################################################################################################      ............................................     ................     ############################################################################",
"##################################################################################################################      .............................................     ................     ############################################################################",
"#################################################################################################################       .............................................     ................     ############################################################################",
"#################################################################################################################      ..............................................     ................     ############################################################################",
"#################################################################################################################      ..............................................     ................     ############################################################################",
"##################################################################################################################     ..............................................     ................     ############################################################################",
"##################################################################################################################     ..............................................     ................     ############################################################################",
"##################################################################################################################       ............................................     ................     ############################################################################",
"##################################################################################################################             ......................................     ................     ############################################################################",
"###################################################################################################################                    ..........................         ................     ############################################################################",
"###################################################################################################################                                                       ................     ############################################################################",
"###################################################################################################################                                                       ................     ############################################################################",
"###################################################################################################################                                                       ................     ############################################################################",
"###################################################################################################################     ....                                              ................     ############################################################################",
"###################################################################################################################     ............                                .     ................     ############################################################################",
"###################################################################################################################     .............................................     ................     ############################################################################",
"###################################################################################################################     .............................................     ................     ############################################################################",
"###################################################################################################################     .............................................     ................      ###########################################################################",
"###################################################################################################################     .............................................     ................      ###########################################################################",
"###################################################################################################################     .............................................     ................      ###########################################################################",
"###################################################################################################################     .............................................     ................      ###########################################################################",
"###################################################################################################################     .............................................     ................      ###########################################################################",
"###################################################################################################################     .............................................     ................      ###########################################################################",
"###################################################################################################################     .............................................     ................      ###########################################################################",
"##################################################################################################################      .............................................     ................      ###########################################################################",
"##################################################################################################################      .............................................     ................      ###########################################################################",
"##################################################################################################################      ..................           ................     ................      ###########################################################################",
"##################################################################################################################      .................             ...............     ................      ###########################################################################",
"##################################################################################################################      .................             ..............      .................      ##########################################################################",
"##################################################################################################################      .................             ..............     ..................       #########################################################################",
"##################################################################################################################      .................             .............                               #########################################################################",
"##################################################################################################################     ....................           .............                                ########################################################################",
"##################################################################################################################     ....................           .............                                ########################################################################",
"##################################################################################################################     ....................           .............                               #########################################################################",
"##################################################################################################################     ....................           ............                                #########################################################################",
"##################################################################################################################     ....................     #     ............      ++++++++++++++++++++      #########################################################################",
"##################################################################################################################     ....................     #     ...........      +++++++++++++++++++++      #########################################################################",
"##################################################################################################################     ....................     #     ...........      +++++++++++++++++++++      #########################################################################",
"##################################################################################################################     ....................     #      .........      +++++++++++++++++++++++     #########################################################################",
"##################################################################################################################     ....................     #      .........      ++++ ++++++++++++++++++     #########################################################################",
"##################################################################################################################     ....................     #      ........      +++     ++++++++++++++++     #########################################################################",
"##################################################################################################################     ....................     #      ........      +++     ++++++++++++++++     #########################################################################",
"##################################################################################################################     ....................     #      .......      +++      ++++   +++++++++     #########################################################################",
"##################################################################################################################     ....................     #      .......      +++      +++     ++++++++     #########################################################################",
"##################################################################################################################     ....................     #      ......       ++       +++     ++++++++     #########################################################################",
"#################################################################################################################      ....................     #      ......                +++     ++++++++     #########################################################################",
"#################################################################################################################      ....................     #      ......                +++     ++++++++      ########################################################################",
"#################################################################################################################      ....................     ##     .......                ++     ++++++++      ########################################################################",
"#################################################################################################################      ....................     ##     .........              ++     ++++++++      ########################################################################",
"#################################################################################################################      ....................     ##     ...........            ++      +++++++      ########################################################################",
"#################################################################################################################      ....................     ##     ............          +++     ++++++++     #########################################################################",
"#################################################################################################################      ....................     ##     ..............        +++     ++++++++     #########################################################################",
"#################################################################################################################      ....................     ##     .................     +++     ++++++++     #########################################################################",
"#################################################################################################################     .....................     ##     .................     +++     +++++        #########################################################################",
"#################################################################################################################     .....................     ##     ................       ++                  #########################################################################",
"#################################################################################################################     .....................     ##     ................                           #########################################################################",
"#################################################################################################################     .....................     ##     ................                          ##########################################################################",
"#################################################################################################################     .....................     ##     ................                         ###########################################################################",
"#################################################################################################################     ....................      ##     .................                    ###############################################################################",
"#################################################################################################################     ....................      ##     ...................            #####################################################################################",
"#################################################################################################################     ....................      ##     ....................     ###########################################################################################",
"#################################################################################################################     ....................      ##     ....................      ##########################################################################################",
"#################################################################################################################     ....................      ##     ....................      ##########################################################################################",
"#################################################################################################################     ....................      ##      ...................      ##########################################################################################",
"#################################################################################################################     ....................      ##      ...................      ##########################################################################################",
"#################################################################################################################     ....................      ##      ...................      ##########################################################################################",
"#################################################################################################################     ....................      ##      ...................      ##########################################################################################",
"################################################################################################################      ....................      ##      ...................      ##########################################################################################",
"################################################################################################################      ....................      ##      ....................     ##########################################################################################",
"################################################################################################################      ....................      ##      ....................     ##########################################################################################",
"################################################################################################################      ....................     ###      ....................     ##########################################################################################",
"################################################################################################################      ....................     ###      ....................     ##########################################################################################",
"################################################################################################################      ....................     ####     ....................     ##########################################################################################",
"################################################################################################################      ....................     ####     ....................     ##########################################################################################",
"################################################################################################################      ....................     ####     ....................     ##########################################################################################",
"################################################################################################################     .....................     ####     ....................     ##########################################################################################",
"################################################################################################################     .....................     ####     ....................     ##########################################################################################",
"################################################################################################################     .....................     ####     ....................     ##########################################################################################",
"################################################################################################################     .....................     ####     ....................     ##########################################################################################",
"################################################################################################################     .....................     ####     ....................     ##########################################################################################",
"################################################################################################################     .....................     ####     ....................     ##########################################################################################",
"################################################################################################################     .....................     ####     ....................     ##########################################################################################",
"################################################################################################################     .....................     ####     ....................     ##########################################################################################",
"################################################################################################################     .....................     ####     ....................      #########################################################################################",
"################################################################################################################     .....................     ####     ....................      #########################################################################################",
"################################################################################################################     .....................     ####     ....................      #########################################################################################",
"################################################################################################################     .....................     ####     ....................      #########################################################################################",
"################################################################################################################     .....................     ####      ...................      #########################################################################################",
"################################################################################################################     .....................     ####      ....................     #########################################################################################",
"###############################################################################################################      .....................     ####      ....................      ########################################################################################",
"###############################################################################################################      .....................     ####      ....................      ########################################################################################",
"###############################################################################################################      .....................     #####     .....................     ########################################################################################",
"###############################################################################################################      .....................     #####     .....................      #######################################################################################",
"###############################################################################################################      ....................      #####     .....................      #######################################################################################",
"###############################################################################################################      ....................      #####      .....................     #######################################################################################",
"###############################################################################################################      ....................      #####      .....................      ######################################################################################",
"###############################################################################################################      ....................      #####      .....................      ######################################################################################",
"###############################################################################################################     .....................      ######     ......................     ######################################################################################",
"###############################################################################################################     .....................      ######     ......................      #####################################################################################",
"###############################################################################################################     .....................      ######      .....................      #####################################################################################",
"###############################################################################################################     .....................      ######      ......................     #####################################################################################",
"###############################################################################################################     .....................      #######     ......................      ####################################################################################",
"###############################################################################################################     .....................      #######     ......................      ####################################################################################",
"###############################################################################################################     .....................      #######      ......................     ####################################################################################",
"###############################################################################################################     .....................      ########     ......................      ###################################################################################",
"###############################################################################################################     .....................     #########     ......................      ###################################################################################",
"###############################################################################################################     .....................     #########      ......................     ###################################################################################",
"###############################################################################################################     .....................     #########      ......................      ##################################################################################",
"###############################################################################################################     .....................     ##########     ......................      ##################################################################################",
"###############################################################################################################     .....................     ##########      ......................     ##################################################################################",
"###############################################################################################################     .....................     ##########      ......................      #################################################################################",
"##############################################################################################################      .....................     ###########     ......................      #################################################################################",
"##############################################################################################################      .....................     ###########      ......................     #################################################################################",
"##############################################################################################################      .....................     ###########      ......................      ################################################################################",
"##############################################################################################################      .....................     ############     .......................     ################################################################################",
"##############################################################################################################      .....................     ############      ......................      ###############################################################################",
"##############################################################################################################      .....................     ############      ......................      ###############################################################################",
"##############################################################################################################      .....................     #############     .......................     ###############################################################################",
"##############################################################################################################      .....................     #############      ......................      ##############################################################################",
"##############################################################################################################     ......................     #############      ......................      ##############################################################################",
"##############################################################################################################     ......................     ##############     .......................     ##############################################################################",
"##############################################################################################################     ......................     ##############      ......................      #############################################################################",
"##############################################################################################################     ......................     ##############      ......................      #############################################################################",
"##############################################################################################################     ......................     ###############     .......................     #############################################################################",
"##############################################################################################################     ......................     ###############      ......................      ############################################################################",
"##############################################################################################################     ......................     ###############      ......................      ############################################################################",
"##############################################################################################################     ......................     ################     .......................     ############################################################################",
"##############################################################################################################     ......................     ################      ......................      ###########################################################################",
"##############################################################################################################     .....................      ################      ......................      ###########################################################################",
"##############################################################################################################     .....................      #################     .......................     ###########################################################################",
"##############################################################################################################     .....................      #################      ......................      ##########################################################################",
"##############################################################################################################     .....................      #################      ......................      ##########################################################################",
"##############################################################################################################     .....................      ##################     .......................     ##########################################################################",
"#############################################################################################################      .....................      ##################      ......................      #########################################################################",
"#############################################################################################################      .....................      ##################      ......................      #########################################################################",
"#############################################################################################################      .....................      ###################     .......................     #########################################################################",
"#############################################################################################################      .....................      ###################      ......................      ########################################################################",
"#############################################################################################################      .....................      ###################      ......................      ########################################################################",
"#############################################################################################################      .....................      ####################     .......................     ########################################################################",
"#############################################################################################################      .....................      ####################     .......................      #######################################################################",
"#############################################################################################################      .....................     #####################      ......................      #######################################################################",
"#############################################################################################################     ......................     ######################     .......................     #######################################################################",
"#############################################################################################################     ......................     ######################     .......................      ######################################################################",
"#############################################################################################################     ......................     ######################      ......................      ######################################################################",
"#############################################################################################################     ......................     #######################     .......................     ######################################################################",
"#############################################################################################################     ......................     #######################     .......................      #####################################################################",
"#############################################################################################################     ......................     #######################      ......................       ####################################################################",
"#############################################################################################################     ......................     #######################      .......................       ###################################################################",
"#############################################################################################################     ......................     ########################     .......................       ###################################################################",
"#############################################################################################################     ......................     ########################      ......................        ##################################################################",
"#############################################################################################################     ......................     ########################      ......................        ##################################################################",
"#############################################################################################################     ......................     #########################     .....................         ##################################################################",
"#############################################################################################################     ......................     #########################      ...................           #################################################################",
"#############################################################################################################     .....................       ########################      .................             #################################################################",
"#############################################################################################################     ..................           ########################      ............                 #################################################################",
"############################################################################################################      ..............               ########################      .......                      #################################################################",
"############################################################################################################      ...........                 #########################       ..                           ################################################################",
"###########################################################################################################             ..                    ########################                                     ################################################################",
"########################################################################################################                                      #######################                                      ################################################################",
"######################################################################################################                                        #######################                                       ###############################################################",
"###################################################################################################                                           ######################                                        ###############################################################",
"#################################################################################################                                             ######################                                        ###############################################################",
"################################################################################################                                              #####################                                         ###############################################################",
"##############################################################################################                                                #####################                                          ##############################################################",
"#############################################################################################                                                 ####################                                           ##############################################################",
"############################################################################################                                                  ####################                                           ##############################################################",
"############################################################################################                                                  ####################                                           ##############################################################",
"###########################################################################################                                                   ###################                                             #############################################################",
"###########################################################################################                                                   ###################                                             #############################################################",
"##########################################################################################                                                    ##################                                     ..      ##############################################################",
"##########################################################################################                                                    ##################                                    ..       ##############################################################",
"##########################################################################################                                                    ##################                                   ..       ###############################################################",
"#########################################################################################                                                     ##################                                  ..       ################################################################",
"#########################################################################################                                                     ##################                                 ..       #################################################################",
"#########################################################################################                                                     ##################                                ..       ##################################################################",
"#########################################################################################                                                     ##################                               ...      ###################################################################",
"#########################################################################################                                        .......      ##################                              ...       ###################################################################",
"#########################################################################################     ..........................................      ##################                            ...        ####################################################################",
"########################################################################################      ..........................................     ###################                         .....        #####################################################################",
"########################################################################################                                                     ###################                      ......         ######################################################################",
"########################################################################################                                                     ####################                ........           #######################################################################",
"########################################################################################                                                     ####################        .............             ########################################################################",
"########################################################################################                                                     ####################      ...........               ##########################################################################",
"#########################################################################################                                                   ######################                              ###########################################################################"
};
