/* XPM */
static const char *__png[] = {
/* columns rows colors chars-per-pixel */
"267 533 8 1 ",
"  c black",
". c gray10",
"X c #252525",
"o c #00BFBF",
"O c gray75",
"+ c #FFDAA5",
"@ c white",
"# c None",
/* pixels */
"###########################################################################################################################################################################################################################################################################",
"###########################################################################################################################################################################################################################################################################",
"###########################################################################################################################################################################################################################################################################",
"###########################################################################################################################################################################################################################################################################",
"###########################################################################################################################################################################################################################################################################",
"###########################################################################################################################################################################################################################################################################",
"###########################################################################################################################################################################################################################################################################",
"###########################################################################################################################################################################################################################################################################",
"###########################################################################################################################################################################################################################################################################",
"###########################################################################################################################################################################################################################################################################",
"###########################################################################################################################################################################################################################################################################",
"###########################################################################################################################################################################################################################################################################",
"###########################################################################################################################################################################################################################################################################",
"###########################################################################################################################################################################################################################################################################",
"###########################################################################################################################################################################################################################################################################",
"###########################################################################################################################################################################################################################################################################",
"###########################################################################################################################################################################################################################################################################",
"###########################################################################################################################################################################################################################################################################",
"###########################################################################################################################################################################################################################################################################",
"###########################################################################################################################################################################################################################################################################",
"###########################################################################################################################################################################################################################################################################",
"###########################################################################################################################################################################################################################################################################",
"###########################################################################################################################################################################################################################################################################",
"###########################################################################################################################################################################################################################################################################",
"###########################################################################################################################################################################################################################################################################",
"###########################################################################################################################################################################################################################################################################",
"###########################################################################################################################################################################################################################################################################",
"###########################################################################################################################################################################################################################################################################",
"###########################################################################################################################################################################################################################################################################",
"###########################################################################################################################################################################################################################################################################",
"###########################################################################################################################################################################################################################################################################",
"###########################################################################################################################################################################################################################################################################",
"###########################################################################################################################################################################################################################################################################",
"###########################################################################################################################################################################################################################################################################",
"###########################################################################################################################################################################################################################################################################",
"###########################################################################################################################################################################################################################################################################",
"###########################################################################################################################################################################################################################################################################",
"###########################################################################################################################################################################################################################################################################",
"###########################################################################################################################################################################################################################################################################",
"###########################################################################################################################################################################################################################################################################",
"###########################################################################################################################################################################################################################################################################",
"###########################################################################################################################################################################################################################################################################",
"###########################################################################################################################################################################################################################################################################",
"###########################################################################################################################################################################################################################################################################",
"###########################################################################################################################################################################################################################################################################",
"###########################################################################################################################################################################################################################################################################",
"###########################################################################################################################################################################################################################################################################",
"###########################################################################################################################################################################################################################################################################",
"###########################################################################################################################################################################################################################################################################",
"###########################################################################################################################################################################################################################################################################",
"###########################################################################################################################################################################################################################################################################",
"###########################################################################################################################################################################################################################################################################",
"###########################################################################################################################################################################################################################################################################",
"###########################################################################################################################################################################################################################################################################",
"###########################################################################################################################################################################################################################################################################",
"###########################################################################################################################################################################################################################################################################",
"###########################################################################################################################################################################################################################################################################",
"###########################################################################################################################################################################################################################################################################",
"###########################################################################################################################################################################################################################################################################",
"###########################################################################################################################################################################################################################################################################",
"###########################################################################################################################################################################################################################################################################",
"###########################################################################################################################################################################################################################################################################",
"###########################################################################################################################################################################################################################################################################",
"###########################################################################################################################################################################################################################################################################",
"###########################################################################################################################################################################################################################################################################",
"###########################################################################################################################################################################################################################################################################",
"###########################################################################################################################################################################################################################################################################",
"###########################################################################################################################################################################################################################################################################",
"###########################################################################################################################################################################################################################################################################",
"###########################################################################################################################################################################################################################################################################",
"###########################################################################################################################################################################################################################################################################",
"###########################################################################################################################################################################################################################################################################",
"###########################################################################################################################################################################################################################################################################",
"###########################################################################################################################################################################################################################################################################",
"###########################################################################################################################################################################################################################################################################",
"###########################################################################################################################################################################################################################################################################",
"###########################################################################################################################################################################################################################################################################",
"###########################################################################################################################################################################################################################################################################",
"###########################################################################################################################################################################################################################################################################",
"###########################################################################################################################################################################################################################################################################",
"###########################################################################################################################################################################################################################################################################",
"###########################################################################################################################################################################################################################################################################",
"###########################################################################################################################################################################################################################################################################",
"###########################################################################################################################################################################################################################################################################",
"###########################################################################################################################################################################################################################################################################",
"###########################################################################################################################################################################################################################################################################",
"###########################################################################################################################################################################################################################################################################",
"###########################################################################################################################################################################################################################################################################",
"###########################################################################################################################################################################################################################################################################",
"###########################################################################################################################################################################################################################################################################",
"###########################################################################################################################################################################################################################################################################",
"###########################################################################################################################################################################################################################################################################",
"###########################################################################################################################################################################################################################################################################",
"###########################################################################################################################################################################################################################################################################",
"###########################################################################################################################################################################################################################################################################",
"###########################################################################################################################################################################################################################################################################",
"###########################################################################################################################################################################################################################################################################",
"###########################################################################################################################################################################################################################################################################",
"###########################################################################################################################################################################################################################################################################",
"###########################################################################################################################################################################################################################################################################",
"###########################################################################################################################################################################################################################################################################",
"###########################################################################################################################################################################################################################################################################",
"###########################################################################################################################################################################################################################################################################",
"###########################################################################################################################################################################################################################################################################",
"###########################################################################################################################################################################################################################################################################",
"###########################################################################################################################################################################################################################################################################",
"###########################################################################################################################################################################################################################################################################",
"###########################################################################################################################################################################################################################################################################",
"###########################################################################################################################################################################################################################################################################",
"###########################################################################################################################################################################################################################################################################",
"###########################################################################################################################################################################################################################################################################",
"###########################################################################################################################################################################################################################################################################",
"###########################################################################################################################################################################################################################################################################",
"###########################################################################################################################################################################################################################################################################",
"###########################################################################################################################################################################################################################################################################",
"###########################################################################################################################################################################################################################################################################",
"#######################################################################################################  ##################################################################################################################################################################",
"######################################################################################################    #################################################################################################################################################################",
"#####################################################################################################      ################################################################################################################################################################",
"#####################################################################################################      #############   ################################################################################################################################################",
"#####################################################################################################       ###########      ##############################################################################################################################################",
"######################################################################################################       ##########       #############################################################################################################################################",
"######################################################################################################       ##########        ############################################################################################################################################",
"############################################################################################     #####        ##########         ##########################################################################################################################################",
"############################################################################################                  ##########          #########################################################################################################################################",
"###########################################################################################                    #########           ########################################################################################################################################",
"############################################################################################                    #########            ######################################################################################################################################",
"#############################################################################################                   #########             #####################################################################################################################################",
"##############################################################################################                   ########               ###################################################################################################################################",
"################################################################################################                   #######                #################################################################################################################################",
"##################################################################################################                    ####                 ################################################################################################################################",
"####################################################################################################                    ##                   ##############################################################################################################################",
"#############################################################################################      ###                                         ############################################################################################################################",
"######################################################################################                                                           ##########################################################################################################################",
"#####################################################################################                                                              ########################################################################################################################",
"#####################################################################################                                                                 #####################################################################################################################",
"#####################################################################################                                                                     #################################################################################################################",
"#####################################################################################                                                                            ##########################################################################################################",
"#######################################################################################                                                                              ######################################################################################################",
"##############################################################################################                                                                          ###################################################################################################",
"################################################################################################                                                                           ################################################################################################",
"############################################################################################                                                                                 ##############################################################################################",
"#######################################################################################                                                                                        ############################################################################################",
"#####################################################################################                                                                                            ##########################################################################################",
"#####################################################################################                                                                                              ########################################################################################",
"#####################################################################################                                                                                               #######################################################################################",
"#####################################################################################                                                                                                 #####################################################################################",
"#################################################################################                                                                                                      ####################################################################################",
"################################################################################                                                                                                        ###################################################################################",
"###############################################################################                                                                                                           #################################################################################",
"###############################################################################                                                                                                            ################################################################################",
"################################################################################                                                                                                            ###############################################################################",
"################################################################################                                                                                                             ##############################################################################",
"################################################################################                                                                                                             ##############################################################################",
"##################################################################################                                                                                                            #############################################################################",
"####################################################################################                                                                                                           ############################################################################",
"######################################################################################                                                                                                          ###########################################################################",
"#######################################################################################                                                                                                          ##########################################################################",
"################################################################################                                                                                                                 ##########################################################################",
"###########################################################################                                                                                                                       #########################################################################",
"########################################################################                                                                                                                           ########################################################################",
"######################################################################                                                                                                                             ########################################################################",
"######################################################################                                                                                                                              #######################################################################",
"######################################################################                                                                                                                              #######################################################################",
"######################################################################                                                                                                                               ######################################################################",
"########################################################################                                                                                                                             ######################################################################",
"##########################################################################                                                                                                                            #####################################################################",
"############################################################################                                                                                                                          #####################################################################",
"##############################################################################                                                                                                                        #####################################################################",
"################################################################################                                                                                                                       ####################################################################",
"###################################################################################                                                                                                                    ####################################################################",
"#####################################################################################                                                                                                                  ####################################################################",
"#####################################################################################                                                                                                                   ###################################################################",
"###################################################################################                                XXXXXX                                           XX                                  ###################################################################",
"#################################################################################                                XXXXXXXXXXX                                     XXXXXXXX                               ###################################################################",
"###############################################################################                                XXXXXXXXXXXXXX                                  XXXXXXXXXXXX                             ###################################################################",
"#############################################################################                                XXXXXX       XXXXX                               XXXXX    XXXXXX                           ###################################################################",
"############################################################################                                 XXXX          XXXXX                            XXXXX        XXXXXX                         ###################################################################",
"###########################################################################                                  XX              XXX                            XXXX           XXXX                         ###################################################################",
"##########################################################################                                                                                  XX               XX                          ##################################################################",
"########################################################################                                                                                                                                  #################################################################",
"#######################################################################                                                                                                                                    ################################################################",
"######################################################################                                                             ++++++++++++++++++++++++++++++++++++++++                                  ##############################################################",
"#####################################################################                                                 ++++++++++++++++++++++++++++++++++++++++++++++++++++++++++++                            #############################################################",
"####################################################################                                          +++++       ++++++++++++++++++++++++++++++++++++++++      ++++++++++++                           ############################################################",
"###################################################################                                       +++++++           +++++++++++++++++++++++++++++++++++            ++++++++++                          ############################################################",
"##################################################################               ########               +++++++               ++++++++++++++++++++++++++++++++              ++++++++++                         ############################################################",
"##################################################################            ###########              +++++++                 +++++++++++++++++++++++++++++                 +++++++++                        #############################################################",
"#################################################################          ##############            ++++++++                   +++++++++++++++++++++++++++                   +++++++++                      ##############################################################",
"#################################################################        ################           ++++++++         @@@         ++++++++++++++++++++++++++         @@@        ++++++++                     ###############################################################",
"#################################################################      ##################         ++++++++++       @@@@@@@        ++++++++++++++++++++++++       @@@@@@@@       ++++++++                    ###############################################################",
"##################################################################   ####################       +++++++++++       @@@@@@@@@@       ++++++++++++++++++++++       @@@@@@@@@@      ++++++++                     ##############################################################",
"#########################################################################################       +++++++++++      @@@@@@@@@@@@      +++++++++++++++++++++       @@@@@@@@@@@@      ++++++++                      ############################################################",
"#########################################################################################       ++++++++++      @@@@@@@@@@@@@       ++++++++++++++++++++      @@@@@@@@@@@@o      ++++++++                       ###########################################################",
"#########################################################################################       ++++++++++      @@@@@@@@@@@@@o      +++++++++++++++++++      @@@@@@@@@@@@ooo      ++++++++                      ###########################################################",
"#########################################################################################       +++++++++      @@@@@@@@@@@@@ooo      ++++++++++++++++++      @@@@@@@@@@@oooo      ++++++++                       ##########################################################",
"#########################################################################################       +++++++++      @@@@@@@@@@@@@ooo      +++++++++++++++++      @@@@@@@@@@@@ooooo      +++++++                      ###########################################################",
"#########################################################################################       ++++++++      @@@@@@@@@@@@@@oo@@      ++++++++++++++++      @@@@@@@@@@@ooo@@o      ++++++++             ###     ###########################################################",
"#########################################################################################       ++++++++      @@@@@@@@@@@@@ooo@@      ++++++++++++++++     @@@@@@@@@@@@ooo@@oo     ++++++++              ##################################################################",
"#########################################################################################       ++++++++     @@@@@@@@@@@@@@ooo@@@    +++++++++++++++++     @@@@@@@@@@@@oo@@@@o      ++++++               ##################################################################",
"#########################################################################################       ++++++++     @@@@@@@@@@@@@@ooo@@@o  ++++++++++++++++++++  @@@@@@@@@@@@@oo@@@@o      ++++++                #################################################################",
"#########################################################################################       +++++++      @@@@@@@@@@@@@@oo@@@@oo+++++++++++++++++++++@@@@@@@@@@@@@@ooo@@@@oo     ++++++                #################################################################",
"#########################################################################################        ++++++      @@@@@@@@@@@@@@oo@@@@oo+++++++++++++++++++++@@@@@@@@@@@@@@ooo@@@@oo     +++++++      ++++      ################################################################",
"#########################################################################################        ++++++     @@@@@@@@@@@@@@@oo@@@@oo+++++++++++++++++++++@@@@@@@@@@@@@@ooo@@@@oo      ++++++++++++++++      ################################################################",
"########################################################################################         ++++++     @@@@@@@@@@@@@@@oo@@@@oo+++++++++++++++++++++@@@@@@@@@@@@@@ooo@@@@oo      ++++++++++++++++      ################################################################",
"########################################################################################         +++++++    @@@@@@@@@@@@@@@oo@@@@ooo++++++++++++++++++++@@@@@@@@@@@@@@ooo@@@@ooo    ++++++++++++++++++     ################################################################",
"########################################################################################         +++++++++@@@@@@@@@@@@@@@@@oo@@@@ooo++++++++++++++++++++@@@@@@@@@@@@@@ooo@@@@ooo@+++++++++++++++++++++     ################################################################",
"########################################################################################         +++++++++@@@@@@@@@@@@@@@@@oo@@@@ooo++++++++++++++++++++@@@@@@@@@@@@@@ooo@@@@ooo@+++++++++++++++++++++     ################################################################",
"########################################################################################          +++++++++@@@@@@@@@@@@@@@@oo@@@@ooo++++++++++++++++++++@@@@@@@@@@@@@@ooo@@@@ooo@+++++++++++++++++++++     ################################################################",
"########################################################################################          +++++++++@@@@@@@@@@@@@@@@oo@@@@oo+++++++++++++++++++++@@@@@@@@@@@@@@ooo@@@@ooo@+++++++++++++++++++++      ###############################################################",
"########################################################################################          +++++++++@@@@@@@@@@@@@@@@ooo@@@oo+++++++++++++++++++++@@@@@@@@@@@@@@@oo@@@@oo@++++++++++++++++++++++     ################################################################",
"########################################################################################          ++++++++++@@@@@@@@@@@@@@@ooo@@@oo+++++++++++++++++++++@@@@@@@@@@@@@@@oo@@@ooo@++++++++++++++++++++++     ################################################################",
"########################################################################################          ++++++++++@@@@@@@@@@@@@@@ooo@@@oo+++++++++++++++++++++@@@@@@@@@@@@@@@ooo@@ooo@++++++++++++++++++++++     ################################################################",
"########################################################################################           +++++++++@@@@@@@@@@@@@@@@oo@@ooo++++++++++++++++++++++@@@@@@@@@@@@@@ooo@@ooo+++++++++++++++++++++++     ################################################################",
"########################################################################################           ++++++++++@@@@@@@@@@@@@@@ooooooo++++++++++++++++++++++@@@@@@@@@@@@@@@oooooo@+++++++++++++++++++++++     ################################################################",
"########################################################################################           ++++++++++@@@@@@@@@@@@@@@@ooooo@++++++++++++++++++++++@@@@@@@@@@@@@@@oooooo++++++++++++++++++++++++     ################################################################",
"########################################################################################           +++++++++++@@@@@@@@@@@@@@@oooo@+++++++++++++++++++++++@@@@@@@@@@@@@@@@oooo@+++++++++++++++++++++++      ################################################################",
"########################################################################################            ++++++++++@@@@@@@@@@@@@@@@@@@+++++++++++++++++++++++++@@@@@@@@@@@@@@@@@@@++++++++++++++++++++++++      ################################################################",
"########################################################################################            ++++++++++++@@@@@@@@@@@@@@@@++++++++++++++++++++++++++++@@@@@@@@@@@@@@@@+++++++++++++++++++++++++      ################################################################",
"########################################################################################            ++++++++++++++@@@@@@@@@@@@++++++++++++++++++++++++++++++++@@@@@@@@@@@+++++++++++++++++++++++++++       ################################################################",
"########################################################################################             ++++++++++++++++++++++++++++++++++++++++++++++++++++++++++++++++++++++++++++++++++++++++++++++         ###############################################################",
"########################################################################################             +++++++++++++++++++++++++++++++++++++++++++++++++++++++++++++++++++++++++++++++++++++   ++++++         ###############################################################",
"########################################################################################             ++++++++++++++++++++++++++++++++++++++++++++++++++++++++++++++++++++++++++++++++++++                   ###############################################################",
"########################################################################################              ++++++++++++++++++++++++++++++++++++++++++++++++++++++++++++++++++++++++++++++++++                    ###############################################################",
"#######################################################################################               ++++++++++++++++++++++++++++++++++++++++++++++++++++++++++++++++++++++++++++++++++                     ##############################################################",
"########################################################################################               ++++++++++++++++++++++++++++++++++++++++++++++++++++++++++++++++++++++++++++++++++                    ##############################################################",
"########################################################################################               +++++++++++++++++++++++++++++++++++++++++++++++++++++++++++++++++++++++++++++++++++                   ##############################################################",
"#############################################################################################          +++++++++++++++++++++++++++++++++++++++++++++++++++++++++++++++++++++++++++++++++++      ######       ##############################################################",
"#############################################################################################           +++++++++++++++++++++++++++++++++++++++++++++++++++++++++++++++++++++++++++++++++      #########     ##############################################################",
"############################################################################################            +++++++++++++++++++++++++++++++++++++++++++++++++++++++++++++++++++++++++++++++++      ##########   ###############################################################",
"############################################################################################      #      +++++++++++++++++++++++++++++++++++++++++++++++++++++++++++++++++++++++++++++++      #############################################################################",
"############################################################################################     ##      ++++++++++++++++++++++++++++++++++++++++++++++++++++++++++++++++++++++++++++++       #############################################################################",
"############################################################################################     ###      ++++++++++++++++++++++++  +++++++++++++++++++++++++++++++++++++++++++++++++++      ##############################################################################",
"############################################################################################    ####       +++++++++++++++++++++++     ++++++++++++++++   ++++++++++++++++++++++++++++      ###############################################################################",
"#####################################################################################################       +++++++++++++++++++++++              +++++    +++++++++++++++++++++++++++       ###############################################################################",
"######################################################################################################      ++++++++++++++++++++++++                     +++++++++++++++++++++++++++       ################################################################################",
"######################################################################################################       +++++++++++++++++++++++++++++++            +++++++++++++++++++++++++++       #################################################################################",
"#######################################################################################################       ++++++++++++++++++++++++++++++++++++    ++++++++++++++++++++++++++++        #################################################################################",
"########################################################################################################       ++++++++++++++++++++++++++++++++++++++++++++++++++++++++++++++++++        ##################################################################################",
"#########################################################################################################       ++++++++++++++++++++++++++++++++++++++++++++++++++++++++++++++++        ###################################################################################",
"##########################################################################################################        +++++++++++++++++++++++++++++++++++++++++++++++++++++++++++++        ####################################################################################",
"###########################################################################################################        +++++++++++++++++++++++++++++++++++++++++++++++++++++++++++        #####################################################################################",
"############################################################################################################        ++++++++++++++++++++++++++++++++++++++++++++++++++++++++         ######################################################################################",
"#############################################################################################################         +++++++++++++++++++++++++++++++++++++++++++++++++++++         #######################################################################################",
"##############################################################################################################         ++++++++++++++++++++++++++++++++++++++++++++++++++         #########################################################################################",
"###############################################################################################################          ++++++++++++++++++++++++++++++++++++++++++++++          ##########################################################################################",
"#################################################################################################################          ++++++++++++++++++++++++++++++++++++++++++           ###########################################################################################",
"##################################################################################################################           ++++++++++++++++++++++++++++++++++++++           #############################################################################################",
"####################################################################################################################           +++++++++++++++++++++++++++++++++             ##############################################################################################",
"#####################################################################################################################             +++++++++++++++++++++++++++              ################################################################################################",
"#######################################################################################################################               +++++++++++++++++++                ##################################################################################################",
"#########################################################################################################################                                              ####################################################################################################",
"###########################################################################################################################                                          ######################################################################################################",
"#############################################################################################################################                                     #########################################################################################################",
"################################################################################################################################                               ############################################################################################################",
"####################################################################################################################################                        ###############################################################################################################",
"#######################################################################################################################################              +      ###############################################################################################################",
"#######################################################################################################################################     ++++++++++      ###############################################################################################################",
"#######################################################################################################################################     ++++++++++      ###############################################################################################################",
"#######################################################################################################################################     ++++++++++     ################################################################################################################",
"#######################################################################################################################################     ++++++++++     ################################################################################################################",
"##############################################################################################################################                   +++++     ################################################################################################################",
"#############################################################################################################################                                       #######################################################################################################",
"#############################################################################################################################                                        ######################################################################################################",
"#############################################################################################################################                                        ######################################################################################################",
"#############################################################################################################################                                        ######################################################################################################",
"##########################################################################################################################                                                   ##############################################################################################",
"###################################################################################################################                                 ++                                         ############################################################################",
"###############################################################################################################                                      +                                           ##########################################################################",
"############################################################################################################                                                                                        #######################################################################",
"#########################################################################################################                                                                                             #####################################################################",
"########################################################################################################                         XXXXXX                    XXXXXX                                     #####################################################################",
"#######################################################################################################              @@@@@         XXX       OOOOO        XXXX                            ...         #####################################################################",
"######################################################################################################          @@@@@@@@@@@          X      OOOOOOO      XX             @@@@@@             .....      #####################################################################",
"#####################################################################################################        @@@@@@@@@@@@@@@               OOOOOOOO                   @@@@@@@@@@@@          ....      #####################################################################",
"#####################################################################################################      @@@@@@@@@@@@@@@@@@              OOOOOOOOO                @@@@@@@@@@@@@@@@@        ...     ######################################################################",
"####################################################################################################      @@@@@@@@@@@@@@@@@@@@@            OOOOOOOOO              @@@@@@@@@@@@@@@@@@@@        .      ######################################################################",
"####################################################################################################      @@@@@@@@@@@@@@@@@@@@@@@          OOOOOOOOO            @@@@@@@@@@@@@@@@@@@@@@@@      .      ######################################################################",
"####################################################################################################     @@@@@@@@@@@@@@@@@@@@@@@@@@        OOOOOOOO          @@@@@@@@@@@@@@@@@@@@@@@@@@@@     .     #######################################################################",
"####################################################################################################     @@@@@@@@@@@@@@@@@@@@@@@@@@@@@      OOOOOO       @@@@@@@@@@@@@@@@@@@@@@@@@@@@@@@@           #######################################################################",
"####################################################################################################     @@@@@@@@@@@@@@@@@@@@@@@@@@@@@        OOO       @@@@@@@@@@@@@@@@@@@@@@@@@@@@@@@@@           #######################################################################",
"###################################################################################################      @@@@@@@@@@@@@@@@@@@@@@@@@@@@@                  @@@@@@@@@@@@@@@@@@@@@@@@@@@@@@@@@           #######################################################################",
"###################################################################################################      @@@@@@@@@@@@@@@@@@@@@@@@@@@@@                  @@@@@@@@@@@@@@@@@@@@@@@@@@@@@@@@@           #######################################################################",
"###################################################################################################     @@@@@@@@@@@@@@@@@@@@@@@@@@@@@@                  @@@@@@@@@@@@@@@@@@@@@@@@@@@@@@@@@     .      ######################################################################",
"###################################################################################################     @@@@@@@@@@@@@@@@@@@@@@@@@@@@@@   @              @@@@@@@@@@@@@@@@@@@@@@@@@@@@@@@@@     .      ######################################################################",
"###################################################################################################     @@@@@@@@@@@@@@@@@@@@@@@@@@@@@@   @@@       @@   @@@@@@@@@@@@@@@@@@@@@@@@@@@@@@@@@     .      ######################################################################",
"###################################################################################################     @@@@@@@@@@@@@@@@@@@@@@@@@@@@@@   @@@@@@@@@@@@   @@@@@@@@@@@@@@@@@@@@@@@@@@@@@@@@@           #######################################################################",
"##################################################################################################      @@@@@@@@@@@@@@@@@@@@@@@@@@@@@@   @@@@@@@@@@@@   @@@@@@@@@@@@@@@@@@@@@@@@@@@@@@@@@           #######################################################################",
"##################################################################################################      @@@@@@@@@@@@@@@@@@@@@@@@@@@@@@   @@@@@@@@@@@@   @@@@@@@@@@@@@@@@@@@@@@@@@@@@@@@@@          ########################################################################",
"##################################################################################################     @@@@@@@@@@@@@@@@@@@@@@@@@@@@@@@   @@@@@@@@@@@@   @@@@@@@@@@@@@@@@@@@@@@@@@@@@@@@@@         #########################################################################",
"##################################################################################################     @@@@@@@@@@@@@@@@@@@@@@@@@@@@@@@   @@@@@@@@@@@@   @@@@@@@@@@@@@@@@@@@@@@@@@@@@@@@@@         #########################################################################",
"##################################################################################################     @@@@@@@@@@@@@@@@@@@@@@@@@@@@@@@   @@@@@@@@@@@@   @@@@@@@@@@@@@@@@@@@@@@@@@@@@@@@@@        ##########################################################################",
"########################################################### ###########     #####################      @@@@@@@@@@@@@@@@@@@@@@@@@@@@@@@   @@@@@@@@@@@@   @@@@@@@@@@@@@@@@@@@@@@@@@@@@@@@@@       ###########################################################################",
"##########################################################    #######       #####################      @@@@@@@@@@@@@@@@@@@@@@@@@@@@@@@   @@@@@@@@@@@@   @@@@@@@@@@@@@@@@@@@@@@@@@@@@@@@@@       ###########################################################################",
"#########################################################      #####         ####################     @@@@@@@@@@@@@@@ @@@@@@@@@@@@@@@@   @@@@@@@@@@@@   @@@@@@@@@@@@@@@@@@@@@@@@@@@@@@@@@     #############################################################################",
"########################################################        ##           ####################     @@@@@@@@@@@@@@    @@@@@@@@@@@@@@@@@@@@@@@@@@@@@   @@@@@@@@@@@@@    @@@@@@@@@@@@@@@@     #############################################################################",
"########################################################                      ###################         @@@@@@@@@     @@@@@@@@@@@@@@@@@@@@@@@@@@@@@   @@@@@@@@@@@@@     @@@@@@@@@@@@@@@     #############################################################################",
"#######################################################                       ###################             @@@@@      @@@@@@@@@@@@@@@@@@@@@@@@@@@@   @@@@@@@@@@@@      @@@@@@@@@@@@@@@     #############################################################################",
"######################################################                 ++      #################                  @      @@@@@@@@@@@@@@@@@@@@@@@@@@@@   @@@@@@@@@@@@      @@@@@@@@@@@@@@@     #############################################################################",
"######################################################                 ++      #################                         @@@@@@@@@@@@@@@@@@@@@@@@@@@@   @@@@@@@@@@@@      @@@@@@@@@@@@@@@     #############################################################################",
"#####################################################      ++          +++     #################                         @@@@@@@@@@@@@@@@@@@@@@@@@@@@@  @@@@@@@@@@@@      @@@@@@@@@@@@@@@      ############################################################################",
"#####################################################       ++          ++      ##  ############     ...                 @@@@@@@@@@@@@@@@@@@@@@@@@@@@@@@@@@@@@@@@@@@@     @@@@@@@@@@@@@@@      ############################################################################",
"#####################################################        ++         ++           ###########     .......             @@@@@@@@@@@@@@@@@@@@@@@@@@@@@@@@@@@@@@@@@@@@     @@@@@@@@@@@@@@@      ############################################################################",
"#####################################################         +++       +++           #########      ...........         @@@@@@@@@@@@@@@@@@@@@@@@@@@@@@@@@@@@@@@@@@@@     @@@@@@@@@@@@@@@      ############################################################################",
"####################################################            +++    ++++            ########      ..............      @@@@@@@@@@@@@@@@@@@@@@@@@@@@@@@@@@@@@@@@@@@@     @@@@@@@@@@@@@@@      ############################################################################",
"####################################################              ++++++++++            #######      ..............      @@@@@@@@@@@@@@@@@@@@@@@@@@@@@@@@@@@@@@@@@@@@                          ############################################################################",
"####################################################               +++++++++              #####     ...............      @@@@@@@@@@@@@@@@@@@@@@@@@@@@@@@@@@@@@@@@@@@@                          ############################################################################",
"###################################################      +          +++++++++                ##     ...............      @@@@@@@@@@@@@@@@@@@@@@@@@@@@@@@@@@@@@@@@@@@@                          ############################################################################",
"###################################################      ++         +++++++++                       ...............      @@@@@@@@@@@@@@@@@@@@@@@@@@@@@@@@@@@@@@@@@@@@                          ############################################################################",
"###################################################     ++++++     +++++++++      ..                ...............      @@@@@@@@@@@@@@@@@@@@@@@@@@@@@@@@@@@@@@@@@@@@                          ############################################################################",
"##################################################      ++++++++  ++++++++++      ....              ...............      @@@@@@@@@@@@@@@@@@@@@@@@@@@@@@@@@@@@@@@@@@@@          ..........      ############################################################################",
"##################################################      ++++++++++++++++++++     .......               ............      @@@@@@@@@@@@@@@@@@@@@@@@@@@@@@@@@@@@@@@@@@@@     ...............      ############################################################################",
"##################################################     ++++++++++++++++++++      ..........              ..........      @@@@@@@@@@@@@@@@@@@@@@@@@@@@@@@@@@@@@@@@@@@@     ...............      ############################################################################",
"##################################################     ++++++++++++++++++++      ............               .......      @@@@@@@@@@@@@@@@@@@@@@@@@@@@@@@@@@@@@@@@@@@@     ...............      ############################################################################",
"#################################################      +++++++++++++++++++      ................             ......      @@@@@@@@@@@@@@@@@@@@@@@@@@@@@@@@@@@@@@@@@@@@     ...............      ############################################################################",
"#################################################       ++++++++++++++++++      ..................           ......      @@@@@@@@@@@@@@@@@@@@@@@@@@@@@@@@@@@@@@@@@@@@     ...............      ############################################################################",
"##################################################        +++++++++++++++      ......................        ......      @@@@@@@@@@@@@@@@@@@@@@@@@@@@@@@@@@@@@@@@@@@@     ...............      ############################################################################",
"###################################################         +++++++++++++      ........................      ......      @@@@@@@@@@@@@@@@@@@@@@@@@@@@@@@@@@@@@@@@@@@@     ...............      ############################################################################",
"####################################################          ++++++++++      ............................  .......      @@@@@@@@@@@@@@@@@@@@@@@@@@@@@@@@@@@@@@@@@@@@     ...............      ############################################################################",
"#####################################################           +++++++       .....................................      @@@@@@@@@@@@@@@@@@@@@@@@@@@@@@@@@@@@@@@@@@@@     ...............      ############################################################################",
"######################################################            ++++       ......................................      @@@@@@@@@@@@@@@@@@@@@@@@@@@@@@@@@@@@@@@@@@@@     ...............      ############################################################################",
"########################################################                    .......................................      @@@@@@@@@@@@@@@@@@@@@@@@@@@@@@@@@@@@@@@  @@@     ...............      ############################################################################",
"##########################################################                  ......................................       @@@@   @@@@@@@@@@@@@@@@@@@@@@@@@@@@@@@    @@     ...............      ############################################################################",
"############################################################               .......................................       @@@      @@@@@@@@@@@@@@@@@@@@@@@@@@@       @     ...............      ############################################################################",
"##############################################################                 ...................................       @@@       @@@@@@@@@@@@@@@@@@@@@@@@@        @     ...............      ############################################################################",
"################################################################                 .................................       @@         @@@@@@@@@@@@@@@@@@@@@@@         @     ...............      ############################################################################",
"####################################################################                .............................        @@           @@@@@@@@@@@@@@@@@@@                 ...............      ############################################################################",
"#####################################################################                 ...........................        @@            @@@@@@@@@@@@@@@@@                  ...............      ############################################################################",
"######################################################################                  .........................        @               @@@@@@@@@@@@@@                   ................     ############################################################################",
"######################################################################     ##              .....................         @                @@@@@@@@@@@         ..          ................     ############################################################################",
"###############################################################################              ..................          @     ...                           ...          ................     ############################################################################",
"##################################################################################             ...............                 .....                        ....          ................     ############################################################################",
"####################################################################################              ...........                  ......                     .......         ................     ############################################################################",
"######################################################################################              ......                    ........                   ........         ................     ############################################################################",
"#########################################################################################                                     ..........               ..........         ................     ############################################################################",
"###########################################################################################                       #           ............ ......................         ................     ############################################################################",
"#############################################################################################                   ###          .....................................        ................     ############################################################################",
"################################################################################################               ####         ......................................        ................     ############################################################################",
"##################################################################################################          #######         ........................................      ................     ############################################################################",
"###################################################################################################################        ..........................................     ................     ############################################################################",
"###################################################################################################################       ...........................................     ................     ############################################################################",
"###################################################################################################################       ...........................................     ................     ############################################################################",
"###################################################################################################################      ............................................     ................     ############################################################################",
"###################################################################################################################      ............................................     ................     ############################################################################",
"###################################################################################################################      ............................................     ................     ############################################################################",
"###################################################################################################################      ............................................     ................     ############################################################################",
"###################################################################################################################      ............................................     ................     ############################################################################",
"###################################################################################################################      ............................................     ................     ############################################################################",
"###################################################################################################################      ............................................     ................     ############################################################################",
"###################################################################################################################      ............................................     ................     ############################################################################",
"##################################################################################################################      .............................................     ................     ############################################################################",
"#################################################################################################################       .............................................     ................     ############################################################################",
"#################################################################################################################      ..............................................     ................     ############################################################################",
"#################################################################################################################      ..............................................     ................     ############################################################################",
"##################################################################################################################     ..............................................     ................     ############################################################################",
"##################################################################################################################     ..............................................     ................     ############################################################################",
"##################################################################################################################       ............................................     ................     ############################################################################",
"##################################################################################################################             ......................................     ................     ############################################################################",
"###################################################################################################################                    ..........................         ................     ############################################################################",
"###################################################################################################################                                                       ................     ############################################################################",
"###################################################################################################################                                                       ................     ############################################################################",
"###################################################################################################################                                                       ................     ############################################################################",
"###################################################################################################################     ....                                              ................     ############################################################################",
"###################################################################################################################     ............                                .     ................     ############################################################################",
"###################################################################################################################     .............................................     ................     ############################################################################",
"###################################################################################################################     .............................................     ................     ############################################################################",
"###################################################################################################################     .............................................     ................      ###########################################################################",
"###################################################################################################################     .............................................     ................      ###########################################################################",
"###################################################################################################################     .............................................     ................      ###########################################################################",
"###################################################################################################################     .............................................     ................      ###########################################################################",
"###################################################################################################################     .............................................     ................      ###########################################################################",
"###################################################################################################################     .............................................     ................      ###########################################################################",
"###################################################################################################################     .............................................     ................      ###########################################################################",
"##################################################################################################################      .............................................     ................      ###########################################################################",
"##################################################################################################################      .............................................     ................      ###########################################################################",
"##################################################################################################################      ..................           ................     ................      ###########################################################################",
"##################################################################################################################      .................             ...............     ................      ###########################################################################",
"##################################################################################################################      .................             ..............      .................      ##########################################################################",
"##################################################################################################################      .................             ..............     ..................       #########################################################################",
"##################################################################################################################      .................             .............                               #########################################################################",
"##################################################################################################################     ....................           .............                                ########################################################################",
"##################################################################################################################     ....................           .............                                ########################################################################",
"##################################################################################################################     ....................           .............                               #########################################################################",
"##################################################################################################################     ....................           ............                                #########################################################################",
"##################################################################################################################     ....................     #     ............      ++++++++++++++++++++      #########################################################################",
"##################################################################################################################     ....................     #     ...........      +++++++++++++++++++++      #########################################################################",
"##################################################################################################################     ....................     #     ...........      +++++++++++++++++++++      #########################################################################",
"##################################################################################################################     ....................     #      .........      +++++++++++++++++++++++     #########################################################################",
"##################################################################################################################     ....................     #      .........      ++++ ++++++++++++++++++     #########################################################################",
"##################################################################################################################     ....................     #      ........      +++     ++++++++++++++++     #########################################################################",
"##################################################################################################################     ....................     #      ........      +++     ++++++++++++++++     #########################################################################",
"##################################################################################################################     ....................     #      .......      +++      ++++   +++++++++     #########################################################################",
"##################################################################################################################     ....................     #      .......      +++      +++     ++++++++     #########################################################################",
"##################################################################################################################     ....................     #      ......       ++       +++     ++++++++     #########################################################################",
"#################################################################################################################      ....................     #      ......                +++     ++++++++     #########################################################################",
"#################################################################################################################      ....................     #      ......                +++     ++++++++      ########################################################################",
"#################################################################################################################      ....................     ##     .......                ++     ++++++++      ########################################################################",
"#################################################################################################################      ....................     ##     .........              ++     ++++++++      ########################################################################",
"#################################################################################################################      ....................     ##     ...........            ++      +++++++      ########################################################################",
"#################################################################################################################      ....................     ##     ............          +++     ++++++++     #########################################################################",
"#################################################################################################################      ....................     ##     ..............        +++     ++++++++     #########################################################################",
"#################################################################################################################      ....................     ##     .................     +++     ++++++++     #########################################################################",
"#################################################################################################################     .....................     ##     .................     +++     +++++        #########################################################################",
"#################################################################################################################     .....................     ##     ................       ++                  #########################################################################",
"#################################################################################################################     .....................     ##     ................                           #########################################################################",
"#################################################################################################################     .....................     ##     ................                          ##########################################################################",
"#################################################################################################################     .....................     ##     ................                         ###########################################################################",
"#################################################################################################################     ....................      ##     .................                    ###############################################################################",
"#################################################################################################################     ....................      ##     ...................            #####################################################################################",
"#################################################################################################################     ....................      ##     ....................     ###########################################################################################",
"#################################################################################################################     ....................      ##     ....................      ##########################################################################################",
"#################################################################################################################     ....................      ##     ....................      ##########################################################################################",
"#################################################################################################################     ....................      ##      ...................      ##########################################################################################",
"#################################################################################################################     ....................      ##      ...................      ##########################################################################################",
"#################################################################################################################     ....................      ##      ...................      ##########################################################################################",
"#################################################################################################################     ....................      ##      ...................      ##########################################################################################",
"################################################################################################################      ....................      ##      ...................      ##########################################################################################",
"################################################################################################################      ....................      ##      ...................      ##########################################################################################",
"################################################################################################################      ....................      ##      ....................     ##########################################################################################",
"################################################################################################################      ....................     ###      ....................     ##########################################################################################",
"################################################################################################################      ....................     ###      ....................     ##########################################################################################",
"################################################################################################################      ....................     ####     ....................     ##########################################################################################",
"################################################################################################################      ....................     ####     ....................     ##########################################################################################",
"################################################################################################################      ....................     ####     ....................     ##########################################################################################",
"################################################################################################################     .....................     ####     ....................     ##########################################################################################",
"################################################################################################################     .....................     ####     ....................     ##########################################################################################",
"################################################################################################################     .....................     ####     ....................     ##########################################################################################",
"################################################################################################################     .....................     ####     ....................     ##########################################################################################",
"################################################################################################################     .....................     ####     ....................     ##########################################################################################",
"################################################################################################################     .....................     ####     ....................     ##########################################################################################",
"################################################################################################################     .....................     ####     ....................     ##########################################################################################",
"################################################################################################################     .....................     ####     ....................     ##########################################################################################",
"################################################################################################################     .....................     ####     ....................      #########################################################################################",
"################################################################################################################     .....................     ####     ....................      #########################################################################################",
"################################################################################################################     .....................     ####     ....................      #########################################################################################",
"################################################################################################################     .....................     ####     ....................      #########################################################################################",
"################################################################################################################     .....................     ####      ...................      #########################################################################################",
"################################################################################################################     .....................     ####      ...................      #########################################################################################",
"###############################################################################################################      .....................     ####      ....................     #########################################################################################",
"###############################################################################################################      .....................     ####      ....................     #########################################################################################",
"###############################################################################################################      .....................     #####     ....................     #########################################################################################",
"###############################################################################################################      .....................     #####     ....................     #########################################################################################",
"###############################################################################################################      ....................      #####     ....................     #########################################################################################",
"###############################################################################################################      ....................      #####     ....................      ########################################################################################",
"###############################################################################################################      ....................      #####     ....................      ########################################################################################",
"###############################################################################################################      ....................      #####      ...................      ########################################################################################",
"###############################################################################################################     .....................      #####      ....................     ########################################################################################",
"###############################################################################################################     .....................      #####      ....................     ########################################################################################",
"###############################################################################################################     .....................      ######     ....................     ########################################################################################",
"###############################################################################################################     .....................      ######     ....................     ########################################################################################",
"###############################################################################################################     .....................      ######     ....................     ########################################################################################",
"###############################################################################################################     .....................      ######     ....................     ########################################################################################",
"###############################################################################################################     .....................      ######      ...................      #######################################################################################",
"###############################################################################################################     .....................      ######      ...................      #######################################################################################",
"###############################################################################################################     .....................     #######      ...................      #######################################################################################",
"###############################################################################################################     .....................     ########     ....................     #######################################################################################",
"###############################################################################################################     .....................     ########     ....................     #######################################################################################",
"###############################################################################################################     .....................     ########     ....................     #######################################################################################",
"###############################################################################################################     .....................     ########     ....................     #######################################################################################",
"###############################################################################################################     .....................     ########     ....................     #######################################################################################",
"##############################################################################################################      .....................     ########      ...................      ######################################################################################",
"##############################################################################################################      .....................     ########      ...................      ######################################################################################",
"##############################################################################################################      .....................     ########      ...................      ######################################################################################",
"##############################################################################################################      .....................     #########     ....................     ######################################################################################",
"##############################################################################################################      .....................     #########     ....................     ######################################################################################",
"##############################################################################################################      .....................     #########     ....................     ######################################################################################",
"##############################################################################################################      .....................     #########     ....................     ######################################################################################",
"##############################################################################################################      .....................     #########     ....................     ######################################################################################",
"##############################################################################################################     ......................     #########     ....................     ######################################################################################",
"##############################################################################################################     ......................     #########      ...................      #####################################################################################",
"##############################################################################################################     ......................     #########      ...................      #####################################################################################",
"##############################################################################################################     ......................     #########      ...................      #####################################################################################",
"##############################################################################################################     ......................     ##########     ....................     #####################################################################################",
"##############################################################################################################     ......................     ##########     ....................     #####################################################################################",
"##############################################################################################################     ......................     ##########     ....................     #####################################################################################",
"##############################################################################################################     ......................     ##########     ....................     #####################################################################################",
"##############################################################################################################     ......................     ##########     ....................     #####################################################################################",
"##############################################################################################################     .....................      ##########     ....................      ####################################################################################",
"##############################################################################################################     .....................      ##########      ...................      ####################################################################################",
"##############################################################################################################     .....................      ##########      ...................      ####################################################################################",
"##############################################################################################################     .....................      ##########      ....................     ####################################################################################",
"##############################################################################################################     .....................      ###########     ....................     ####################################################################################",
"#############################################################################################################      .....................      ###########     ....................     ####################################################################################",
"#############################################################################################################      .....................      ###########     ....................     ####################################################################################",
"#############################################################################################################      .....................      ###########     ....................     ####################################################################################",
"#############################################################################################################      .....................      ###########     ....................     ####################################################################################",
"#############################################################################################################      .....................      ###########      ...................      ###################################################################################",
"#############################################################################################################      .....................      ###########      ...................      ###################################################################################",
"#############################################################################################################      .....................      ###########      ...................      ###################################################################################",
"#############################################################################################################      .....................     #############     ....................     ###################################################################################",
"#############################################################################################################     ......................     #############     ....................     ###################################################################################",
"#############################################################################################################     ......................     #############     ....................     ###################################################################################",
"#############################################################################################################     ......................     #############     ....................     ###################################################################################",
"#############################################################################################################     ......................     #############     ....................     ###################################################################################",
"#############################################################################################################     ......................     #############     ....................      ##################################################################################",
"#############################################################################################################     ......................     #############      ...................      ##################################################################################",
"#############################################################################################################     ......................     #############      ...................      ##################################################################################",
"#############################################################################################################     ......................     #############      ....................     ##################################################################################",
"#############################################################################################################     ......................     ##############     ....................     ##################################################################################",
"#############################################################################################################     ......................     ##############     ....................     ##################################################################################",
"#############################################################################################################     ......................     ############       ....................     ##################################################################################",
"#############################################################################################################     ......................     ###########        ....................      #################################################################################",
"#############################################################################################################     .....................       #########         ...................       #################################################################################",
"#############################################################################################################     ..................           #######          ..................        #################################################################################",
"############################################################################################################      ..............               ######              .............          #################################################################################",
"############################################################################################################      ...........                 ######                                      #################################################################################",
"###########################################################################################################             ..                    #####                                       #################################################################################",
"########################################################################################################                                      ####                                        #################################################################################",
"######################################################################################################                                        ###                                         #################################################################################",
"###################################################################################################                                           ###                                         #################################################################################",
"#################################################################################################                                             ##                                          #################################################################################",
"################################################################################################                                              #                                           #################################################################################",
"##############################################################################################                                                                                            #################################################################################",
"#############################################################################################                                                                                             #################################################################################",
"############################################################################################                                                                                              #################################################################################",
"############################################################################################                                                                                              #################################################################################",
"###########################################################################################                                                                                               #################################################################################",
"###########################################################################################                                                                                               #################################################################################",
"##########################################################################################                                                                                                #################################################################################",
"##########################################################################################                                                                                                #################################################################################",
"##########################################################################################                                                                                                #################################################################################",
"#########################################################################################                                                                                         ...     #################################################################################",
"#########################################################################################                                                                                        ..       #################################################################################",
"#########################################################################################                                                                                      ...        #################################################################################",
"#########################################################################################                                                                                     ..          #################################################################################",
"#########################################################################################                                        .......                                    ...         ###################################################################################",
"#########################################################################################     ..........................................                                  ....         ####################################################################################",
"########################################################################################      ..........................................         ........               ....         ######################################################################################",
"########################################################################################                                                          ........................          #######################################################################################",
"########################################################################################                                                               ................            ########################################################################################",
"########################################################################################                                                                                         ##########################################################################################",
"########################################################################################                                                                                        ###########################################################################################",
"#########################################################################################                                                   ##                                #############################################################################################"
};
