/* XPM */
static const char *__png[] = {
/* columns rows colors chars-per-pixel */
"267 533 8 1 ",
"  c black",
". c gray10",
"X c #252525",
"o c #00BFBF",
"O c gray75",
"+ c #FFDAA5",
"@ c white",
"# c None",
/* pixels */
"###########################################################################################################################################################################################################################################################################",
"###########################################################################################################################################################################################################################################################################",
"###########################################################################################################################################################################################################################################################################",
"###########################################################################################################################################################################################################################################################################",
"###########################################################################################################################################################################################################################################################################",
"###########################################################################################################################################################################################################################################################################",
"###########################################################################################################################################################################################################################################################################",
"###########################################################################################################################################################################################################################################################################",
"###########################################################################################################################################################################################################################################################################",
"###########################################################################################################################################################################################################################################################################",
"###########################################################################################################################################################################################################################################################################",
"###########################################################################################################################################################################################################################################################################",
"###########################################################################################################################################################################################################################################################################",
"###########################################################################################################################################################################################################################################################################",
"###########################################################################################################################################################################################################################################################################",
"###########################################################################################################################################################################################################################################################################",
"###########################################################################################################################################################################################################################################################################",
"###########################################################################################################################################################################################################################################################################",
"###########################################################################################################################################################################################################################################################################",
"###########################################################################################################################################################################################################################################################################",
"###########################################################################################################################################################################################################################################################################",
"###########################################################################################################################################################################################################################################################################",
"###########################################################################################################################################################################################################################################################################",
"###########################################################################################################################################################################################################################################################################",
"###########################################################################################################################################################################################################################################################################",
"###########################################################################################################################################################################################################################################################################",
"###########################################################################################################################################################################################################################################################################",
"###########################################################################################################################################################################################################################################################################",
"###########################################################################################################################################################################################################################################################################",
"###########################################################################################################################################################################################################################################################################",
"###########################################################################################################################################################################################################################################################################",
"###########################################################################################################################################################################################################################################################################",
"###########################################################################################################################################################################################################################################################################",
"###########################################################################################################################################################################################################################################################################",
"###########################################################################################################################################################################################################################################################################",
"###########################################################################################################################################################################################################################################################################",
"###########################################################################################################################################################################################################################################################################",
"###########################################################################################################################################################################################################################################################################",
"###########################################################################################################################################################################################################################################################################",
"###########################################################################################################################################################################################################################################################################",
"###########################################################################################################################################################################################################################################################################",
"###########################################################################################################################################################################################################################################################################",
"###########################################################################################################################################################################################################################################################################",
"###########################################################################################################################################################################################################################################################################",
"###########################################################################################################################################################################################################################################################################",
"###########################################################################################################################################################################################################################################################################",
"###########################################################################################################################################################################################################################################################################",
"###########################################################################################################################################################################################################################################################################",
"###########################################################################################################################################################################################################################################################################",
"###########################################################################################################################################################################################################################################################################",
"###########################################################################################################################################################################################################################################################################",
"###########################################################################################################################################################################################################################################################################",
"###########################################################################################################################################################################################################################################################################",
"###########################################################################################################################################################################################################################################################################",
"###########################################################################################################################################################################################################################################################################",
"###########################################################################################################################################################################################################################################################################",
"###########################################################################################################################################################################################################################################################################",
"###########################################################################################################################################################################################################################################################################",
"###########################################################################################################################################################################################################################################################################",
"###########################################################################################################################################################################################################################################################################",
"###########################################################################################################################################################################################################################################################################",
"###########################################################################################################################################################################################################################################################################",
"###########################################################################################################################################################################################################################################################################",
"###########################################################################################################################################################################################################################################################################",
"###########################################################################################################################################################################################################################################################################",
"###########################################################################################################################################################################################################################################################################",
"###########################################################################################################################################################################################################################################################################",
"###########################################################################################################################################################################################################################################################################",
"###########################################################################################################################################################################################################################################################################",
"###########################################################################################################################################################################################################################################################################",
"###########################################################################################################################################################################################################################################################################",
"###########################################################################################################################################################################################################################################################################",
"###########################################################################################################################################################################################################################################################################",
"###########################################################################################################################################################################################################################################################################",
"###########################################################################################################################################################################################################################################################################",
"###########################################################################################################################################################################################################################################################################",
"###########################################################################################################################################################################################################################################################################",
"###########################################################################################################################################################################################################################################################################",
"###########################################################################################################################################################################################################################################################################",
"###########################################################################################################################################################################################################################################################################",
"###########################################################################################################################################################################################################################################################################",
"###########################################################################################################################################################################################################################################################################",
"###########################################################################################################################################################################################################################################################################",
"###########################################################################################################################################################################################################################################################################",
"###########################################################################################################################################################################################################################################################################",
"###########################################################################################################################################################################################################################################################################",
"###########################################################################################################################################################################################################################################################################",
"###########################################################################################################################################################################################################################################################################",
"###########################################################################################################################################################################################################################################################################",
"###########################################################################################################################################################################################################################################################################",
"###########################################################################################################################################################################################################################################################################",
"###########################################################################################################################################################################################################################################################################",
"###########################################################################################################################################################################################################################################################################",
"###########################################################################################################################################################################################################################################################################",
"###########################################################################################################################################################################################################################################################################",
"###########################################################################################################################################################################################################################################################################",
"###########################################################################################################################################################################################################################################################################",
"###########################################################################################################################################################################################################################################################################",
"###########################################################################################################################################################################################################################################################################",
"###########################################################################################################################################################################################################################################################################",
"###########################################################################################################################################################################################################################################################################",
"###########################################################################################################################################################################################################################################################################",
"###########################################################################################################################################################################################################################################################################",
"###########################################################################################################################################################################################################################################################################",
"###########################################################################################################################################################################################################################################################################",
"###########################################################################################################################################################################################################################################################################",
"###########################################################################################################################################################################################################################################################################",
"###########################################################################################################################################################################################################################################################################",
"###########################################################################################################################################################################################################################################################################",
"###########################################################################################################################################################################################################################################################################",
"###########################################################################################################################################################################################################################################################################",
"###########################################################################################################################################################################################################################################################################",
"###########################################################################################################################################################################################################################################################################",
"###########################################################################################################################################################################################################################################################################",
"###########################################################################################################################################################################################################################################################################",
"###########################################################################################################################################################################################################################################################################",
"#######################################################################################################  ##################################################################################################################################################################",
"######################################################################################################    #################################################################################################################################################################",
"#####################################################################################################      ################################################################################################################################################################",
"#####################################################################################################      #############   ################################################################################################################################################",
"#####################################################################################################       ###########      ##############################################################################################################################################",
"######################################################################################################       ##########       #############################################################################################################################################",
"######################################################################################################       ##########        ############################################################################################################################################",
"############################################################################################     #####        ##########         ##########################################################################################################################################",
"############################################################################################                  ##########          #########################################################################################################################################",
"###########################################################################################                    #########           ########################################################################################################################################",
"############################################################################################                    #########            ######################################################################################################################################",
"#############################################################################################                   #########             #####################################################################################################################################",
"##############################################################################################                   ########               ###################################################################################################################################",
"################################################################################################                   #######                #################################################################################################################################",
"##################################################################################################                    ####                 ################################################################################################################################",
"####################################################################################################                    ##                   ##############################################################################################################################",
"#############################################################################################      ###                                         ############################################################################################################################",
"######################################################################################                                                           ##########################################################################################################################",
"#####################################################################################                                                              ########################################################################################################################",
"#####################################################################################                                                                 #####################################################################################################################",
"#####################################################################################                                                                     #################################################################################################################",
"#####################################################################################                                                                            ##########################################################################################################",
"#######################################################################################                                                                              ######################################################################################################",
"##############################################################################################                                                                          ###################################################################################################",
"################################################################################################                                                                           ################################################################################################",
"############################################################################################                                                                                 ##############################################################################################",
"#######################################################################################                                                                                        ############################################################################################",
"#####################################################################################                                                                                            ##########################################################################################",
"#####################################################################################                                                                                              ########################################################################################",
"#####################################################################################                                                                                               #######################################################################################",
"#####################################################################################                                                                                                 #####################################################################################",
"#################################################################################                                                                                                      ####################################################################################",
"################################################################################                                                                                                        ###################################################################################",
"###############################################################################                                                                                                           #################################################################################",
"###############################################################################                                                                                                            ################################################################################",
"################################################################################                                                                                                            ###############################################################################",
"################################################################################                                                                                                             ##############################################################################",
"################################################################################                                                                                                             ##############################################################################",
"##################################################################################                                                                                                            #############################################################################",
"####################################################################################                                                                                                           ############################################################################",
"######################################################################################                                                                                                          ###########################################################################",
"#######################################################################################                                                                                                          ##########################################################################",
"################################################################################                                                                                                                 ##########################################################################",
"###########################################################################                                                                                                                       #########################################################################",
"########################################################################                                                                                                                           ########################################################################",
"######################################################################                                                                                                                             ########################################################################",
"######################################################################                                                                                                                              #######################################################################",
"######################################################################                                                                                                                              #######################################################################",
"######################################################################                                                                                                                               ######################################################################",
"########################################################################                                                                                                                             ######################################################################",
"##########################################################################                                                                                                                            #####################################################################",
"############################################################################                                                                                                                          #####################################################################",
"##############################################################################                                                                                                                        #####################################################################",
"################################################################################                                                                                                                       ####################################################################",
"###################################################################################                                                                                                                    ####################################################################",
"#####################################################################################                                                                                                                  ####################################################################",
"#####################################################################################                                                                                                                   ###################################################################",
"###################################################################################                                XXXXXX                                           XX                                  ###################################################################",
"#################################################################################                                XXXXXXXXXXX                                     XXXXXXXX                               ###################################################################",
"###############################################################################                                XXXXXXXXXXXXXX                                  XXXXXXXXXXXX                             ###################################################################",
"#############################################################################                                XXXXXX       XXXXX                               XXXXX    XXXXXX                           ###################################################################",
"############################################################################                                 XXXX          XXXXX                            XXXXX        XXXXXX                         ###################################################################",
"###########################################################################                                  XX              XXX                            XXXX           XXXX                         ###################################################################",
"##########################################################################                                                                                  XX               XX                          ##################################################################",
"########################################################################                                                                                                                                  #################################################################",
"#######################################################################                                                                                                                                    ################################################################",
"######################################################################                                                             ++++++++++++++++++++++++++++++++++++++++                                  ##############################################################",
"#####################################################################                                                 ++++++++++++++++++++++++++++++++++++++++++++++++++++++++++++                            #############################################################",
"####################################################################                                          +++++       ++++++++++++++++++++++++++++++++++++++++      ++++++++++++                           ############################################################",
"###################################################################                                       +++++++           +++++++++++++++++++++++++++++++++++            ++++++++++                          ############################################################",
"##################################################################               ########               +++++++               ++++++++++++++++++++++++++++++++              ++++++++++                         ############################################################",
"##################################################################            ###########              +++++++                 +++++++++++++++++++++++++++++                 +++++++++                        #############################################################",
"#################################################################          ##############            ++++++++                   +++++++++++++++++++++++++++                   +++++++++                      ##############################################################",
"#################################################################        ################           ++++++++         @@@         ++++++++++++++++++++++++++         @@@        ++++++++                     ###############################################################",
"#################################################################      ##################         ++++++++++       @@@@@@@        ++++++++++++++++++++++++       @@@@@@@@       ++++++++                    ###############################################################",
"##################################################################   ####################       +++++++++++       @@@@@@@@@@       ++++++++++++++++++++++       @@@@@@@@@@      ++++++++                     ##############################################################",
"#########################################################################################       +++++++++++      @@@@@@@@@@@@      +++++++++++++++++++++       @@@@@@@@@@@@      ++++++++                      ############################################################",
"#########################################################################################       ++++++++++      o@@@@@@@@@@@@       ++++++++++++++++++++      @@@@@@@@@@@@@      ++++++++                       ###########################################################",
"#########################################################################################       ++++++++++      oo@@@@@@@@@@@@      +++++++++++++++++++      o@@@@@@@@@@@@@@      ++++++++                      ###########################################################",
"#########################################################################################       +++++++++      oooo@@@@@@@@@@@@      ++++++++++++++++++      oo@@@@@@@@@@@@@      ++++++++                       ##########################################################",
"#########################################################################################       +++++++++      ooooo@@@@@@@@@@@      +++++++++++++++++      ooo@@@@@@@@@@@@@@      +++++++                      ###########################################################",
"#########################################################################################       ++++++++      o@@ooo@@@@@@@@@@@@      ++++++++++++++++      @ooo@@@@@@@@@@@@@      ++++++++             ###     ###########################################################",
"#########################################################################################       ++++++++      o@@ooo@@@@@@@@@@@@      ++++++++++++++++     @@ooo@@@@@@@@@@@@@@     ++++++++              ##################################################################",
"#########################################################################################       ++++++++     oo@@@oo@@@@@@@@@@@@@    +++++++++++++++++     @@ooo@@@@@@@@@@@@@@      ++++++               ##################################################################",
"#########################################################################################       ++++++++     o@@@@ooo@@@@@@@@@@@@@  ++++++++++++++++++++  @@@@oo@@@@@@@@@@@@@@      ++++++                #################################################################",
"#########################################################################################       +++++++      o@@@@ooo@@@@@@@@@@@@@@+++++++++++++++++++++oo@@@@oo@@@@@@@@@@@@@@@     ++++++                #################################################################",
"#########################################################################################        ++++++      o@@@@ooo@@@@@@@@@@@@@@+++++++++++++++++++++oo@@@@oo@@@@@@@@@@@@@@@     +++++++      ++++      ################################################################",
"#########################################################################################        ++++++     oo@@@@ooo@@@@@@@@@@@@@@+++++++++++++++++++++oo@@@@oo@@@@@@@@@@@@@@@      ++++++++++++++++      ################################################################",
"########################################################################################         ++++++     oo@@@@ooo@@@@@@@@@@@@@@+++++++++++++++++++++oo@@@@ooo@@@@@@@@@@@@@@      ++++++++++++++++      ################################################################",
"########################################################################################         +++++++    oo@@@@ooo@@@@@@@@@@@@@@+++++++++++++++++++++oo@@@@ooo@@@@@@@@@@@@@@@    ++++++++++++++++++     ################################################################",
"########################################################################################         +++++++++@ooo@@@@ooo@@@@@@@@@@@@@@+++++++++++++++++++++oo@@@@ooo@@@@@@@@@@@@@@@@+++++++++++++++++++++     ################################################################",
"########################################################################################         +++++++++@ooo@@@@ooo@@@@@@@@@@@@@@+++++++++++++++++++++oo@@@@oo@@@@@@@@@@@@@@@@@+++++++++++++++++++++     ################################################################",
"########################################################################################          +++++++++@oo@@@@ooo@@@@@@@@@@@@@@+++++++++++++++++++++oo@@@@oo@@@@@@@@@@@@@@@@@+++++++++++++++++++++     ################################################################",
"########################################################################################          +++++++++@oo@@@@ooo@@@@@@@@@@@@@@+++++++++++++++++++++oo@@@@oo@@@@@@@@@@@@@@@@@+++++++++++++++++++++      ###############################################################",
"########################################################################################          +++++++++@oo@@@@ooo@@@@@@@@@@@@@@+++++++++++++++++++++oo@@@ooo@@@@@@@@@@@@@@@@++++++++++++++++++++++     ################################################################",
"########################################################################################          ++++++++++ooo@@@oo@@@@@@@@@@@@@@@+++++++++++++++++++++oo@@@ooo@@@@@@@@@@@@@@@@++++++++++++++++++++++     ################################################################",
"########################################################################################          ++++++++++ooo@@ooo@@@@@@@@@@@@@@@+++++++++++++++++++++ooo@@ooo@@@@@@@@@@@@@@@@++++++++++++++++++++++     ################################################################",
"########################################################################################           +++++++++ooo@@ooo@@@@@@@@@@@@@@@++++++++++++++++++++++oo@@oo@@@@@@@@@@@@@@@@+++++++++++++++++++++++     ################################################################",
"########################################################################################           ++++++++++oooooo@@@@@@@@@@@@@@@@++++++++++++++++++++++oooooo@@@@@@@@@@@@@@@@+++++++++++++++++++++++     ################################################################",
"########################################################################################           ++++++++++oooooo@@@@@@@@@@@@@@@@++++++++++++++++++++++oooooo@@@@@@@@@@@@@@@++++++++++++++++++++++++     ################################################################",
"########################################################################################           +++++++++++oooo@@@@@@@@@@@@@@@@+++++++++++++++++++++++@oooo@@@@@@@@@@@@@@@@+++++++++++++++++++++++      ################################################################",
"########################################################################################            ++++++++++@@@@@@@@@@@@@@@@@@@+++++++++++++++++++++++++@@@@@@@@@@@@@@@@@@@++++++++++++++++++++++++      ################################################################",
"########################################################################################            ++++++++++++@@@@@@@@@@@@@@@@++++++++++++++++++++++++++++@@@@@@@@@@@@@@@@+++++++++++++++++++++++++      ################################################################",
"########################################################################################            ++++++++++++++@@@@@@@@@@@@++++++++++++++++++++++++++++++++@@@@@@@@@@@+++++++++++++++++++++++++++       ################################################################",
"########################################################################################             ++++++++++++++++++++++++++++++++++++++++++++++++++++++++++++++++++++++++++++++++++++++++++++++         ###############################################################",
"########################################################################################             +++++++++++++++++++++++++++++++++++++++++++++++++++++++++++++++++++++++++++++++++++++   ++++++         ###############################################################",
"########################################################################################             ++++++++++++++++++++++++++++++++++++++++++++++++++++++++++++++++++++++++++++++++++++                   ###############################################################",
"########################################################################################              ++++++++++++++++++++++++++++++++++++++++++++++++++++++++++++++++++++++++++++++++++                    ###############################################################",
"#######################################################################################               ++++++++++++++++++++++++++++++++++++++++++++++++++++++++++++++++++++++++++++++++++                     ##############################################################",
"########################################################################################               ++++++++++++++++++++++++++++++++++++++++++++++++++++++++++++++++++++++++++++++++++                    ##############################################################",
"########################################################################################               +++++++++++++++++++++++++++++++++++++++++++++++++++++++++++++++++++++++++++++++++++                   ##############################################################",
"#############################################################################################          +++++++++++++++++++++++++++++++++++++++++++++++++++++++++++++++++++++++++++++++++++      ######       ##############################################################",
"#############################################################################################           +++++++++++++++++++++++++++++++++++++++++++++++++++++++++++++++++++++++++++++++++      #########     ##############################################################",
"############################################################################################            +++++++++++++++++++++++++++++++++++++++++++++++++++++++++++++++++++++++++++++++++      ##########   ###############################################################",
"############################################################################################      #      +++++++++++++++++++++++++++++++++++++++++++++++++++++++++++++++++++++++++++++++      #############################################################################",
"############################################################################################     ##      ++++++++++++++++++++++++++++++++++++++++++++++++++++++++++++++++++++++++++++++       #############################################################################",
"############################################################################################     ###      +++++++++++++++++++++++++++++++++++++++++++++++++++++++++++++++++++++++++++++      ##############################################################################",
"############################################################################################    ####       +++++++++++++++++++++++++++++++++++++++++++++++++++++++++++++++++++++++++++      ###############################################################################",
"#####################################################################################################       +++++++++++++++++++++++++++++++++    ++++++++++++++++++++++++++++++++++++       ###############################################################################",
"######################################################################################################      ++++++++++++++++++++++++++++++        ++++++++++++++++++++++++++++++++++       ################################################################################",
"######################################################################################################       +++++++++++++++++++++++++++              +++++++++++++++++++++++++++++       #################################################################################",
"#######################################################################################################       +++++++++++++++++++++++++++   ++++      ++++++++++++++++++++++++++++        #################################################################################",
"########################################################################################################       +++++++++++++++++++++++++++++++++++   ++++++++++++++++++++++++++++        ##################################################################################",
"#########################################################################################################       ++++++++++++++++++++++++++++++++++++++++++++++++++++++++++++++++        ###################################################################################",
"##########################################################################################################        +++++++++++++++++++++++++++++++++++++++++++++++++++++++++++++        ####################################################################################",
"###########################################################################################################        +++++++++++++++++++++++++++++++++++++++++++++++++++++++++++        #####################################################################################",
"############################################################################################################        ++++++++++++++++++++++++++++++++++++++++++++++++++++++++         ######################################################################################",
"#############################################################################################################         +++++++++++++++++++++++++++++++++++++++++++++++++++++         #######################################################################################",
"##############################################################################################################         ++++++++++++++++++++++++++++++++++++++++++++++++++         #########################################################################################",
"###############################################################################################################          ++++++++++++++++++++++++++++++++++++++++++++++          ##########################################################################################",
"#################################################################################################################          ++++++++++++++++++++++++++++++++++++++++++           ###########################################################################################",
"##################################################################################################################           ++++++++++++++++++++++++++++++++++++++           #############################################################################################",
"####################################################################################################################           +++++++++++++++++++++++++++++++++             ##############################################################################################",
"#####################################################################################################################             +++++++++++++++++++++++++++              ################################################################################################",
"#######################################################################################################################               +++++++++++++++++++                ##################################################################################################",
"#########################################################################################################################                                              ####################################################################################################",
"###########################################################################################################################                                          ######################################################################################################",
"#############################################################################################################################                                     #########################################################################################################",
"################################################################################################################################                               ############################################################################################################",
"####################################################################################################################################                        ###############################################################################################################",
"#######################################################################################################################################              +      ###############################################################################################################",
"#######################################################################################################################################     ++++++++++      ###############################################################################################################",
"#######################################################################################################################################     ++++++++++      ###############################################################################################################",
"#######################################################################################################################################     ++++++++++     ################################################################################################################",
"#######################################################################################################################################     ++++++++++     ################################################################################################################",
"##############################################################################################################################                   +++++     ################################################################################################################",
"#############################################################################################################################                                       #######################################################################################################",
"#############################################################################################################################                                        ######################################################################################################",
"#############################################################################################################################                                        ######################################################################################################",
"#############################################################################################################################                                        ######################################################################################################",
"##########################################################################################################################                                                   ##############################################################################################",
"###################################################################################################################                                 ++                                         ############################################################################",
"###############################################################################################################                                      +                                           ##########################################################################",
"############################################################################################################                                                                                        #######################################################################",
"#########################################################################################################                                                                                             #####################################################################",
"########################################################################################################                         XXXXXX                    XXXXXX                                     #####################################################################",
"#######################################################################################################              @@@@@         XXX       OOOOO        XXXX                         ......         #####################################################################",
"######################################################################################################          @@@@@@@@@@@          X      OOOOOOO      XX             @@@@@@          ........      #####################################################################",
"#####################################################################################################        @@@@@@@@@@@@@@@               OOOOOOOO                   @@@@@@@@@@@        .......      #####################################################################",
"#####################################################################################################      @@@@@@@@@@@@@@@@@@              OOOOOOOOO                @@@@@@@@@@@@@@        ......     ######################################################################",
"####################################################################################################      @@@@@@@@@@@@@@@@@@@@@            OOOOOOOOO              @@@@@@@@@@@@@@@@@@        ...      ######################################################################",
"####################################################################################################      @@@@@@@@@@@@@@@@@@@@@@@          OOOOOOOOO            @@@@@@@@@@@@@@@@@@@@          .      ######################################################################",
"####################################################################################################     @@@@@@@@@@@@@@@@@@@@@@@@@@        OOOOOOOO          @@@@@@@@@@@@@@@@@@@@@@@@         .     #######################################################################",
"####################################################################################################     @@@@@@@@@@@@@@@@@@@@@@@@@@@@@      OOOOOO       @@@@@@@@@@@@@@@@@@@@@@@@@@@@@              #######################################################################",
"####################################################################################################     @@@@@@@@@@@@@@@@@@@@@@@@@@@@@        OOO       @@@@@@@@@@@@@@@@@@@@@@@@@@@@@@@             #######################################################################",
"###################################################################################################      @@@@@@@@@@@@@@@@@@@@@@@@@@@@@                  @@@@@@@@@@@@@@@@@@@@@@@@@@@@@@@      .      #######################################################################",
"###################################################################################################      @@@@@@@@@@@@@@@@@@@@@@@@@@@@@                  @@@@@@@@@@@@@@@@@@@@@@@@@@@@@@@@            #######################################################################",
"###################################################################################################     @@@@@@@@@@@@@@@@@@@@@@@@@@@@@@                  @@@@@@@@@@@@@@@@@@@@@@@@@@@@@@@@             ######################################################################",
"###################################################################################################     @@@@@@@@@@@@@@@@@@@@@@@@@@@@@@   @              @@@@@@@@@@@@@@@@@@@@@@@@@@@@@@@@@            ######################################################################",
"###################################################################################################     @@@@@@@@@@@@@@@@@@@@@@@@@@@@@@   @@@       @@   @@@@@@@@@@@@@@@@@@@@@@@@@@@@@@@@@@           ######################################################################",
"###################################################################################################     @@@@@@@@@@@@@@@@@@@@@@@@@@@@@@   @@@@@@@@@@@@   @@@@@@@@@@@@@@@@@@@@@@@@@@@@@@@@@@          #######################################################################",
"##################################################################################################      @@@@@@@@@@@@@@@@@@@@@@@@@@@@@@   @@@@@@@@@@@@   @@@@@@@@@@@@@@@@@@@@@@@@@@@@@@@@@@@         #######################################################################",
"##################################################################################################      @@@@@@@@@@@@@@@@@@@@@@@@@@@@@@   @@@@@@@@@@@@   @@@@@@@@@@@@@@@@@@@@@@@@@@@@@@@@@@@        ########################################################################",
"##################################################################################################     @@@@@@@@@@@@@@@@@@@@@@@@@@@@@@@   @@@@@@@@@@@@   @@@@@@@@@@@@@@@@@@@@@@@@@@@@@@@@@@@@      #########################################################################",
"##################################################################################################     @@@@@@@@@@@@@@@@@@@@@@@@@@@@@@@   @@@@@@@@@@@@   @@@@@@@@@@@@@@@@@@@@@@@@@@@@@@@@@@@@       ########################################################################",
"##################################################################################################     @@@@@@@@@@@@@@@@@@@@@@@@@@@@@@@   @@@@@@@@@@@@   @@@@@@@@@@@@@@@@@@@@@@@@@@@@@@@@@@          #######################################################################",
"#################################################################################################      @@@@@@@@@@@@@@@@@@@@@@@@@@@@@@@   @@@@@@@@@@@@   @@@@@@@@@@@@@@@@@@@@@@@@@@@@@@@@@           #######################################################################",
"#################################################################################################      @@@@@@@@@@@@@@@@@@@@@@@@@@@@@@@   @@@@@@@@@@@@   @@@@@@@@@@@@@@@@@@@@@@@@@@@@@@@@             ######################################################################",
"#################################################################################################     @@@@@@@@@@@@@@@ @@@@@@@@@@@@@@@@   @@@@@@@@@@@@   @@@@@@@@@@@@@@@@@@@@@@@@@@@@@@               ######################################################################",
"#################################################################################################     @@@@@@@@@@@@@@    @@@@@@@@@@@@@@@@@@@@@@@@@@@@@   @@@@@@@@@@@@@@@@@@    @@@@@@@         ..      #####################################################################",
"#################################################################################################         @@@@@@@@@     @@@@@@@@@@@@@@@@@@@@@@@@@@@@@   @@@@@@@@@@@@@@@@@      @@@@          ...       ####################################################################",
"#################################################################################################             @@@@@      @@@@@@@@@@@@@@@@@@@@@@@@@@@@   @@@@@@@@@@@@@@@@@      @@@         ......      ####################################################################",
"################################################################################################                  @      @@@@@@@@@@@@@@@@@@@@@@@@@@@@   @@@@@@@@@@@@@@@@@       @         ........      ###################################################################",
"################################################################################################                         @@@@@@@@@@@@@@@@@@@@@@@@@@@@   @@@@@@@@@@@@@@@@@               ..........      ###################################################################",
"###########################################################################################                              @@@@@@@@@@@@@@@@@@@@@@@@@@@@@  @@@@@@@@@@@@@@@@@              ............      ##################################################################",
"##########################################################################################                               @@@@@@@@@@@@@@@@@@@@@@@@@@@@@@@@@@@@@@@@@@@@@@@@             .............       #################################################################",
"##########################################################################################                               @@@@@@@@@@@@@@@@@@@@@@@@@@@@@@@@@@@@@@@@@@@@@@@@           ................      #################################################################",
"##########################################################################################                               @@@@@@@@@@@@@@@@@@@@@@@@@@@@@@@@@@@@@@@@@@@@@@@@          ..................      ################################################################",
"#########################################################################################                        ..      @@@@@@@@@@@@@@@@@@@@@@@@@@@@@@@@@@@@@@@@@@@@@@@@          ..................       ###############################################################",
"#########################################################################################      +++++++           ..      @@@@@@@@@@@@@@@@@@@@@@@@@@@@@@@@@@@@@@@@@@@@@@@@           ..................      ###############################################################",
"#########################################################################################     ++++++++++++++     ..      @@@@@@@@@@@@@@@@@@@@@@@@@@@@@@@@@@@@@@@@@@@@@@@@            ..................      ##############################################################",
"#########################################################################################     +++                ..      @@@@@@@@@@@@@@@@@@@@@@@@@@@@@@@@@@@@@@@@@@@@@@@@     #      ..................      ##############################################################",
"#########################################################################################     ++                 ..      @@@@@@@@@@@@@@@@@@@@@@@@@@@@@@@@@@@@@@@@@@@@@@@@     ##      ..................      #############################################################",
"#########################################################################################     ++                 ..      @@@@@@@@@@@@@@@@@@@@@@@@@@@@@@@@@@@@@@@@@@@@@@@@     ##      ..................       ############################################################",
"#########################################################################################     ++                 ..      @@@@@@@@@@@@@@@@@@@@@@@@@@@@@@@@@@@@@@@@@@@@@@@@     ###      ..................      ############################################################",
"#########################################################################################     +++                ..      @@@@@@@@@@@@@@@@@@@@@@@@@@@@@@@@@@@@@@@@@@@@@@@@     ###       ..................      ###########################################################",
"#########################################################################################     +++++              ..      @@@@@@@@@@@@@@@@@@@@@@@@@@@@@@@@@@@@@@@@@@@@@@@@     ####      ..................      ###########################################################",
"#########################################################################################     +++++++++++++      ..      @@@@@@@@@@@@@@@@@@@@@@@@@@@@@@@@@@@@@@@@@@@@@@@@     #####      ..................      ##########################################################",
"#########################################################################################     +++++++++++++      ..      @@@@@@@@@@@@@@@@@@@@@@@@@@@@@@@@@@@@@@@@@@@@@@@@     #####      .    .............      ##########################################################",
"#########################################################################################     +++++++++++++      ..      @@@@@@@@@@@@@@@@@@@@@@@@@@@@@@@@@@@@@@@@@@@@@@@@     ######           .............      #########################################################",
"#########################################################################################     +++++++++++++      ..      @@@@@@@@@@@@@@@@@@@@@@@@@@@@@@@@@@@@@@@@@@@@@@@@     ######           .............      #########################################################",
"#########################################################################################     +++++++++++++      ..      @@@@@@@@@@@@@@@@@@@@@@@@@@@@@@@@@@@@@@@@@@@@@@@@     #######         ...............     #########################################################",
"#########################################################################################     +++++++++++++     ...      @@@@@@@@@@@@@@@@@@@@@@@@@@@@@@@@@@@@@@@@@@@@@@@@     ########        ...............      ########################################################",
"#########################################################################################     +++++++++++++     ...      @@@@@@@@@@@@@@@@@@@@@@@@@@@@@@@@@@@@@@@@@@@@@@@@     ########       ................      ########################################################",
"#########################################################################################     +++++++++++++     ...      @@@@@@@@@@@@@@@@@@@@@@@@@@@@@@@@@@@@@@@@@@@@@@@@     ########      ..................     ########################################################",
"#########################################################################################      ++++++++++++     ...      @@@@@@@@@@@@@@@@@@@@@@@@@@@@@@@@@@@@@@@  @@@@@@@     #######       ..................     ########################################################",
"#########################################################################################                       ..       @@@@   @@@@@@@@@@@@@@@@@@@@@@@@@@@@@@@    @@@@@@     #######      ..................      ########################################################",
"#########################################################################################                       ..       @@@      @@@@@@@@@@@@@@@@@@@@@@@@@@@       @@@@@     ######      ...................      ########################################################",
"##########################################################################################                      ..       @@@       @@@@@@@@@@@@@@@@@@@@@@@@@        @@@@@     #####       ...................     #########################################################",
"##########################################################################################                      ..       @@         @@@@@@@@@@@@@@@@@@@@@@@         @@@@@     #####      ....................     #########################################################",
"###########################################################################################                    ..        @@           @@@@@@@@@@@@@@@@@@@            @@@@     ####      ....................      #########################################################",
"#############################################################################################         .........          @@            @@@@@@@@@@@@@@@@@             @@@@     ###       ...................      ##########################################################",
"##############################################################################################                           @               @@@@@@@@@@@@@@              @@@@     ###      ....................      ##########################################################",
"###############################################################################################                          @                @@@@@@@@@@@         ..     @@@@     ##      ....................      ###########################################################",
"################################################################################################                         @     ...                           ...      @@@     #       ...................       ###########################################################",
"##################################################################################################                             .....                        ....      @@@            ....................      ############################################################",
"####################################################################################################             ##            ......                     .......     @@@           ....................       ############################################################",
"#########################################################################################################   #######           ........                   ........     @@@           ...................       #############################################################",
"###################################################################################################################           ..........               ..........      @@          ....................      ##############################################################",
"###################################################################################################################           ............ ......................       @         ....................      ###############################################################",
"###################################################################################################################          .....................................                ...................       ###############################################################",
"###################################################################################################################         ......................................               ....................      ################################################################",
"###################################################################################################################         ........................................            ....................      #################################################################",
"###################################################################################################################        ..........................................          ....................       #################################################################",
"###################################################################################################################       ............................................         ...................       ##################################################################",
"###################################################################################################################       .............................................       ....................      ###################################################################",
"###################################################################################################################      ..............................................      ....................       ###################################################################",
"###################################################################################################################      .............................................       ...................       ####################################################################",
"###################################################################################################################      .............................................      ....................      #####################################################################",
"###################################################################################################################      ............................................      ....................      ######################################################################",
"###################################################################################################################      ...........................................       ...................       ######################################################################",
"###################################################################################################################      ...........................................      ...................       #######################################################################",
"###################################################################################################################      ..........................................      ....................      ########################################################################",
"###################################################################################################################      .........................................       ...................       ########################################################################",
"##################################################################################################################      ..........................................      ...................       #########################################################################",
"#################################################################################################################       .........................................      ....................      ##########################################################################",
"#################################################################################################################      .........................................       ...................      ###########################################################################",
"#################################################################################################################      .........................................      ...................       ###########################################################################",
"##################################################################################################################     ........................................       ...................      ############################################################################",
"##################################################################################################################     ........................................         ................      #############################################################################",
"##################################################################################################################       ......................................          ..............       #############################################################################",
"##################################################################################################################             ..............................              ...........       ##############################################################################",
"###################################################################################################################                    .....................                ..........      ###############################################################################",
"###################################################################################################################                                                +          ........      ###############################################################################",
"###################################################################################################################                                               ++++         .......     ################################################################################",
"###################################################################################################################                                              ++++            .....      ###############################################################################",
"###################################################################################################################     ....                                    ++++              ....      ###############################################################################",
"###################################################################################################################     ............                          +++++                 ..      ###############################################################################",
"###################################################################################################################     ...............................       +++          +                ###############################################################################",
"###################################################################################################################     ................................                   ++               ###############################################################################",
"###################################################################################################################     .................................                  ++++             ###############################################################################",
"###################################################################################################################     ..................................                 ++++           #################################################################################",
"##################################################################################################################      ...................................                ++++         ###################################################################################",
"##################################################################################################################      ....................................        ..     ++++      ######################################################################################",
"##################################################################################################################      .....................................      ...     ++++     #######################################################################################",
"##################################################################################################################      ......................................   .....     ++++     #######################################################################################",
"##################################################################################################################      ..............................................      +++     #######################################################################################",
"##################################################################################################################      ..............................................      +++      ######################################################################################",
"##################################################################################################################     ...............................................      +++      ######################################################################################",
"##################################################################################################################     ...................           .................      +++      ######################################################################################",
"##################################################################################################################     ..................             ................      +++      ######################################################################################",
"##################################################################################################################     ..................             .................     +++      ######################################################################################",
"##################################################################################################################     ..................             .................     ++++     ######################################################################################",
"##################################################################################################################     ..................             .................     ++++     ######################################################################################",
"##################################################################################################################     ....................           .................     ++++     ######################################################################################",
"##################################################################################################################     ....................           .................              ######################################################################################",
"##################################################################################################################     ....................     #     .................              ######################################################################################",
"##################################################################################################################     ....................     #      ................              ######################################################################################",
"#################################################################################################################      ....................     #      ................              ######################################################################################",
"#################################################################################################################      ....................     #      ................            ########################################################################################",
"#################################################################################################################      ....................     #      ..................       ###########################################################################################",
"#################################################################################################################      ....................     #      ....................     ###########################################################################################",
"#################################################################################################################      ....................     #      ....................     ###########################################################################################",
"#################################################################################################################      ....................     ##     ....................     ###########################################################################################",
"#################################################################################################################     .....................     ##     ....................     ###########################################################################################",
"#################################################################################################################     .....................     ##     ....................     ###########################################################################################",
"#################################################################################################################     .....................     ##     ....................     ###########################################################################################",
"#################################################################################################################     .....................     ##     ....................     ###########################################################################################",
"#################################################################################################################     .....................     ##     ....................     ###########################################################################################",
"#################################################################################################################     ....................      ##     ....................     ###########################################################################################",
"#################################################################################################################     ....................      ##     ....................      ##########################################################################################",
"#################################################################################################################     ....................      ##     ....................      ##########################################################################################",
"#################################################################################################################     ....................      ##     ....................      ##########################################################################################",
"#################################################################################################################     ....................      ##      ...................      ##########################################################################################",
"################################################################################################################      ....................      ##      ...................      ##########################################################################################",
"################################################################################################################      ....................      ##      ...................      ##########################################################################################",
"################################################################################################################      ....................     ###      ....................     ##########################################################################################",
"################################################################################################################      ....................     ###      ....................     ##########################################################################################",
"################################################################################################################      ....................     ####     ....................     ##########################################################################################",
"################################################################################################################      ....................     ####     ....................     ##########################################################################################",
"################################################################################################################     .....................     ####     ....................     ##########################################################################################",
"################################################################################################################     .....................     ####     ....................     ##########################################################################################",
"################################################################################################################     .....................     ####     ....................     ##########################################################################################",
"################################################################################################################     .....................     ####     ....................     ##########################################################################################",
"################################################################################################################     .....................     ####     ....................     ##########################################################################################",
"################################################################################################################     .....................     ####     ....................     ##########################################################################################",
"################################################################################################################     .....................     ####     ....................      #########################################################################################",
"################################################################################################################     .....................     ####     ....................      #########################################################################################",
"################################################################################################################     .....................     ####      ...................      #########################################################################################",
"################################################################################################################     .....................     ####      ...................      #########################################################################################",
"###############################################################################################################      ....................      ####      ...................      #########################################################################################",
"###############################################################################################################      ....................      ####      ...................      #########################################################################################",
"###############################################################################################################      ....................      ####      ....................     #########################################################################################",
"###############################################################################################################      ....................      #####     ....................     #########################################################################################",
"###############################################################################################################      ....................      #####     ....................     #########################################################################################",
"###############################################################################################################      ....................      #####     ....................     #########################################################################################",
"###############################################################################################################     .....................      #####     ....................     #########################################################################################",
"###############################################################################################################     .....................     ######     ....................     #########################################################################################",
"###############################################################################################################     .....................     ######     ....................     #########################################################################################",
"###############################################################################################################     .....................     ######     ....................     #########################################################################################",
"###############################################################################################################     .....................     ######     ....................     #########################################################################################",
"###############################################################################################################     .....................     ######     ....................     #########################################################################################",
"###############################################################################################################     .....................     ######     ....................      ########################################################################################",
"###############################################################################################################     .....................     ######      ...................      ########################################################################################",
"###############################################################################################################     .....................     ######      ...................      ########################################################################################",
"###############################################################################################################     .....................     ######      ...................      ########################################################################################",
"##############################################################################################################      .....................     ######      ...................      ########################################################################################",
"##############################################################################################################      .....................     ######      ...................      ########################################################################################",
"##############################################################################################################      .....................     ######      ....................     ########################################################################################",
"##############################################################################################################      .....................     #######     ....................     ########################################################################################",
"##############################################################################################################      .....................     #######     ....................     ########################################################################################",
"##############################################################################################################      ....................      #######     ....................     ########################################################################################",
"##############################################################################################################     .....................      #######     ....................     ########################################################################################",
"##############################################################################################################     .....................      #######     ....................     ########################################################################################",
"##############################################################################################################     .....................      #######     ....................     ########################################################################################",
"##############################################################################################################     .....................      #######     ....................     ########################################################################################",
"##############################################################################################################     .....................      #######     ....................     ########################################################################################",
"##############################################################################################################     .....................      #######     ....................     ########################################################################################",
"##############################################################################################################     .....................     ########     ....................      #######################################################################################",
"##############################################################################################################     .....................     ########      ...................      #######################################################################################",
"##############################################################################################################     .....................     ########      ...................      #######################################################################################",
"##############################################################################################################     .....................     ########      ...................      #######################################################################################",
"#############################################################################################################      .....................     ########      ...................      #######################################################################################",
"#############################################################################################################      .....................     ########      ....................     #######################################################################################",
"#############################################################################################################      .....................     #########     ....................     #######################################################################################",
"#############################################################################################################      .....................     #########     ....................     #######################################################################################",
"#############################################################################################################      .....................     #########     ....................     #######################################################################################",
"#############################################################################################################     ......................     #########     ....................     #######################################################################################",
"#############################################################################################################     ......................     #########     ....................     #######################################################################################",
"#############################################################################################################     ......................     #########     ....................     #######################################################################################",
"#############################################################################################################     ......................     #########     ....................     #######################################################################################",
"#############################################################################################################     .....................      #########     ....................     #######################################################################################",
"#############################################################################################################     .....................      #########     ....................     #######################################################################################",
"#############################################################################################################     .....................      #########     ....................     #######################################################################################",
"#############################################################################################################     .....................      #########      ...................      ######################################################################################",
"#############################################################################################################     .....................      #########      ...................      ######################################################################################",
"#############################################################################################################     .....................      #########      ...................      ######################################################################################",
"#############################################################################################################     .....................      #########      ...................      ######################################################################################",
"############################################################################################################      .....................      #########      ...................      ######################################################################################",
"############################################################################################################      .....................     ##########      ....................     ######################################################################################",
"############################################################################################################      .....................     ###########     ....................     ######################################################################################",
"############################################################################################################      .....................     ###########     ....................     ######################################################################################",
"############################################################################################################      .....................     ###########     ....................     ######################################################################################",
"############################################################################################################     ......................     ###########     ....................     ######################################################################################",
"############################################################################################################     ......................     ###########     ....................     ######################################################################################",
"############################################################################################################     ......................     ###########     ....................     ######################################################################################",
"############################################################################################################     ......................     ###########     ....................     ######################################################################################",
"############################################################################################################     ......................     ###########     ....................     ######################################################################################",
"############################################################################################################     ......................     ###########     ....................     ######################################################################################",
"############################################################################################################     ......................     ###########     ....................     ######################################################################################",
"############################################################################################################     ......................     ###########      ...................      #####################################################################################",
"############################################################################################################     ......................     ###########      ...................      #####################################################################################",
"############################################################################################################     .....................      ###########      ...................      #####################################################################################",
"############################################################################################################     .....................      ###########      ...................      #####################################################################################",
"###########################################################################################################      .....................      ###########      ...................      #####################################################################################",
"###########################################################################################################      .....................      ############     ....................     #####################################################################################",
"###########################################################################################################      .....................      ############     ....................     #####################################################################################",
"###########################################################################################################      .....................      ############     ....................     #####################################################################################",
"###########################################################################################################      .....................      ############     ....................     #####################################################################################",
"###########################################################################################################     ......................     #############     ....................     #####################################################################################",
"###########################################################################################################     ......................     #############     ....................     #####################################################################################",
"###########################################################################################################     ......................     #############     ....................     #####################################################################################",
"###########################################################################################################     ......................     #############     ....................     #####################################################################################",
"###########################################################################################################     ......................     #############     ....................     #####################################################################################",
"###########################################################################################################     ......................     #############     ....................     #####################################################################################",
"###########################################################################################################     ......................     #############      ...................     #####################################################################################",
"###########################################################################################################     ......................     #############      ...................      ####################################################################################",
"###########################################################################################################     ......................     #############      ...................      ####################################################################################",
"###########################################################################################################     ......................     #############      ...................      ####################################################################################",
"###########################################################################################################     ......................     #############      ...................      ####################################################################################",
"##########################################################################################################      ......................     ##############     ...................      ####################################################################################",
"##########################################################################################################      ......................     ##############     ....................     ####################################################################################",
"##########################################################################################################      ......................     ##############     ....................     ####################################################################################",
"##########################################################################################################      .....................      ##############     ....................     ####################################################################################",
"##########################################################################################################      .....................      ##############     ....................     ####################################################################################",
"##########################################################################################################     ......................      ##############     ....................     ####################################################################################",
"##########################################################################################################     .....................        ############      ....................     ####################################################################################",
"##########################################################################################################     ..................           ############         .................     ####################################################################################",
"##########################################################################################################     ...............              ############           ...............     ####################################################################################",
"##########################################################################################################     ...........                  ############             .............     ####################################################################################",
"########################################################################################################                                    ############                                ###################################################################################",
"#####################################################################################################                                       ############                                   ################################################################################",
"###################################################################################################                                         ############                                     ##############################################################################",
"#################################################################################################                                           ############                                      #############################################################################",
"###############################################################################################                                             ############                                        ###########################################################################",
"#############################################################################################                                               ############                                         ##########################################################################",
"############################################################################################                                               #############                                           ########################################################################",
"###########################################################################################                                                #############                                            #######################################################################",
"##########################################################################################                                                 #############                                             ######################################################################",
"#########################################################################################                                                  #############                                             ######################################################################",
"#########################################################################################                                                  #############                                              #####################################################################",
"########################################################################################                                                   #############                                              #####################################################################",
"########################################################################################                                                   #############                                               ####################################################################",
"#######################################################################################                                                    ##############                                              ####################################################################",
"#######################################################################################                                                    ##############                                              ####################################################################",
"#######################################################################################                                                    ##############                                               ###################################################################",
"#######################################################################################                                                    ##############                                               ###################################################################",
"######################################################################################                                                     ##############                                               ###################################################################",
"######################################################################################                                                     ##############                                               ###################################################################",
"######################################################################################                                        ........     ##############     .......                                   ###################################################################",
"######################################################################################     ...........................................     ##############     .....................................     ###################################################################",
"######################################################################################     ..........................................      ##############     .....................................      ##################################################################",
"######################################################################################                                                     ##############                                                ##################################################################",
"######################################################################################                                                     ##############                                                ##################################################################",
"#####################################################################################                                                      ##############                                                ##################################################################",
"######################################################################################                                                    ###############                                                ##################################################################",
"######################################################################################                                                   #################                                              ###################################################################"
};
