/* XPM */
static const char *__png[] = {
/* columns rows colors chars-per-pixel */
"267 533 8 1 ",
"  c black",
". c gray10",
"X c #252525",
"o c #00BFBF",
"O c gray75",
"+ c #FFDAA5",
"@ c white",
"# c None",
/* pixels */
"###########################################################################################################################################################################################################################################################################",
"###########################################################################################################################################################################################################################################################################",
"###########################################################################################################################################################################################################################################################################",
"###########################################################################################################################################################################################################################################################################",
"###########################################################################################################################################################################################################################################################################",
"###########################################################################################################################################################################################################################################################################",
"###########################################################################################################################################################################################################################################################################",
"###########################################################################################################################################################################################################################################################################",
"###########################################################################################################################################################################################################################################################################",
"###########################################################################################################################################################################################################################################################################",
"###########################################################################################################################################################################################################################################################################",
"###########################################################################################################################################################################################################################################################################",
"###########################################################################################################################################################################################################################################################################",
"###########################################################################################################################################################################################################################################################################",
"###########################################################################################################################################################################################################################################################################",
"###########################################################################################################################################################################################################################################################################",
"###########################################################################################################################################################################################################################################################################",
"###########################################################################################################################################################################################################################################################################",
"###########################################################################################################################################################################################################################################################################",
"###########################################################################################################################################################################################################################################################################",
"###########################################################################################################################################################################################################################################################################",
"###########################################################################################################################################################################################################################################################################",
"###########################################################################################################################################################################################################################################################################",
"###########################################################################################################################################################################################################################################################################",
"###########################################################################################################################################################################################################################################################################",
"###########################################################################################################################################################################################################################################################################",
"###########################################################################################################################################################################################################################################################################",
"###########################################################################################################################################################################################################################################################################",
"###########################################################################################################################################################################################################################################################################",
"###########################################################################################################################################################################################################################################################################",
"###########################################################################################################################################################################################################################################################################",
"###########################################################################################################################################################################################################################################################################",
"###########################################################################################################################################################################################################################################################################",
"###########################################################################################################################################################################################################################################################################",
"###########################################################################################################################################################################################################################################################################",
"###########################################################################################################################################################################################################################################################################",
"###########################################################################################################################################################################################################################################################################",
"###########################################################################################################################################################################################################################################################################",
"###########################################################################################################################################################################################################################################################################",
"###########################################################################################################################################################################################################################################################################",
"###########################################################################################################################################################################################################################################################################",
"###########################################################################################################################################################################################################################################################################",
"###########################################################################################################################################################################################################################################################################",
"###########################################################################################################################################################################################################################################################################",
"###########################################################################################################################################################################################################################################################################",
"###########################################################################################################################################################################################################################################################################",
"###########################################################################################################################################################################################################################################################################",
"###########################################################################################################################################################################################################################################################################",
"###########################################################################################################################################################################################################################################################################",
"###########################################################################################################################################################################################################################################################################",
"###########################################################################################################################################################################################################################################################################",
"###########################################################################################################################################################################################################################################################################",
"###########################################################################################################################################################################################################################################################################",
"###########################################################################################################################################################################################################################################################################",
"###########################################################################################################################################################################################################################################################################",
"###########################################################################################################################################################################################################################################################################",
"###########################################################################################################################################################################################################################################################################",
"###########################################################################################################################################################################################################################################################################",
"###########################################################################################################################################################################################################################################################################",
"###########################################################################################################################################################################################################################################################################",
"###########################################################################################################################################################################################################################################################################",
"###########################################################################################################################################################################################################################################################################",
"###########################################################################################################################################################################################################################################################################",
"###########################################################################################################################################################################################################################################################################",
"###########################################################################################################################################################################################################################################################################",
"###########################################################################################################################################################################################################################################################################",
"###########################################################################################################################################################################################################################################################################",
"###########################################################################################################################################################################################################################################################################",
"###########################################################################################################################################################################################################################################################################",
"###########################################################################################################################################################################################################################################################################",
"###########################################################################################################################################################################################################################################################################",
"###########################################################################################################################################################################################################################################################################",
"###########################################################################################################################################################################################################################################################################",
"###########################################################################################################################################################################################################################################################################",
"###########################################################################################################################################################################################################################################################################",
"###########################################################################################################################################################################################################################################################################",
"###########################################################################################################################################################################################################################################################################",
"###########################################################################################################################################################################################################################################################################",
"###########################################################################################################################################################################################################################################################################",
"###########################################################################################################################################################################################################################################################################",
"###########################################################################################################################################################################################################################################################################",
"###########################################################################################################################################################################################################################################################################",
"###########################################################################################################################################################################################################################################################################",
"###########################################################################################################################################################################################################################################################################",
"###########################################################################################################################################################################################################################################################################",
"###########################################################################################################################################################################################################################################################################",
"###########################################################################################################################################################################################################################################################################",
"###########################################################################################################################################################################################################################################################################",
"###########################################################################################################################################################################################################################################################################",
"###########################################################################################################################################################################################################################################################################",
"###########################################################################################################################################################################################################################################################################",
"###########################################################################################################################################################################################################################################################################",
"###########################################################################################################################################################################################################################################################################",
"###########################################################################################################################################################################################################################################################################",
"###########################################################################################################################################################################################################################################################################",
"###########################################################################################################################################################################################################################################################################",
"###########################################################################################################################################################################################################################################################################",
"###########################################################################################################################################################################################################################################################################",
"###########################################################################################################################################################################################################################################################################",
"###########################################################################################################################################################################################################################################################################",
"###########################################################################################################################################################################################################################################################################",
"###########################################################################################################################################################################################################################################################################",
"###########################################################################################################################################################################################################################################################################",
"###########################################################################################################################################################################################################################################################################",
"###########################################################################################################################################################################################################################################################################",
"###########################################################################################################################################################################################################################################################################",
"###########################################################################################################################################################################################################################################################################",
"###########################################################################################################################################################################################################################################################################",
"###########################################################################################################################################################################################################################################################################",
"###########################################################################################################################################################################################################################################################################",
"###########################################################################################################################################################################################################################################################################",
"###########################################################################################################################################################################################################################################################################",
"###########################################################################################################################################################################################################################################################################",
"###########################################################################################################################################################################################################################################################################",
"###########################################################################################################################################################################################################################################################################",
"###########################################################################################################################################################################################################################################################################",
"#######################################################################################################  ##################################################################################################################################################################",
"######################################################################################################    #################################################################################################################################################################",
"#####################################################################################################      ################################################################################################################################################################",
"#####################################################################################################      #############   ################################################################################################################################################",
"#####################################################################################################       ###########      ##############################################################################################################################################",
"######################################################################################################       ##########       #############################################################################################################################################",
"######################################################################################################       ##########        ############################################################################################################################################",
"############################################################################################     #####        ##########         ##########################################################################################################################################",
"############################################################################################                  ##########          #########################################################################################################################################",
"###########################################################################################                    #########           ########################################################################################################################################",
"############################################################################################                    #########            ######################################################################################################################################",
"#############################################################################################                   #########             #####################################################################################################################################",
"##############################################################################################                   ########               ###################################################################################################################################",
"################################################################################################                   #######                #################################################################################################################################",
"##################################################################################################                    ####                 ################################################################################################################################",
"####################################################################################################                    ##                   ##############################################################################################################################",
"#############################################################################################      ###                                         ############################################################################################################################",
"######################################################################################                                                           ##########################################################################################################################",
"#####################################################################################                                                              ########################################################################################################################",
"#####################################################################################                                                                 #####################################################################################################################",
"#####################################################################################                                                                     #################################################################################################################",
"#####################################################################################                                                                            ##########################################################################################################",
"#######################################################################################                                                                              ######################################################################################################",
"##############################################################################################                                                                          ###################################################################################################",
"################################################################################################                                                                           ################################################################################################",
"############################################################################################                                                                                 ##############################################################################################",
"#######################################################################################                                                                                        ############################################################################################",
"#####################################################################################                                                                                            ##########################################################################################",
"#####################################################################################                                                                                              ########################################################################################",
"#####################################################################################                                                                                               #######################################################################################",
"#####################################################################################                                                                                                 #####################################################################################",
"#################################################################################                                                                                                      ####################################################################################",
"################################################################################                                                                                                        ###################################################################################",
"###############################################################################                                                                                                           #################################################################################",
"###############################################################################                                                                                                            ################################################################################",
"################################################################################                                                                                                            ###############################################################################",
"################################################################################                                                                                                             ##############################################################################",
"################################################################################                                                                                                             ##############################################################################",
"##################################################################################                                                                                                            #############################################################################",
"####################################################################################                                                                                                           ############################################################################",
"######################################################################################                                                                                                          ###########################################################################",
"#######################################################################################                                                                                                          ##########################################################################",
"################################################################################                                                                                                                 ##########################################################################",
"###########################################################################                                                                                                                       #########################################################################",
"########################################################################                                                                                                                           ########################################################################",
"######################################################################                                                                                                                             ########################################################################",
"######################################################################                                                                                                                              #######################################################################",
"######################################################################                                                                                                                              #######################################################################",
"######################################################################                                                                                                                               ######################################################################",
"########################################################################                                                                                                                             ######################################################################",
"##########################################################################                                                                                                                            #####################################################################",
"############################################################################                                                                                                                          #####################################################################",
"##############################################################################                                                                                                                        #####################################################################",
"################################################################################                                                                                                                       ####################################################################",
"###################################################################################                                 XXXXX                                                                              ####################################################################",
"#####################################################################################                             XXXXXXXXX                                       XXXXXXX                              ####################################################################",
"#####################################################################################                           XXXXXXXXXXXXX                                   XXXXXXXXXXX                             ###################################################################",
"###################################################################################                           XXXXXX     XXXXX                                XXXXXX  XXXXXXX                           ###################################################################",
"#################################################################################                            XXXXX         XXXXX                             XXXXX       XXXXX                          ###################################################################",
"###############################################################################                             XXXX             XXX                            XXXX           XXXX                         ###################################################################",
"#############################################################################                                X                X                             XXX             XXX                         ###################################################################",
"############################################################################                                                                                                                            ###################################################################",
"###########################################################################                                                                                                                             ###################################################################",
"##########################################################################                                                                                                                               ##################################################################",
"########################################################################                                                                                                                                  #################################################################",
"#######################################################################                                                                                                                                    ################################################################",
"######################################################################                                                             ++++++++++++++++++++++++++++++++++++++++                                  ##############################################################",
"#####################################################################                                                 ++++++++++++++++++++++++++++++++++++++++++++++++++++++++++++                            #############################################################",
"####################################################################                                          +++++       ++++++++++++++++++++++++++++++++++++++++      ++++++++++++                           ############################################################",
"###################################################################                                       +++++++           +++++++++++++++++++++++++++++++++++            ++++++++++                          ############################################################",
"##################################################################               ########               +++++++               ++++++++++++++++++++++++++++++++              ++++++++++                         ############################################################",
"##################################################################            ###########              +++++++                 +++++++++++++++++++++++++++++                 +++++++++                        #############################################################",
"#################################################################          ##############            ++++++++                   +++++++++++++++++++++++++++                   +++++++++                      ##############################################################",
"#################################################################        ################           ++++++++         @@@         ++++++++++++++++++++++++++         @@@        ++++++++                     ###############################################################",
"#################################################################      ##################         ++++++++++       @@@@@@@        ++++++++++++++++++++++++       @@@@@@@@       ++++++++                    ###############################################################",
"##################################################################   ####################       +++++++++++       @@@@@@@@@@       ++++++++++++++++++++++       @@@@@@@@@@      ++++++++                     ##############################################################",
"#########################################################################################       +++++++++++      @@@@@@@@@@@@      +++++++++++++++++++++       @@@@@@@@@@@@      ++++++++                      ############################################################",
"#########################################################################################       ++++++++++      @@@@@@@@@@@@@       ++++++++++++++++++++      @@@@@@@@@@@@@      ++++++++                       ###########################################################",
"#########################################################################################       ++++++++++      @@@@@@@@@@@@@@      +++++++++++++++++++      @@@@@@@@@@@@@@@      ++++++++                      ###########################################################",
"#########################################################################################       +++++++++      @@@@@@@@@@@@@@@@      ++++++++++++++++++      @@@@@@@@@@@@@@@      ++++++++                       ##########################################################",
"#########################################################################################       +++++++++      @@@@@@@@@@@@oo@@      +++++++++++++++++      @@ooo@@@@@@@@@@@@      +++++++                      ###########################################################",
"#########################################################################################       ++++++++      @@@@@@@@@@@@ooo@@@      ++++++++++++++++      @@ooo@@@@@@@@@@@@      ++++++++             ###     ###########################################################",
"#########################################################################################       ++++++++      @@@@@@@@@@@@ooo@@@      ++++++++++++++++     @@@ooo@@@@@@@@@@@@@     ++++++++              ##################################################################",
"#########################################################################################       ++++++++     @@@@@@@@@@@@@ooo@@@@    +++++++++++++++++     @@@ooo@@@@@@@@@@@@@      ++++++               ##################################################################",
"#########################################################################################       ++++++++     @@@@@@@@@@@@@ooo@@@@@  ++++++++++++++++++++  @@@@ooo@@@@@@@@@@@@@      ++++++                #################################################################",
"#########################################################################################       +++++++      @@@@@@@@@@@@@ooo@@@@@@+++++++++++++++++++++@@@@@@ooo@@@@@@@@@@@@@@     ++++++                #################################################################",
"#########################################################################################        ++++++      @@@@@@@@@@@@@ooo@@@@@@+++++++++++++++++++++@@@@@@ooo@@@@@@@@@@@@@@     +++++++      ++++      ################################################################",
"#########################################################################################        ++++++     @@@@@@@@@@@@@@ooo@@@@@@+++++++++++++++++++++@@@@@@ooo@@@@@@@@@@@@@@      ++++++++++++++++      ################################################################",
"########################################################################################         ++++++     @@@@@@@@@@@@@@ooo@@@@@@+++++++++++++++++++++@@@@@@ooo@@@@@@@@@@@@@@      ++++++++++++++++      ################################################################",
"########################################################################################         +++++++    @@@@@@@@@@@@@@ooo@@@@@@+++++++++++++++++++++@@@@@@ooo@@@@@@@@@@@@@@@    ++++++++++++++++++     ################################################################",
"########################################################################################         +++++++++@@@@@@@@@@@@@@@@ooo@@@@@@+++++++++++++++++++++@@@@@@ooo@@@@@@@@@@@@@@@@+++++++++++++++++++++     ################################################################",
"########################################################################################         +++++++++@@@@@@@@@@@@@@@@ooo@@@@@@+++++++++++++++++++++@@@@@@ooo@@@@@@@@@@@@@@@@+++++++++++++++++++++     ################################################################",
"########################################################################################          +++++++++@@@@@@@@@@@@@@@ooo@@@@@@+++++++++++++++++++++@@@@@@ooo@@@@@@@@@@@@@@@@+++++++++++++++++++++     ################################################################",
"########################################################################################          +++++++++@@@@@@@@@@@@@@@ooo@@@@@@+++++++++++++++++++++@@@@@@ooo@@@@@@@@@@@@@@@@+++++++++++++++++++++      ###############################################################",
"########################################################################################          +++++++++@@@@@@@@@@@@@@@ooo@@@@@@+++++++++++++++++++++@@@@@@ooo@@@@@@@@@@@@@@@++++++++++++++++++++++     ################################################################",
"########################################################################################          ++++++++++@@@@@@@@@@@@@@ooo@@@@@@+++++++++++++++++++++@@@@@@ooo@@@@@@@@@@@@@@@++++++++++++++++++++++     ################################################################",
"########################################################################################          ++++++++++@@@@@@@@@@@@@@ooo@@@@@@+++++++++++++++++++++@@@@@@ooo@@@@@@@@@@@@@@@++++++++++++++++++++++     ################################################################",
"########################################################################################           +++++++++@@@@@@@@@@@@@@ooo@@@@@@++++++++++++++++++++++@@@@@ooo@@@@@@@@@@@@@@+++++++++++++++++++++++     ################################################################",
"########################################################################################           ++++++++++@@@@@@@@@@@@@@oo@@@@@@++++++++++++++++++++++@@@@@@o@@@@@@@@@@@@@@@+++++++++++++++++++++++     ################################################################",
"########################################################################################           ++++++++++@@@@@@@@@@@@@@@@@@@@@@++++++++++++++++++++++@@@@@@@@@@@@@@@@@@@@@++++++++++++++++++++++++     ################################################################",
"########################################################################################           +++++++++++@@@@@@@@@@@@@@@@@@@@+++++++++++++++++++++++@@@@@@@@@@@@@@@@@@@@@+++++++++++++++++++++++      ################################################################",
"########################################################################################            ++++++++++@@@@@@@@@@@@@@@@@@@+++++++++++++++++++++++++@@@@@@@@@@@@@@@@@@@++++++++++++++++++++++++      ################################################################",
"########################################################################################            ++++++++++++@@@@@@@@@@@@@@@@++++++++++++++++++++++++++++@@@@@@@@@@@@@@@@+++++++++++++++++++++++++      ################################################################",
"########################################################################################            ++++++++++++++@@@@@@@@@@@@++++++++++++++++++++++++++++++++@@@@@@@@@@@+++++++++++++++++++++++++++       ################################################################",
"########################################################################################             ++++++++++++++++++++++++++++++++++++++++++++++++++++++++++++++++++++++++++++++++++++++++++++++         ###############################################################",
"########################################################################################             +++++++++++++++++++++++++++++++++++++++++++++++++++++++++++++++++++++++++++++++++++++   ++++++         ###############################################################",
"########################################################################################             ++++++++++++++++++++++++++++++++++++++++++++++++++++++++++++++++++++++++++++++++++++                   ###############################################################",
"########################################################################################              ++++++++++++++++++++++++++++++++++++++++++++++++++++++++++++++++++++++++++++++++++                    ###############################################################",
"#######################################################################################               ++++++++++++++++++++++++++++++++++++++++++++++++++++++++++++++++++++++++++++++++++                     ##############################################################",
"########################################################################################               ++++++++++++++++++++++++++++++++++++++++++++++++++++++++++++++++++++++++++++++++++                    ##############################################################",
"########################################################################################               +++++++++++++++++++++++++++++++++++++++++++++++++++++++++++++++++++++++++++++++++++                   ##############################################################",
"#############################################################################################          +++++++++++++++++++++++++++++++++++++++++++++++++++++++++++++++++++++++++++++++++++      ######       ##############################################################",
"#############################################################################################           +++++++++++++++++++++++++++++++++++++++++++++++++++++++++++++++++++++++++++++++++      #########     ##############################################################",
"############################################################################################            +++++++++++++++++++++++++++++++++++++++++++++++++++++++++++++++++++++++++++++++++      ##########   ###############################################################",
"############################################################################################      #      +++++++++++++++++++++++++++++++++++++++++++++++++++++++++++++++++++++++++++++++      #############################################################################",
"############################################################################################     ##      ++++++++++++++++++++++++++++++++++++++++++++++++++++++++++++++++++++++++++++++       #############################################################################",
"############################################################################################     ###      ++++++++++++++++++++++++  +++++++++++++++++++++++++++++++++++++++++++++++++++      ##############################################################################",
"############################################################################################    ####       +++++++++++++++++++++++     ++++++++++++++++   ++++++++++++++++++++++++++++      ###############################################################################",
"#####################################################################################################       +++++++++++++++++++++++              +++++    +++++++++++++++++++++++++++       ###############################################################################",
"######################################################################################################      ++++++++++++++++++++++++                     +++++++++++++++++++++++++++       ################################################################################",
"######################################################################################################       +++++++++++++++++++++++++++++++            +++++++++++++++++++++++++++       #################################################################################",
"#######################################################################################################       ++++++++++++++++++++++++++++++++++++    ++++++++++++++++++++++++++++        #################################################################################",
"########################################################################################################       ++++++++++++++++++++++++++++++++++++++++++++++++++++++++++++++++++        ##################################################################################",
"#########################################################################################################       ++++++++++++++++++++++++++++++++++++++++++++++++++++++++++++++++        ###################################################################################",
"##########################################################################################################        +++++++++++++++++++++++++++++++++++++++++++++++++++++++++++++        ####################################################################################",
"###########################################################################################################        +++++++++++++++++++++++++++++++++++++++++++++++++++++++++++        #####################################################################################",
"############################################################################################################        ++++++++++++++++++++++++++++++++++++++++++++++++++++++++         ######################################################################################",
"#############################################################################################################         +++++++++++++++++++++++++++++++++++++++++++++++++++++         #######################################################################################",
"##############################################################################################################         ++++++++++++++++++++++++++++++++++++++++++++++++++         #########################################################################################",
"###############################################################################################################          ++++++++++++++++++++++++++++++++++++++++++++++          ##########################################################################################",
"#################################################################################################################          ++++++++++++++++++++++++++++++++++++++++++           ###########################################################################################",
"##################################################################################################################           ++++++++++++++++++++++++++++++++++++++           #############################################################################################",
"####################################################################################################################           +++++++++++++++++++++++++++++++++             ##############################################################################################",
"#####################################################################################################################             +++++++++++++++++++++++++++              ################################################################################################",
"#######################################################################################################################               +++++++++++++++++++                ##################################################################################################",
"#########################################################################################################################                                              ####################################################################################################",
"###########################################################################################################################                                          ######################################################################################################",
"#############################################################################################################################                                     #########################################################################################################",
"################################################################################################################################                               ############################################################################################################",
"####################################################################################################################################                        ###############################################################################################################",
"#######################################################################################################################################              +      ###############################################################################################################",
"#######################################################################################################################################     ++++++++++      ###############################################################################################################",
"#######################################################################################################################################     ++++++++++      ###############################################################################################################",
"#######################################################################################################################################     ++++++++++     ################################################################################################################",
"#######################################################################################################################################     ++++++++++     ################################################################################################################",
"##############################################################################################################################                   +++++     ################################################################################################################",
"#############################################################################################################################                                       #######################################################################################################",
"#############################################################################################################################                                        ######################################################################################################",
"#############################################################################################################################                                        ######################################################################################################",
"##################################################################################################################                                                                #########################################################################################",
"###############################################################################################################                                                                      ######################################################################################",
"#############################################################################################################                                       ++                                         ############################################################################",
"###########################################################################################################                                          +                                           ##########################################################################",
"##########################################################################################################                                                                                          #######################################################################",
"#########################################################################################################           @@@@@        XXXX                                     @@@@@                       #####################################################################",
"########################################################################################################         @@@@@@@@@        XXXXX                    XXXX         @@@@@@@@@@@                   #####################################################################",
"#######################################################################################################        @@@@@@@@@@@@         XX       OOOOO        XXX          @@@@@@@@@@@@@@                 #####################################################################",
"#######################################################################################################      @@@@@@@@@@@@@@@                OOOOOOO                   @@@@@@@@@@@@@@@@@      ...      #####################################################################",
"#######################################################################################################     @@@@@@@@@@@@@@@@@              OOOOOOOO                 @@@@@@@@@@@@@@@@@@@@      ..      #####################################################################",
"######################################################################################################      @@@@@@@@@@@@@@@@@@@            OOOOOOOOO               @@@@@@@@@@@@@@@@@@@@@      ..     ######################################################################",
"######################################################################################################      @@@@@@@@@@@@@@@@@@@@           OOOOOOOOO             @@@@@@@@@@@@@@@@@@@@@@@      .      ######################################################################",
"######################################################################################################      @@@@@@@@@@@@@@@@@@@@@@         OOOOOOOOO           @@@@@@@@@@@@@@@@@@@@@@@@@@     .      ######################################################################",
"######################################################################################################     @@@@@@@@@@@@@@@@@@@@@@@@@       OOOOOOOO         @@@@@@@@@@@@@@@@@@@@@@@@@@@@@     .     #######################################################################",
"######################################################################################################     @@@@@@@@@@@@@@@@@@@@@@@@@@@      OOOOOO       @@@@@@@@@@@@@@@@@@@@@@@@@@@@@@@@           #######################################################################",
"######################################################################################################     @@@@@@@@@@@@@@@@@@@@@@@@@@@        OOO       @@@@@@@@@@@@@@@@@@@@@@@@@@@@@@@@@           #######################################################################",
"######################################################################################################     @@@@@@@@@@@@@@@@@@@@@@@@@@@                  @@@@@@@@@@@@@@@@@@@@@@@@@@@@@@@@@           #######################################################################",
"######################################################################################################     @@@@@@@@@@@@@@@@@@@@@@@@@@@                  @@@@@@@@@@@@@@@@@@@@@@@@@@@@@@@@@           #######################################################################",
"######################################################################################################     @@@@@@@@@@@@@@@@@@@@@@@@@@@                  @@@@@@@@@@@@@@@@@@@@@@@@@@@@@@@@@            ######################################################################",
"######################################################################################################     @@@@@@@@@@@@@@@@@@@@@@@@@@@   @              @@@@@@@@@@@@@@@@@@@@@@@@@@@@@@@@@            ######################################################################",
"#####################################################################################################      @@@@@@@@@@@@@@@@@@@@@@@@@@@   @@@       @@   @@@@@@@@@@@@@@@@@@@@@@@@@@@@@@@@@            ######################################################################",
"#####################################################################################################      @@@@@@@@@@@@@@@@@@@@@@@@@@@   @@@@@@@@@@@@   @@@@@@@@@@@@@@@@@@@@@@@@@@@@@@@@@           #######################################################################",
"#####################################################################################################      @@@@@@@@@@@@@@@@@@@@@@@@@@@   @@@@@@@@@@@@   @@@@@@@@@@@@@@@@@@@@@@@@@@@@@@@@@@          #######################################################################",
"#####################################################################################################     @@@@@@@@@@@@@@@@@@@@@@@@@@@@   @@@@@@@@@@@@   @@@@@@@@@@@@@@@@@@@@@@@@@@@@@@@@@@         ########################################################################",
"#####################################################################################################     @@@@@@@@@@@@@@@@@@@@@@@@@@@@   @@@@@@@@@@@@   @@@@@@@@@@@@@@@@@@@@@@@@@@@@@@@@@@        #########################################################################",
"#####################################################################################################     @@@@@@@@@@@@@@@@@@@@@@@@@@@@   @@@@@@@@@@@@   @@@@@@@@@@@@@@@@@@@@@@@@@@@@@@@@@@        #########################################################################",
"#####################################################################################################     @@@@@@@@@@@@@@@@@@@@@@@@@@@@   @@@@@@@@@@@@   @@@@@@@@@@@@@@@@@@@@@@@@@@@@@@@@@@       ##########################################################################",
"#####################################################################################################     @@@@@@@@@@@@@@@@@@@@@@@@@@@@   @@@@@@@@@@@@   @@@@@@@@@@@@@@@@@@@@@@@@@@@@@@@@@@      ###########################################################################",
"#####################################################################################################     @@@@@@@@@@@@@@@@@@@@@@@@@@@@   @@@@@@@@@@@@   @@@@@@@@@@@@@@@   @@@@@@@@@@@@@@@@      ###########################################################################",
"####################################################################################################      @@@@@@@@@@@ @@@@@@@@@@@@@@@@   @@@@@@@@@@@@   @@@@@@@@@@@@@@     @@@@@@@@@@@@@@@      ###########################################################################",
"####################################################################################################      @@@@@@@@@@    @@@@@@@@@@@@@@@@@@@@@@@@@@@@@   @@@@@@@@@@@@@@     @@@@@@@@@@@@@@@      ###########################################################################",
"####################################################################################################      @@@@@@@@@     @@@@@@@@@@@@@@@@@@@@@@@@@@@@@   @@@@@@@@@@@@@@     @@@@@@@@@@@@@@@      ###########################################################################",
"####################################################################################################      @@@@@@@@@      @@@@@@@@@@@@@@@@@@@@@@@@@@@@   @@@@@@@@@@@@@@     @@@@@@@@@@@@@@@@     ###########################################################################",
"####################################################################################################     @@@@@@@@@@      @@@@@@@@@@@@@@@@@@@@@@@@@@@@   @@@@@@@@@@@@@@     @@@@@@@@@@@@@@@@     ###########################################################################",
"####################################################################################################     @@@@@@@@@@      @@@@@@@@@@@@@@@@@@@@@@@@@@@@   @@@@@@@@@@@@@@     @@@@@@@@@@@@@@@@     ###########################################################################",
"####################################################################################################     @@@@@@@@@@      @@@@@@@@@@@@@@@@@@@@@@@@@@@@@  @@@@@@@@@@@@@@     @@@@@@@@@@@@@@@@     ###########################################################################",
"####################################################################################################      @@@@@@@@@      @@@@@@@@@@@@@@@@@@@@@@@@@@@@@@@@@@@@@@@@@@@@@      @@@@@@@@@@@@@@@     ###########################################################################",
"####################################################################################################                     @@@@@@@@@@@@@@@@@@@@@@@@@@@@@@@@@@@@@@@@@@@@@      @@@@@               ###########################################################################",
"####################################################################################################                     @@@@@@@@@@@@@@@@@@@@@@@@@@@@@@@@@@@@@@@@@@@@@                           ##########################################################################",
"###################################################################################################                      @@@@@@@@@@@@@@@@@@@@@@@@@@@@@@@@@@@@@@@@@@@@@                           ##########################################################################",
"###################################################################################################                      @@@@@@@@@@@@@@@@@@@@@@@@@@@@@@@@@@@@@@@@@@@@@@                          ##########################################################################",
"###################################################################################################                      @@@@@@@@@@@@@@@@@@@@@@@@@@@@@@@@@@@@@@@@@@@@@@                          ##########################################################################",
"###################################################################################################      ........        @@@@@@@@@@@@@@@@@@@@@@@@@@@@@@@@@@@@@@@@@@@@@@              .......     ##########################################################################",
"###################################################################################################     ...........      @@@@@@@@@@@@@@@@@@@@@@@@@@@@@@@@@@@@@@@@@@@@@@     ................     ##########################################################################",
"###################################################################################################     ...........      @@@@@@@@@@@@@@@@@@@@@@@@@@@@@@@@@@@@@@@@@@@@@@     ................     ##########################################################################",
"###################################################################################################     ...........      @@@@@@@@@@@@@@@@@@@@@@@@@@@@@@@@@@@@@@@@@@@@@@     ................     ##########################################################################",
"###################################################################################################     ...........      @@@@@@@@@@@@@@@@@@@@@@@@@@@@@@@@@@@@@@@@@@@@@@      ...............     ##########################################################################",
"###################################################################################################     ...........      @@@@@@@@@@@@@@@@@@@@@@@@@@@@@@@@@@@@@@@@@@@@@@      ...............      #########################################################################",
"###################################################################################################     ...........      @@@@@@@@@@@@@@@@@@@@@@@@@@@@@@@@@@@@@@@@@@@@@@      ...............      #########################################################################",
"##################################################################################################      ...........      @@@@@@@@@@@@@@@@@@@@@@@@@@@@@@@@@@@@@@@@@@@@@@      ...............      #########################################################################",
"##################################################################################################      ...........      @@@@@@@@@@@@@@@@@@@@@@@@@@@@@@@@@@@@@@@@@@@@@@@     ...............      #########################################################################",
"##################################################################################################      ...........      @@@@@@@@@@@@@@@@@@@@@@@@@@@@@@@@@@@@@@@@@@@@@@@     ...............      #########################################################################",
"##################################################################################################      ...........      @@@@@@@@@@@@@@@@@@@@@@@@@@@@@@@@@@@@@@@@@@@@@@@     ................     #########################################################################",
"##################################################################################################     ............      @@@@@@@@@@@@@@@@@@@@@@@@@@@@@@@@@@@@@@@@@@@@@@@     ................     #########################################################################",
"##################################################################################################     ............      @@@@@@@@@@@@@@@@@@@@@@@@@@@@@@@@@@@@@@@@@@@@@@@     ................     #########################################################################",
"##################################################################################################     ............      @@@@@@@@@@@@@@@@@@@@@@@@@@@@@@@@@@@@@@@@@@@@@@@     ................     #########################################################################",
"##################################################################################################     ............      @@@@@@@@@@@@@@@@@@@@@@@@@@@@@@@@@@@@@@@  @@@@@@     ................     #########################################################################",
"##################################################################################################     ............      @@@@   @@@@@@@@@@@@@@@@@@@@@@@@@@@@@@@    @@@@@      ...............      ########################################################################",
"#################################################################################################      ............      @@@      @@@@@@@@@@@@@@@@@@@@@@@@@@@       @@@@      ...............      ########################################################################",
"#################################################################################################      ............      @@@       @@@@@@@@@@@@@@@@@@@@@@@@@        @@@@      ...............      ########################################################################",
"#################################################################################################      ............      @@         @@@@@@@@@@@@@@@@@@@@@@@         @@@@      ...............      ########################################################################",
"#################################################################################################      ............      @@           @@@@@@@@@@@@@@@@@@@            @@@@     ...............      ########################################################################",
"#################################################################################################      ............      @@            @@@@@@@@@@@@@@@@@             @@@@     ................     ########################################################################",
"#################################################################################################     .............      @               @@@@@@@@@@@@@@              @@@@     ................     ########################################################################",
"#################################################################################################     .............      @                @@@@@@@@@@@         ..     @@@@     ................     ########################################################################",
"#################################################################################################     .............      @     ...                           ...      @@@     ................     ########################################################################",
"#################################################################################################     .............            .....                        ....      @@@     ................     ########################################################################",
"#################################################################################################     .............            ......                     .......     @@@      ...............      #######################################################################",
"################################################################################################      .............           ........                   ........     @@@      ...............      #######################################################################",
"################################################################################################      .............           ..........               ..........      @@      ...............      #######################################################################",
"################################################################################################      .............           ............ ......................       @      ...............      #######################################################################",
"################################################################################################      .............          .....................................             ...............      #######################################################################",
"################################################################################################      .............         ......................................             ................     #######################################################################",
"################################################################################################     ..............         ........................................           ................     #######################################################################",
"################################################################################################     ..............        ..........................................          ................     #######################################################################",
"################################################################################################     ..............       ............................................         ................     #######################################################################",
"################################################################################################     ..............       .............................................        ................     #######################################################################",
"################################################################################################     ..............      ...............................................       ................      ######################################################################",
"###############################################################################################      ..............      ................................................       ...............      ######################################################################",
"###############################################################################################      ..............      ................................................       ...............      ######################################################################",
"###############################################################################################      ..............      ................................................       ...............      ######################################################################",
"###############################################################################################      ..............      ................................................       ...............      ######################################################################",
"###############################################################################################      ..............      ................................................       ................     ######################################################################",
"###############################################################################################     ...............      ................................................       ................     ######################################################################",
"###############################################################################################     ...............      ................................................       ................     ######################################################################",
"###############################################################################################     ..............      .................................................       ................     ######################################################################",
"###############################################################################################     .............       .................................................       ................      #####################################################################",
"###############################################################################################     .............      ..................................................       ................      #####################################################################",
"##############################################################################################      .............      ..................................................        ...............      #####################################################################",
"##############################################################################################      ..............     ..................................................        ...............      #####################################################################",
"##############################################################################################      ..............     ..................................................        ...............      #####################################################################",
"##############################################################################################      ..............       ................................................        ...............      #####################################################################",
"##############################################################################################      ..............             ........................................          ................     #####################################################################",
"##############################################################################################     ................                    ..........................                ................     #####################################################################",
"##############################################################################################     ................                                                              ................     #####################################################################",
"##############################################################################################     ................                                                              ................     #####################################################################",
"##############################################################################################     ................                                                              ................      ####################################################################",
"#############################################################################################      ................     ....                                                     ................      ####################################################################",
"##########################################################################################         ................     ............                                .....        ................        ##################################################################",
"#########################################################################################              ............     .................................................         ..........              #################################################################",
"########################################################################################                   .......      .................................................         ......                  #################################################################",
"########################################################################################                      ....      .................................................         ...                      ################################################################",
"########################################################################################                         .      .................................................                                  ################################################################",
"########################################################################################                                .................................................                                  ################################################################",
"#######################################################################################      +++++++                    .................................................                      +++++++      ###############################################################",
"#######################################################################################      ++++++++++++               ..................................................                ++++++++++++      ###############################################################",
"#######################################################################################     ++++++++++    ++            ..................................................             ++    ++++++++++     ###############################################################",
"#######################################################################################     +++++++++     +++++         ..................................................          +++++     +++++++++     ###############################################################",
"######################################################################################      +++++++++      +++          ..................................................           +++      +++++++++      ##############################################################",
"######################################################################################      +++++++++     ++++          ..................................................           ++++     +++++++++      ##############################################################",
"######################################################################################     ++++++++++     ++++          ..................           .....................           ++++     ++++++++++     ##############################################################",
"######################################################################################     +++++++++      +++           .................             ....................           ++++      +++++++++     ##############################################################",
"#####################################################################################      +++++++++      +++           .................             ...................             +++      +++++++++      #############################################################",
"#####################################################################################         ++++++     ++++           .................             ..................       ++     ++++     ++++++         #############################################################",
"#####################################################################################                    ++++           .................             ..................      +++     ++++                    #############################################################",
"#####################################################################################                                  ....................           ..................                                      #############################################################",
"#####################################################################################                                  ....................           ...................                                     #############################################################",
"######################################################################################                                 ....................           ....................                                   ##############################################################",
"############################################################################################                           ....................            ...................                             ####################################################################",
"##################################################################################################                     ....................     #      ...................                       ##########################################################################",
"########################################################################################################               ....................     #      ...................                 ################################################################################",
"#################################################################################################################      ....................     #      ....................       #########################################################################################",
"##################################################################################################################     ....................     #      ....................     ###########################################################################################",
"##################################################################################################################     ....................     #      ....................     ###########################################################################################",
"##################################################################################################################     ....................     ##     ....................     ###########################################################################################",
"##################################################################################################################     ....................     ##     ....................     ###########################################################################################",
"##################################################################################################################     ....................     ##     ....................     ###########################################################################################",
"##################################################################################################################     ....................     ##     ....................     ###########################################################################################",
"##################################################################################################################     ....................     ##     ....................     ###########################################################################################",
"#################################################################################################################      ....................     ##     ....................     ###########################################################################################",
"#################################################################################################################      ....................     ##     ....................     ###########################################################################################",
"#################################################################################################################      ....................     ##     ....................      ##########################################################################################",
"#################################################################################################################      ....................     ##     ....................      ##########################################################################################",
"#################################################################################################################      ....................     ##     ....................      ##########################################################################################",
"#################################################################################################################      ....................     ##      ...................      ##########################################################################################",
"#################################################################################################################      ....................     ##      ...................      ##########################################################################################",
"#################################################################################################################      ....................     ##      ...................      ##########################################################################################",
"#################################################################################################################     .....................     ##      ....................     ##########################################################################################",
"#################################################################################################################     .....................     ##      ....................     ##########################################################################################",
"#################################################################################################################     .....................     ###     ....................     ##########################################################################################",
"#################################################################################################################     .....................     ###     ....................     ##########################################################################################",
"#################################################################################################################     .....................     ###     ....................     ##########################################################################################",
"#################################################################################################################     ....................      ###     ....................     ##########################################################################################",
"#################################################################################################################     ....................      ###     ....................     ##########################################################################################",
"#################################################################################################################     ....................      ###     ....................     ##########################################################################################",
"#################################################################################################################     ....................      ###     ....................     ##########################################################################################",
"#################################################################################################################     ....................      ###     ....................     ##########################################################################################",
"#################################################################################################################     ....................      ###     ....................      #########################################################################################",
"#################################################################################################################     ....................      ###     ....................      #########################################################################################",
"#################################################################################################################     ....................      ###      ...................      #########################################################################################",
"#################################################################################################################     ....................      ###      ...................      #########################################################################################",
"################################################################################################################      ....................      ###      ...................      #########################################################################################",
"################################################################################################################      ....................      ###      ...................      #########################################################################################",
"################################################################################################################      ....................      ###      ....................     #########################################################################################",
"################################################################################################################      ....................     #####     ....................     #########################################################################################",
"################################################################################################################      ....................     #####     ....................     #########################################################################################",
"################################################################################################################      ....................     #####     ....................     #########################################################################################",
"################################################################################################################      ....................     #####     ....................     #########################################################################################",
"################################################################################################################      ....................     #####     ....................     #########################################################################################",
"################################################################################################################     .....................     #####     ....................     #########################################################################################",
"################################################################################################################     .....................     #####     ....................     #########################################################################################",
"################################################################################################################     .....................     #####     ....................     #########################################################################################",
"################################################################################################################     .....................     #####     ....................     #########################################################################################",
"################################################################################################################     .....................     #####     ....................      ########################################################################################",
"################################################################################################################     .....................     #####      ...................      ########################################################################################",
"################################################################################################################     .....................     #####      ...................      ########################################################################################",
"################################################################################################################     .....................     #####      ...................      ########################################################################################",
"################################################################################################################     .....................     #####      ...................      ########################################################################################",
"################################################################################################################     .....................     #####      ...................      ########################################################################################",
"################################################################################################################     .....................     #####      ....................     ########################################################################################",
"################################################################################################################     .....................     ######     ....................     ########################################################################################",
"################################################################################################################     .....................     ######     ....................     ########################################################################################",
"################################################################################################################     .....................     ######     ....................     ########################################################################################",
"###############################################################################################################      .....................     ######     ....................     ########################################################################################",
"###############################################################################################################      .....................     ######     ....................     ########################################################################################",
"###############################################################################################################      .....................     ######     ....................     ########################################################################################",
"###############################################################################################################      .....................     ######     ....................     ########################################################################################",
"###############################################################################################################      ....................      ######     ....................     ########################################################################################",
"###############################################################################################################      ....................      ######     ....................     ########################################################################################",
"###############################################################################################################      ....................      ######     ....................      #######################################################################################",
"###############################################################################################################      ....................      ######      ...................      #######################################################################################",
"###############################################################################################################     .....................      ######      ...................      #######################################################################################",
"###############################################################################################################     .....................      ######      ...................      #######################################################################################",
"###############################################################################################################     .....................      ######      ...................      #######################################################################################",
"###############################################################################################################     .....................      ######      ....................     #######################################################################################",
"###############################################################################################################     .....................      #######     ....................     #######################################################################################",
"###############################################################################################################     .....................      #######     ....................     #######################################################################################",
"###############################################################################################################     .....................      #######     ....................     #######################################################################################",
"###############################################################################################################     .....................      #######     ....................     #######################################################################################",
"###############################################################################################################     .....................     ########     ....................     #######################################################################################",
"###############################################################################################################     .....................     ########     ....................     #######################################################################################",
"###############################################################################################################     .....................     ########     ....................     #######################################################################################",
"###############################################################################################################     .....................     ########     ....................     #######################################################################################",
"###############################################################################################################     .....................     ########     ....................     #######################################################################################",
"###############################################################################################################     .....................     ########     ....................     #######################################################################################",
"##############################################################################################################      .....................     ########      ...................      ######################################################################################",
"##############################################################################################################      .....................     ########      ...................      ######################################################################################",
"##############################################################################################################      .....................     ########      ...................      ######################################################################################",
"##############################################################################################################      .....................     ########      ...................      ######################################################################################",
"##############################################################################################################      .....................     ########      ...................      ######################################################################################",
"##############################################################################################################      .....................     ########      ....................     ######################################################################################",
"##############################################################################################################      .....................     #########     ....................     ######################################################################################",
"##############################################################################################################      .....................     #########     ....................     ######################################################################################",
"##############################################################################################################     ......................     #########     ....................     ######################################################################################",
"##############################################################################################################     ......................     #########     ....................     ######################################################################################",
"##############################################################################################################     ......................     #########     ....................     ######################################################################################",
"##############################################################################################################     ......................     #########     ....................     ######################################################################################",
"##############################################################################################################     ......................     #########     ....................     ######################################################################################",
"##############################################################################################################     ......................     #########     ....................     ######################################################################################",
"##############################################################################################################     ......................     #########     ....................     ######################################################################################",
"##############################################################################################################     ......................     #########     ....................     ######################################################################################",
"##############################################################################################################     ......................     #########      ...................      #####################################################################################",
"##############################################################################################################     .....................      #########      ...................      #####################################################################################",
"##############################################################################################################     .....................      #########      ...................      #####################################################################################",
"##############################################################################################################     .....................      #########      ...................      #####################################################################################",
"##############################################################################################################     .....................      #########      ...................      #####################################################################################",
"##############################################################################################################     .....................      ##########     ....................     #####################################################################################",
"#############################################################################################################      .....................      ##########     ....................     #####################################################################################",
"#############################################################################################################      .....................      ##########     ....................     #####################################################################################",
"#############################################################################################################      .....................      ##########     ....................     #####################################################################################",
"#############################################################################################################      .....................      ##########     ....................     #####################################################################################",
"#############################################################################################################      .....................      ##########     ....................     #####################################################################################",
"#############################################################################################################      .....................      ##########     ....................     #####################################################################################",
"#############################################################################################################      .....................      ##########     ....................     #####################################################################################",
"#############################################################################################################      .....................     ###########     ....................     #####################################################################################",
"#############################################################################################################     ......................     ###########     ....................     #####################################################################################",
"#############################################################################################################     ......................     ###########      ...................     #####################################################################################",
"#############################################################################################################     ......................     ###########      ...................      ####################################################################################",
"#############################################################################################################     ......................     ###########      ...................      ####################################################################################",
"#############################################################################################################     ......................     ###########      ...................      ####################################################################################",
"#############################################################################################################     ......................     ###########      ...................      ####################################################################################",
"#############################################################################################################     ......................     ############     ...................      ####################################################################################",
"#############################################################################################################     ......................     ############     ....................     ####################################################################################",
"#############################################################################################################     ......................     ############     ....................     ####################################################################################",
"#############################################################################################################     ......................     ############     ....................     ####################################################################################",
"#############################################################################################################     ......................     ############     ....................     ####################################################################################",
"#############################################################################################################     ......................     ############     ....................     ####################################################################################",
"#############################################################################################################     .....................       ##########      ....................     ####################################################################################",
"#############################################################################################################     ..................           #########         .................     ####################################################################################",
"############################################################################################################      ..............               #########           ...............     ####################################################################################",
"############################################################################################################      ...........                 ##########             .............     ####################################################################################",
"###########################################################################################################             ..                    ##########                                ###################################################################################",
"########################################################################################################                                      ##########                                   ################################################################################",
"######################################################################################################                                        ##########                                     ##############################################################################",
"###################################################################################################                                           ##########                                      #############################################################################",
"#################################################################################################                                             ##########                                        ###########################################################################",
"################################################################################################                                              ##########                                         ##########################################################################",
"##############################################################################################                                                ##########                                           ########################################################################",
"#############################################################################################                                                 ##########                                            #######################################################################",
"############################################################################################                                                  ##########                                             ######################################################################",
"############################################################################################                                                  ##########                                             ######################################################################",
"###########################################################################################                                                   ##########                                              #####################################################################",
"###########################################################################################                                                   ##########                                              #####################################################################",
"##########################################################################################                                                    ##########                                               ####################################################################",
"##########################################################################################                                                    ###########                                              ####################################################################",
"##########################################################################################                                                    ###########                                              ####################################################################",
"#########################################################################################                                                     ###########                                               ###################################################################",
"#########################################################################################                                                     ###########                                               ###################################################################",
"#########################################################################################                                                     ###########                                               ###################################################################",
"#########################################################################################                                                     ###########                                               ###################################################################",
"#########################################################################################                                        .......      ###########     .......                                   ###################################################################",
"#########################################################################################     ..........................................      ###########     .....................................     ###################################################################",
"########################################################################################      ..........................................     ############     .....................................      ##################################################################",
"########################################################################################                                                     ############                                                ##################################################################",
"########################################################################################                                                     ############                                                ##################################################################",
"########################################################################################                                                     ############                                                ##################################################################",
"########################################################################################                                                     ############                                                ##################################################################",
"#########################################################################################                                                   ##############                                              ###################################################################"
};
