/* XPM */
static const char *blank[] = {
/* columns rows colors chars-per-pixel */
"267 533 1 1 ",
"  c None",
/* pixels */
"                                                                                                                                                                                                                                                                           ",
"                                                                                                                                                                                                                                                                           ",
"                                                                                                                                                                                                                                                                           ",
"                                                                                                                                                                                                                                                                           ",
"                                                                                                                                                                                                                                                                           ",
"                                                                                                                                                                                                                                                                           ",
"                                                                                                                                                                                                                                                                           ",
"                                                                                                                                                                                                                                                                           ",
"                                                                                                                                                                                                                                                                           ",
"                                                                                                                                                                                                                                                                           ",
"                                                                                                                                                                                                                                                                           ",
"                                                                                                                                                                                                                                                                           ",
"                                                                                                                                                                                                                                                                           ",
"                                                                                                                                                                                                                                                                           ",
"                                                                                                                                                                                                                                                                           ",
"                                                                                                                                                                                                                                                                           ",
"                                                                                                                                                                                                                                                                           ",
"                                                                                                                                                                                                                                                                           ",
"                                                                                                                                                                                                                                                                           ",
"                                                                                                                                                                                                                                                                           ",
"                                                                                                                                                                                                                                                                           ",
"                                                                                                                                                                                                                                                                           ",
"                                                                                                                                                                                                                                                                           ",
"                                                                                                                                                                                                                                                                           ",
"                                                                                                                                                                                                                                                                           ",
"                                                                                                                                                                                                                                                                           ",
"                                                                                                                                                                                                                                                                           ",
"                                                                                                                                                                                                                                                                           ",
"                                                                                                                                                                                                                                                                           ",
"                                                                                                                                                                                                                                                                           ",
"                                                                                                                                                                                                                                                                           ",
"                                                                                                                                                                                                                                                                           ",
"                                                                                                                                                                                                                                                                           ",
"                                                                                                                                                                                                                                                                           ",
"                                                                                                                                                                                                                                                                           ",
"                                                                                                                                                                                                                                                                           ",
"                                                                                                                                                                                                                                                                           ",
"                                                                                                                                                                                                                                                                           ",
"                                                                                                                                                                                                                                                                           ",
"                                                                                                                                                                                                                                                                           ",
"                                                                                                                                                                                                                                                                           ",
"                                                                                                                                                                                                                                                                           ",
"                                                                                                                                                                                                                                                                           ",
"                                                                                                                                                                                                                                                                           ",
"                                                                                                                                                                                                                                                                           ",
"                                                                                                                                                                                                                                                                           ",
"                                                                                                                                                                                                                                                                           ",
"                                                                                                                                                                                                                                                                           ",
"                                                                                                                                                                                                                                                                           ",
"                                                                                                                                                                                                                                                                           ",
"                                                                                                                                                                                                                                                                           ",
"                                                                                                                                                                                                                                                                           ",
"                                                                                                                                                                                                                                                                           ",
"                                                                                                                                                                                                                                                                           ",
"                                                                                                                                                                                                                                                                           ",
"                                                                                                                                                                                                                                                                           ",
"                                                                                                                                                                                                                                                                           ",
"                                                                                                                                                                                                                                                                           ",
"                                                                                                                                                                                                                                                                           ",
"                                                                                                                                                                                                                                                                           ",
"                                                                                                                                                                                                                                                                           ",
"                                                                                                                                                                                                                                                                           ",
"                                                                                                                                                                                                                                                                           ",
"                                                                                                                                                                                                                                                                           ",
"                                                                                                                                                                                                                                                                           ",
"                                                                                                                                                                                                                                                                           ",
"                                                                                                                                                                                                                                                                           ",
"                                                                                                                                                                                                                                                                           ",
"                                                                                                                                                                                                                                                                           ",
"                                                                                                                                                                                                                                                                           ",
"                                                                                                                                                                                                                                                                           ",
"                                                                                                                                                                                                                                                                           ",
"                                                                                                                                                                                                                                                                           ",
"                                                                                                                                                                                                                                                                           ",
"                                                                                                                                                                                                                                                                           ",
"                                                                                                                                                                                                                                                                           ",
"                                                                                                                                                                                                                                                                           ",
"                                                                                                                                                                                                                                                                           ",
"                                                                                                                                                                                                                                                                           ",
"                                                                                                                                                                                                                                                                           ",
"                                                                                                                                                                                                                                                                           ",
"                                                                                                                                                                                                                                                                           ",
"                                                                                                                                                                                                                                                                           ",
"                                                                                                                                                                                                                                                                           ",
"                                                                                                                                                                                                                                                                           ",
"                                                                                                                                                                                                                                                                           ",
"                                                                                                                                                                                                                                                                           ",
"                                                                                                                                                                                                                                                                           ",
"                                                                                                                                                                                                                                                                           ",
"                                                                                                                                                                                                                                                                           ",
"                                                                                                                                                                                                                                                                           ",
"                                                                                                                                                                                                                                                                           ",
"                                                                                                                                                                                                                                                                           ",
"                                                                                                                                                                                                                                                                           ",
"                                                                                                                                                                                                                                                                           ",
"                                                                                                                                                                                                                                                                           ",
"                                                                                                                                                                                                                                                                           ",
"                                                                                                                                                                                                                                                                           ",
"                                                                                                                                                                                                                                                                           ",
"                                                                                                                                                                                                                                                                           ",
"                                                                                                                                                                                                                                                                           ",
"                                                                                                                                                                                                                                                                           ",
"                                                                                                                                                                                                                                                                           ",
"                                                                                                                                                                                                                                                                           ",
"                                                                                                                                                                                                                                                                           ",
"                                                                                                                                                                                                                                                                           ",
"                                                                                                                                                                                                                                                                           ",
"                                                                                                                                                                                                                                                                           ",
"                                                                                                                                                                                                                                                                           ",
"                                                                                                                                                                                                                                                                           ",
"                                                                                                                                                                                                                                                                           ",
"                                                                                                                                                                                                                                                                           ",
"                                                                                                                                                                                                                                                                           ",
"                                                                                                                                                                                                                                                                           ",
"                                                                                                                                                                                                                                                                           ",
"                                                                                                                                                                                                                                                                           ",
"                                                                                                                                                                                                                                                                           ",
"                                                                                                                                                                                                                                                                           ",
"                                                                                                                                                                                                                                                                           ",
"                                                                                                                                                                                                                                                                           ",
"                                                                                                                                                                                                                                                                           ",
"                                                                                                                                                                                                                                                                           ",
"                                                                                                                                                                                                                                                                           ",
"                                                                                                                                                                                                                                                                           ",
"                                                                                                                                                                                                                                                                           ",
"                                                                                                                                                                                                                                                                           ",
"                                                                                                                                                                                                                                                                           ",
"                                                                                                                                                                                                                                                                           ",
"                                                                                                                                                                                                                                                                           ",
"                                                                                                                                                                                                                                                                           ",
"                                                                                                                                                                                                                                                                           ",
"                                                                                                                                                                                                                                                                           ",
"                                                                                                                                                                                                                                                                           ",
"                                                                                                                                                                                                                                                                           ",
"                                                                                                                                                                                                                                                                           ",
"                                                                                                                                                                                                                                                                           ",
"                                                                                                                                                                                                                                                                           ",
"                                                                                                                                                                                                                                                                           ",
"                                                                                                                                                                                                                                                                           ",
"                                                                                                                                                                                                                                                                           ",
"                                                                                                                                                                                                                                                                           ",
"                                                                                                                                                                                                                                                                           ",
"                                                                                                                                                                                                                                                                           ",
"                                                                                                                                                                                                                                                                           ",
"                                                                                                                                                                                                                                                                           ",
"                                                                                                                                                                                                                                                                           ",
"                                                                                                                                                                                                                                                                           ",
"                                                                                                                                                                                                                                                                           ",
"                                                                                                                                                                                                                                                                           ",
"                                                                                                                                                                                                                                                                           ",
"                                                                                                                                                                                                                                                                           ",
"                                                                                                                                                                                                                                                                           ",
"                                                                                                                                                                                                                                                                           ",
"                                                                                                                                                                                                                                                                           ",
"                                                                                                                                                                                                                                                                           ",
"                                                                                                                                                                                                                                                                           ",
"                                                                                                                                                                                                                                                                           ",
"                                                                                                                                                                                                                                                                           ",
"                                                                                                                                                                                                                                                                           ",
"                                                                                                                                                                                                                                                                           ",
"                                                                                                                                                                                                                                                                           ",
"                                                                                                                                                                                                                                                                           ",
"                                                                                                                                                                                                                                                                           ",
"                                                                                                                                                                                                                                                                           ",
"                                                                                                                                                                                                                                                                           ",
"                                                                                                                                                                                                                                                                           ",
"                                                                                                                                                                                                                                                                           ",
"                                                                                                                                                                                                                                                                           ",
"                                                                                                                                                                                                                                                                           ",
"                                                                                                                                                                                                                                                                           ",
"                                                                                                                                                                                                                                                                           ",
"                                                                                                                                                                                                                                                                           ",
"                                                                                                                                                                                                                                                                           ",
"                                                                                                                                                                                                                                                                           ",
"                                                                                                                                                                                                                                                                           ",
"                                                                                                                                                                                                                                                                           ",
"                                                                                                                                                                                                                                                                           ",
"                                                                                                                                                                                                                                                                           ",
"                                                                                                                                                                                                                                                                           ",
"                                                                                                                                                                                                                                                                           ",
"                                                                                                                                                                                                                                                                           ",
"                                                                                                                                                                                                                                                                           ",
"                                                                                                                                                                                                                                                                           ",
"                                                                                                                                                                                                                                                                           ",
"                                                                                                                                                                                                                                                                           ",
"                                                                                                                                                                                                                                                                           ",
"                                                                                                                                                                                                                                                                           ",
"                                                                                                                                                                                                                                                                           ",
"                                                                                                                                                                                                                                                                           ",
"                                                                                                                                                                                                                                                                           ",
"                                                                                                                                                                                                                                                                           ",
"                                                                                                                                                                                                                                                                           ",
"                                                                                                                                                                                                                                                                           ",
"                                                                                                                                                                                                                                                                           ",
"                                                                                                                                                                                                                                                                           ",
"                                                                                                                                                                                                                                                                           ",
"                                                                                                                                                                                                                                                                           ",
"                                                                                                                                                                                                                                                                           ",
"                                                                                                                                                                                                                                                                           ",
"                                                                                                                                                                                                                                                                           ",
"                                                                                                                                                                                                                                                                           ",
"                                                                                                                                                                                                                                                                           ",
"                                                                                                                                                                                                                                                                           ",
"                                                                                                                                                                                                                                                                           ",
"                                                                                                                                                                                                                                                                           ",
"                                                                                                                                                                                                                                                                           ",
"                                                                                                                                                                                                                                                                           ",
"                                                                                                                                                                                                                                                                           ",
"                                                                                                                                                                                                                                                                           ",
"                                                                                                                                                                                                                                                                           ",
"                                                                                                                                                                                                                                                                           ",
"                                                                                                                                                                                                                                                                           ",
"                                                                                                                                                                                                                                                                           ",
"                                                                                                                                                                                                                                                                           ",
"                                                                                                                                                                                                                                                                           ",
"                                                                                                                                                                                                                                                                           ",
"                                                                                                                                                                                                                                                                           ",
"                                                                                                                                                                                                                                                                           ",
"                                                                                                                                                                                                                                                                           ",
"                                                                                                                                                                                                                                                                           ",
"                                                                                                                                                                                                                                                                           ",
"                                                                                                                                                                                                                                                                           ",
"                                                                                                                                                                                                                                                                           ",
"                                                                                                                                                                                                                                                                           ",
"                                                                                                                                                                                                                                                                           ",
"                                                                                                                                                                                                                                                                           ",
"                                                                                                                                                                                                                                                                           ",
"                                                                                                                                                                                                                                                                           ",
"                                                                                                                                                                                                                                                                           ",
"                                                                                                                                                                                                                                                                           ",
"                                                                                                                                                                                                                                                                           ",
"                                                                                                                                                                                                                                                                           ",
"                                                                                                                                                                                                                                                                           ",
"                                                                                                                                                                                                                                                                           ",
"                                                                                                                                                                                                                                                                           ",
"                                                                                                                                                                                                                                                                           ",
"                                                                                                                                                                                                                                                                           ",
"                                                                                                                                                                                                                                                                           ",
"                                                                                                                                                                                                                                                                           ",
"                                                                                                                                                                                                                                                                           ",
"                                                                                                                                                                                                                                                                           ",
"                                                                                                                                                                                                                                                                           ",
"                                                                                                                                                                                                                                                                           ",
"                                                                                                                                                                                                                                                                           ",
"                                                                                                                                                                                                                                                                           ",
"                                                                                                                                                                                                                                                                           ",
"                                                                                                                                                                                                                                                                           ",
"                                                                                                                                                                                                                                                                           ",
"                                                                                                                                                                                                                                                                           ",
"                                                                                                                                                                                                                                                                           ",
"                                                                                                                                                                                                                                                                           ",
"                                                                                                                                                                                                                                                                           ",
"                                                                                                                                                                                                                                                                           ",
"                                                                                                                                                                                                                                                                           ",
"                                                                                                                                                                                                                                                                           ",
"                                                                                                                                                                                                                                                                           ",
"                                                                                                                                                                                                                                                                           ",
"                                                                                                                                                                                                                                                                           ",
"                                                                                                                                                                                                                                                                           ",
"                                                                                                                                                                                                                                                                           ",
"                                                                                                                                                                                                                                                                           ",
"                                                                                                                                                                                                                                                                           ",
"                                                                                                                                                                                                                                                                           ",
"                                                                                                                                                                                                                                                                           ",
"                                                                                                                                                                                                                                                                           ",
"                                                                                                                                                                                                                                                                           ",
"                                                                                                                                                                                                                                                                           ",
"                                                                                                                                                                                                                                                                           ",
"                                                                                                                                                                                                                                                                           ",
"                                                                                                                                                                                                                                                                           ",
"                                                                                                                                                                                                                                                                           ",
"                                                                                                                                                                                                                                                                           ",
"                                                                                                                                                                                                                                                                           ",
"                                                                                                                                                                                                                                                                           ",
"                                                                                                                                                                                                                                                                           ",
"                                                                                                                                                                                                                                                                           ",
"                                                                                                                                                                                                                                                                           ",
"                                                                                                                                                                                                                                                                           ",
"                                                                                                                                                                                                                                                                           ",
"                                                                                                                                                                                                                                                                           ",
"                                                                                                                                                                                                                                                                           ",
"                                                                                                                                                                                                                                                                           ",
"                                                                                                                                                                                                                                                                           ",
"                                                                                                                                                                                                                                                                           ",
"                                                                                                                                                                                                                                                                           ",
"                                                                                                                                                                                                                                                                           ",
"                                                                                                                                                                                                                                                                           ",
"                                                                                                                                                                                                                                                                           ",
"                                                                                                                                                                                                                                                                           ",
"                                                                                                                                                                                                                                                                           ",
"                                                                                                                                                                                                                                                                           ",
"                                                                                                                                                                                                                                                                           ",
"                                                                                                                                                                                                                                                                           ",
"                                                                                                                                                                                                                                                                           ",
"                                                                                                                                                                                                                                                                           ",
"                                                                                                                                                                                                                                                                           ",
"                                                                                                                                                                                                                                                                           ",
"                                                                                                                                                                                                                                                                           ",
"                                                                                                                                                                                                                                                                           ",
"                                                                                                                                                                                                                                                                           ",
"                                                                                                                                                                                                                                                                           ",
"                                                                                                                                                                                                                                                                           ",
"                                                                                                                                                                                                                                                                           ",
"                                                                                                                                                                                                                                                                           ",
"                                                                                                                                                                                                                                                                           ",
"                                                                                                                                                                                                                                                                           ",
"                                                                                                                                                                                                                                                                           ",
"                                                                                                                                                                                                                                                                           ",
"                                                                                                                                                                                                                                                                           ",
"                                                                                                                                                                                                                                                                           ",
"                                                                                                                                                                                                                                                                           ",
"                                                                                                                                                                                                                                                                           ",
"                                                                                                                                                                                                                                                                           ",
"                                                                                                                                                                                                                                                                           ",
"                                                                                                                                                                                                                                                                           ",
"                                                                                                                                                                                                                                                                           ",
"                                                                                                                                                                                                                                                                           ",
"                                                                                                                                                                                                                                                                           ",
"                                                                                                                                                                                                                                                                           ",
"                                                                                                                                                                                                                                                                           ",
"                                                                                                                                                                                                                                                                           ",
"                                                                                                                                                                                                                                                                           ",
"                                                                                                                                                                                                                                                                           ",
"                                                                                                                                                                                                                                                                           ",
"                                                                                                                                                                                                                                                                           ",
"                                                                                                                                                                                                                                                                           ",
"                                                                                                                                                                                                                                                                           ",
"                                                                                                                                                                                                                                                                           ",
"                                                                                                                                                                                                                                                                           ",
"                                                                                                                                                                                                                                                                           ",
"                                                                                                                                                                                                                                                                           ",
"                                                                                                                                                                                                                                                                           ",
"                                                                                                                                                                                                                                                                           ",
"                                                                                                                                                                                                                                                                           ",
"                                                                                                                                                                                                                                                                           ",
"                                                                                                                                                                                                                                                                           ",
"                                                                                                                                                                                                                                                                           ",
"                                                                                                                                                                                                                                                                           ",
"                                                                                                                                                                                                                                                                           ",
"                                                                                                                                                                                                                                                                           ",
"                                                                                                                                                                                                                                                                           ",
"                                                                                                                                                                                                                                                                           ",
"                                                                                                                                                                                                                                                                           ",
"                                                                                                                                                                                                                                                                           ",
"                                                                                                                                                                                                                                                                           ",
"                                                                                                                                                                                                                                                                           ",
"                                                                                                                                                                                                                                                                           ",
"                                                                                                                                                                                                                                                                           ",
"                                                                                                                                                                                                                                                                           ",
"                                                                                                                                                                                                                                                                           ",
"                                                                                                                                                                                                                                                                           ",
"                                                                                                                                                                                                                                                                           ",
"                                                                                                                                                                                                                                                                           ",
"                                                                                                                                                                                                                                                                           ",
"                                                                                                                                                                                                                                                                           ",
"                                                                                                                                                                                                                                                                           ",
"                                                                                                                                                                                                                                                                           ",
"                                                                                                                                                                                                                                                                           ",
"                                                                                                                                                                                                                                                                           ",
"                                                                                                                                                                                                                                                                           ",
"                                                                                                                                                                                                                                                                           ",
"                                                                                                                                                                                                                                                                           ",
"                                                                                                                                                                                                                                                                           ",
"                                                                                                                                                                                                                                                                           ",
"                                                                                                                                                                                                                                                                           ",
"                                                                                                                                                                                                                                                                           ",
"                                                                                                                                                                                                                                                                           ",
"                                                                                                                                                                                                                                                                           ",
"                                                                                                                                                                                                                                                                           ",
"                                                                                                                                                                                                                                                                           ",
"                                                                                                                                                                                                                                                                           ",
"                                                                                                                                                                                                                                                                           ",
"                                                                                                                                                                                                                                                                           ",
"                                                                                                                                                                                                                                                                           ",
"                                                                                                                                                                                                                                                                           ",
"                                                                                                                                                                                                                                                                           ",
"                                                                                                                                                                                                                                                                           ",
"                                                                                                                                                                                                                                                                           ",
"                                                                                                                                                                                                                                                                           ",
"                                                                                                                                                                                                                                                                           ",
"                                                                                                                                                                                                                                                                           ",
"                                                                                                                                                                                                                                                                           ",
"                                                                                                                                                                                                                                                                           ",
"                                                                                                                                                                                                                                                                           ",
"                                                                                                                                                                                                                                                                           ",
"                                                                                                                                                                                                                                                                           ",
"                                                                                                                                                                                                                                                                           ",
"                                                                                                                                                                                                                                                                           ",
"                                                                                                                                                                                                                                                                           ",
"                                                                                                                                                                                                                                                                           ",
"                                                                                                                                                                                                                                                                           ",
"                                                                                                                                                                                                                                                                           ",
"                                                                                                                                                                                                                                                                           ",
"                                                                                                                                                                                                                                                                           ",
"                                                                                                                                                                                                                                                                           ",
"                                                                                                                                                                                                                                                                           ",
"                                                                                                                                                                                                                                                                           ",
"                                                                                                                                                                                                                                                                           ",
"                                                                                                                                                                                                                                                                           ",
"                                                                                                                                                                                                                                                                           ",
"                                                                                                                                                                                                                                                                           ",
"                                                                                                                                                                                                                                                                           ",
"                                                                                                                                                                                                                                                                           ",
"                                                                                                                                                                                                                                                                           ",
"                                                                                                                                                                                                                                                                           ",
"                                                                                                                                                                                                                                                                           ",
"                                                                                                                                                                                                                                                                           ",
"                                                                                                                                                                                                                                                                           ",
"                                                                                                                                                                                                                                                                           ",
"                                                                                                                                                                                                                                                                           ",
"                                                                                                                                                                                                                                                                           ",
"                                                                                                                                                                                                                                                                           ",
"                                                                                                                                                                                                                                                                           ",
"                                                                                                                                                                                                                                                                           ",
"                                                                                                                                                                                                                                                                           ",
"                                                                                                                                                                                                                                                                           ",
"                                                                                                                                                                                                                                                                           ",
"                                                                                                                                                                                                                                                                           ",
"                                                                                                                                                                                                                                                                           ",
"                                                                                                                                                                                                                                                                           ",
"                                                                                                                                                                                                                                                                           ",
"                                                                                                                                                                                                                                                                           ",
"                                                                                                                                                                                                                                                                           ",
"                                                                                                                                                                                                                                                                           ",
"                                                                                                                                                                                                                                                                           ",
"                                                                                                                                                                                                                                                                           ",
"                                                                                                                                                                                                                                                                           ",
"                                                                                                                                                                                                                                                                           ",
"                                                                                                                                                                                                                                                                           ",
"                                                                                                                                                                                                                                                                           ",
"                                                                                                                                                                                                                                                                           ",
"                                                                                                                                                                                                                                                                           ",
"                                                                                                                                                                                                                                                                           ",
"                                                                                                                                                                                                                                                                           ",
"                                                                                                                                                                                                                                                                           ",
"                                                                                                                                                                                                                                                                           ",
"                                                                                                                                                                                                                                                                           ",
"                                                                                                                                                                                                                                                                           ",
"                                                                                                                                                                                                                                                                           ",
"                                                                                                                                                                                                                                                                           ",
"                                                                                                                                                                                                                                                                           ",
"                                                                                                                                                                                                                                                                           ",
"                                                                                                                                                                                                                                                                           ",
"                                                                                                                                                                                                                                                                           ",
"                                                                                                                                                                                                                                                                           ",
"                                                                                                                                                                                                                                                                           ",
"                                                                                                                                                                                                                                                                           ",
"                                                                                                                                                                                                                                                                           ",
"                                                                                                                                                                                                                                                                           ",
"                                                                                                                                                                                                                                                                           ",
"                                                                                                                                                                                                                                                                           ",
"                                                                                                                                                                                                                                                                           ",
"                                                                                                                                                                                                                                                                           ",
"                                                                                                                                                                                                                                                                           ",
"                                                                                                                                                                                                                                                                           ",
"                                                                                                                                                                                                                                                                           ",
"                                                                                                                                                                                                                                                                           ",
"                                                                                                                                                                                                                                                                           ",
"                                                                                                                                                                                                                                                                           ",
"                                                                                                                                                                                                                                                                           ",
"                                                                                                                                                                                                                                                                           ",
"                                                                                                                                                                                                                                                                           ",
"                                                                                                                                                                                                                                                                           ",
"                                                                                                                                                                                                                                                                           ",
"                                                                                                                                                                                                                                                                           ",
"                                                                                                                                                                                                                                                                           ",
"                                                                                                                                                                                                                                                                           ",
"                                                                                                                                                                                                                                                                           ",
"                                                                                                                                                                                                                                                                           ",
"                                                                                                                                                                                                                                                                           ",
"                                                                                                                                                                                                                                                                           ",
"                                                                                                                                                                                                                                                                           ",
"                                                                                                                                                                                                                                                                           ",
"                                                                                                                                                                                                                                                                           ",
"                                                                                                                                                                                                                                                                           ",
"                                                                                                                                                                                                                                                                           ",
"                                                                                                                                                                                                                                                                           ",
"                                                                                                                                                                                                                                                                           ",
"                                                                                                                                                                                                                                                                           ",
"                                                                                                                                                                                                                                                                           ",
"                                                                                                                                                                                                                                                                           ",
"                                                                                                                                                                                                                                                                           ",
"                                                                                                                                                                                                                                                                           ",
"                                                                                                                                                                                                                                                                           ",
"                                                                                                                                                                                                                                                                           ",
"                                                                                                                                                                                                                                                                           ",
"                                                                                                                                                                                                                                                                           ",
"                                                                                                                                                                                                                                                                           ",
"                                                                                                                                                                                                                                                                           ",
"                                                                                                                                                                                                                                                                           ",
"                                                                                                                                                                                                                                                                           ",
"                                                                                                                                                                                                                                                                           ",
"                                                                                                                                                                                                                                                                           ",
"                                                                                                                                                                                                                                                                           ",
"                                                                                                                                                                                                                                                                           ",
"                                                                                                                                                                                                                                                                           ",
"                                                                                                                                                                                                                                                                           ",
"                                                                                                                                                                                                                                                                           ",
"                                                                                                                                                                                                                                                                           ",
"                                                                                                                                                                                                                                                                           ",
"                                                                                                                                                                                                                                                                           ",
"                                                                                                                                                                                                                                                                           ",
"                                                                                                                                                                                                                                                                           ",
"                                                                                                                                                                                                                                                                           ",
"                                                                                                                                                                                                                                                                           ",
"                                                                                                                                                                                                                                                                           ",
"                                                                                                                                                                                                                                                                           ",
"                                                                                                                                                                                                                                                                           ",
"                                                                                                                                                                                                                                                                           ",
"                                                                                                                                                                                                                                                                           ",
"                                                                                                                                                                                                                                                                           ",
"                                                                                                                                                                                                                                                                           ",
"                                                                                                                                                                                                                                                                           ",
"                                                                                                                                                                                                                                                                           ",
"                                                                                                                                                                                                                                                                           ",
"                                                                                                                                                                                                                                                                           ",
"                                                                                                                                                                                                                                                                           ",
"                                                                                                                                                                                                                                                                           ",
"                                                                                                                                                                                                                                                                           ",
"                                                                                                                                                                                                                                                                           ",
"                                                                                                                                                                                                                                                                           ",
"                                                                                                                                                                                                                                                                           ",
"                                                                                                                                                                                                                                                                           ",
"                                                                                                                                                                                                                                                                           ",
"                                                                                                                                                                                                                                                                           ",
"                                                                                                                                                                                                                                                                           ",
"                                                                                                                                                                                                                                                                           ",
"                                                                                                                                                                                                                                                                           ",
"                                                                                                                                                                                                                                                                           ",
"                                                                                                                                                                                                                                                                           ",
"                                                                                                                                                                                                                                                                           ",
"                                                                                                                                                                                                                                                                           ",
"                                                                                                                                                                                                                                                                           "
};
