/* XPM */
static const char *c1[] = {
/* columns rows colors chars-per-pixel */
"80 240 8 1 ",
"  c black",
". c gray10",
"X c #252525",
"o c #00BFBF",
"O c gray75",
"+ c #FFDAA5",
"@ c white",
"# c None",
/* pixels */
"################################################################################",
"################################################################################",
"################################################################################",
"################################################################################",
"################################################################################",
"################################################################################",
"################################################################################",
"################################################################################",
"################################################################################",
"################################################################################",
"################################################################################",
"################################################################################",
"################################################################################",
"################################################################################",
"################################################################################",
"################################################################################",
"################################################################################",
"################################################################################",
"################################################################################",
"################################################################################",
"################################################################################",
"################################################################################",
"################################################################################",
"################################################################################",
"################################################################################",
"################################################################################",
"################################################################################",
"################################################################################",
"################################################################################",
"################################################################################",
"################################################################################",
"################################################################################",
"#########################  #####################################################",
"#########################   ####### ############################################",
"#########################    #####   ###########################################",
"#####################  ###   #####     #########################################",
"####################          #####     ########################################",
"#####################          ####       ######################################",
"######################          ###        #####################################",
"########################          ##         ###################################",
"##################                             #################################",
"#################                                ###############################",
"#################                                     ##########################",
"#####################                                     ######################",
"#####################                                        ###################",
"#################                                              #################",
"#################                                                ###############",
"################                                                  ##############",
"##############                                                     #############",
"##############                                                      ############",
"###############                                                      ###########",
"################                                                      ##########",
"##################                                                     #########",
"#############                                                          #########",
"##########                                                              ########",
"##########                                                               #######",
"##########                                                               #######",
"############                                                             #######",
"###############                                                           ######",
"#################                                                         ######",
"################                 XX                                       ######",
"##############                XXXXXXX                  XXXXX               #####",
"#############                XX     XX               XXX   XXX             #####",
"############                                         X       X             #####",
"##########                                                                  ####",
"#########                          ++++++++++++++++++++++++++++              ###",
"########                    +++     +++++++++++++++++++     +++++             ##",
"########      #####       ++++        +++++++++++++++        +++++            ##",
"#######     #######      ++++          +++++++++++++          ++++          ####",
"#######   #########    +++++    @@@@    +++++++++++    @@@@    ++++          ###",
"###################    +++++   @@@@@@   +++++++++++   @@@@@@   ++++           ##",
"###################    ++++   @@@@@@@o   +++++++++   @@@@@@oo   +++            #",
"###################    ++++   @@@@@@@o   +++++++++  @@@@@@ooo   ++++           #",
"###################    ++++  @@@@@@@ooo  +++++++++  @@@@@@oooo  ++++       #####",
"###################    +++   @@@@@@@oooo+++++++++++@@@@@@@o@@o   +++        ####",
"###################    +++   @@@@@@@oo@@+++++++++++@@@@@@@o@@o   +++ ++++   ####",
"###################    +++   @@@@@@@o@@@+++++++++++@@@@@@@o@@o   ++++++++   ####",
"###################    +++++@@@@@@@@oo@@+++++++++++@@@@@@@o@@oo+++++++++++  ####",
"###################    +++++@@@@@@@@oooo+++++++++++@@@@@@@o@@oo+++++++++++  ####",
"###################     ++++@@@@@@@@oooo+++++++++++@@@@@@@oooo@+++++++++++  ####",
"###################     +++++@@@@@@@@ooo+++++++++++@@@@@@@oooo++++++++++++  ####",
"###################     +++++@@@@@@@@ooo+++++++++++@@@@@@@@ooo+++++++++++   ####",
"###################     ++++++@@@@@@@@o+++++++++++++@@@@@@@@o++++++++++++   ####",
"###################      ++++++@@@@@@@+++++++++++++++@@@@@@@+++++++++++++   ####",
"##################       +++++++++++++++++++++++++++++++++++++++++++++++    ####",
"##################       ++++++++++++++++++++++++++++++++++++++++++          ###",
"##################        +++++++++++++++++++++++++++++++++++++++++          ###",
"###################       +++++++++++++++++++++++++++++++++++++++++     #    ###",
"#####################      ++++++++++++++++++++++++++++++++++++++++   #####  ###",
"####################   #   +++++++++++++++++++++++++++++++++++++++   ###########",
"#####################  ##   ++++++++++++++++++++++++++++++++++++++   ###########",
"#########################    +++++++++++++++    +++++++++++++++++   ############",
"##########################    +++++++++++++  ++   ++++++++++++++   #############",
"###########################    ++++++++++++++++++++++++++++++++    #############",
"############################    +++++++++++++++++++++++++++++     ##############",
"#############################    +++++++++++++++++++++++++++     ###############",
"##############################     +++++++++++++++++++++++     #################",
"###############################      +++++++++++++++++++      ##################",
"#################################      +++++++++++++++      ####################",
"###################################         ++++          ######################",
"#####################################                   ########################",
"########################################             ###########################",
"##########################################   +++++  ############################",
"##########################################   +++++  ############################",
"#####################################                    #######################",
"#####################################                    #######################",
"###############################                  +                    ##########",
"############################                                             #######",
"##########################             XXX          XX                    ######",
"#########################     @@@@@@        OOOO          @@@@     ....   ######",
"#########################   @@@@@@@@@       OOOO        @@@@@@@@    ..   #######",
"#########################  @@@@@@@@@@@@     OOOO      @@@@@@@@@@@    .   #######",
"########################   @@@@@@@@@@@@@@@   OOO   @@@@@@@@@@@@@@@      ########",
"########################   @@@@@@@@@@@@@@@         @@@@@@@@@@@@@@@      ########",
"########################   @@@@@@@@@@@@@@@         @@@@@@@@@@@@@@@@      #######",
"########################   @@@@@@@@@@@@@@@ @@@ @@  @@@@@@@@@@@@@@@@      #######",
"########################  @@@@@@@@@@@@@@@@ @@@@@@  @@@@@@@@@@@@@@@@@    ########",
"########################  @@@@@@@@@@@@@@@@ @@@@@@  @@@@@@@@@@@@@@@@@@   ########",
"#######################   @@@@@@@@@@@@@@@@ @@@@@@  @@@@@@@@@@@@@@@@@    ########",
"#######################   @@@@@@@@@@@@@@@@ @@@@@@  @@@@@@@@@@@@@@@       #######",
"#######################   @@@@@@   @@@@@@@@@@@@@@  @@@@@@@@   @@@    ..   ######",
"#######################       @@   @@@@@@@@@@@@@@  @@@@@@@@   @     ...   ######",
"####################               @@@@@@@@@@@@@@  @@@@@@@@        .....   #####",
"####################               @@@@@@@@@@@@@@@@@@@@@@@@      .......   #####",
"###################                @@@@@@@@@@@@@@@@@@@@@@@@     .........   ####",
"###################   +++++    .   @@@@@@@@@@@@@@@@@@@@@@@@      .........   ###",
"###################   +        .   @@@@@@@@@@@@@@@@@@@@@@@@      .........   ###",
"###################   +        .   @@@@@@@@@@@@@@@@@@@@@@@@   #   .........   ##",
"###################   +        .   @@@@@@@@@@@@@@@@@@@@@@@@   #   .........    #",
"###################   ++++++   .   @@@@@@@@@@@@@@@@@@@@@@@@   ##   . .......   #",
"###################   ++++++   .   @@@@@@@@@@@@@@@@@@@@@@@@   ###     .......  #",
"###################   ++++++   .   @@@@@@@@@@@@@@@@@@@@@@@@   ###     .......   ",
"###################   ++++++   .   @@@@@@@@@@@@@@@@@@@@@@@@   ####   ........   ",
"###################   ++++++   .   @@@@@@@@@@@@@@@@@@@  @@@   ###   .........   ",
"###################            .   @@   @@@@@@@@@@@@@    @@   ##    .........   ",
"####################          .    @     @@@@@@@@@@@     @@   ##   ..........   ",
"#####################     ....     @      @@@@@@@@       @@   #   ..........   #",
"######################             @        @@           @@       .........    #",
"########################              ...           ...   @      ..........   ##",
"################################      ....         ....   @     ..........   ###",
"################################     ..................         .........    ###",
"################################     ...................       ..........   ####",
"################################    .....................     ..........   #####",
"################################   .......................    .........    #####",
"################################   .......................   ..........   ######",
"################################   ......................   ..........   #######",
"################################   .....................   ..........   ########",
"################################   .....................   .........    ########",
"###############################   .....................   ..........   #########",
"###############################   ....................   ..........   ##########",
"################################  ....................     .......    ##########",
"################################       ..............       ......   ###########",
"################################                        +     ...   ############",
"################################                       ++      ...  ############",
"################################   .......            ++             ###########",
"################################   ................         +        ###########",
"################################   .................        ++     #############",
"################################  ...................   ..  ++   ###############",
"################################  .................... ...  ++   ###############",
"################################  ........................  ++   ###############",
"################################  .........      .........  ++   ###############",
"################################  .........       ........       ###############",
"###############################   .........       ........       ###############",
"###############################   ..........      ........       ###############",
"###############################   ..........      ........       ###############",
"###############################   ..........      ........      ################",
"###############################   ..........      ..........   #################",
"###############################   ..........      ..........   #################",
"###############################   ..........      ..........   #################",
"###############################   ..........      ..........   #################",
"###############################   ..........  ##  ..........   #################",
"###############################   ..........  ##  ..........   #################",
"###############################   ..........  ##  ..........   #################",
"###############################  ...........  ##  ..........   #################",
"###############################  ...........  ##  ..........   #################",
"###############################  ...........  ##   .........   #################",
"###############################  ...........  ##   ..........  #################",
"###############################  ..........   ##   ..........  #################",
"##############################   ..........   ##   ..........  #################",
"##############################   ..........   ##   ..........  #################",
"##############################   ..........   ##   ..........  #################",
"##############################   ..........   ##   ..........  #################",
"##############################   ..........   ##   ..........   ################",
"##############################   ..........   ##   ..........   ################",
"##############################   ..........   ##   ..........   ################",
"##############################   ..........   ###  ..........   ################",
"##############################   ..........   ###  ..........   ################",
"##############################   ..........   ###  ..........   ################",
"##############################   ..........   ###  ..........   ################",
"##############################  ...........   ###  ..........   ################",
"##############################  ...........   ###   .........   ################",
"##############################  ...........  ####   .........   ################",
"##############################  ...........  ####   ..........  ################",
"##############################  ...........  ####   ..........  ################",
"#############################   ...........  ####   ..........  ################",
"#############################   ...........  ####   ..........  ################",
"#############################   ...........  ####   ..........  ################",
"#############################   ...........  ####   ..........  ################",
"#############################   ..........   ####   ..........   ###############",
"#############################   ..........   ####   ..........   ###############",
"#############################   ..........   #####  ..........   ###############",
"#############################   ..........   #####  ..........   ###############",
"#############################   ..........   #####  ..........   ###############",
"#############################   ..........   #####  ..........   ###############",
"#############################   ..........   #####  ..........   ###############",
"#############################  ...........   #####   .........   ###############",
"#############################  ...........   #####   .........   ###############",
"#############################  ...........   #####   .........   ###############",
"#############################  ...........   #####   ..........  ###############",
"#############################  ...........   #####   ..........  ###############",
"############################   ...........   #####   ..........  ###############",
"############################   ...........   #####   ..........  ###############",
"############################   ...........  ######   ..........  ###############",
"############################   ...........  ######   ..........  ###############",
"############################   ...........  ######   ..........   ##############",
"############################   ...........  ######   ..........   ##############",
"############################   ...........  #######  ..........   ##############",
"############################   ...........  #######  ..........   ##############",
"############################   ...........  #######  ..........   ##############",
"############################   ..........   #######  ..........   ##############",
"############################   ..........   #######  ..........   ##############",
"############################  ...........   #######   .........   ##############",
"############################  ...........   #######   .........   ##############",
"############################  ...........   #######   .........   ##############",
"############################  .........      #####     .........  ##############",
"############################  .....         #######      .......  ##############",
"#########################                   #######                 ############",
"#######################                     #######                   ##########",
"#####################                       #######                    #########",
"####################                        #######                     ########",
"###################                         #######                      #######",
"###################                         #######                       ######",
"##################                          #######                       ######",
"##################                          #######                       ######",
"##################                          #######                        #####",
"##################                .......   #######   ......               #####",
"##################  ..............          #######         ............   #####",
"#################                           #######                        #####",
"#################                           #######                        #####",
"################################################################################"
};
