/* XPM */
static const char *c2[] = {
/* columns rows colors chars-per-pixel */
"80 240 10 1 ",
"  c black",
". c gray10",
"X c #3E3226",
"o c gray20",
"O c gray25",
"+ c #00BFBF",
"@ c #D9C3B8",
"# c #F4F4F4",
"$ c white",
"% c None",
/* pixels */
"%%%%%%%%%%%%%%%%%%%%%%%%%%%%%%%%%%%%%%%%%%%%%%%%%%%%%%%%%%%%%%%%%%%%%%%%%%%%%%%%",
"%%%%%%%%%%%%%%%%%%%%%%%%%%%%%%%%%%%%%%%%%%%%%%%%%%%%%%%%%%%%%%%%%%%%%%%%%%%%%%%%",
"%%%%%%%%%%%%%%%%%%%%%%%%%%%%%%%%%%%%%%%%%%%%%%%%%%%%%%%%%%%%%%%%%%%%%%%%%%%%%%%%",
"%%%%%%%%%%%%%%%%%%%%%%%%%%%%%%%%%%%%%%%%%%%%%%%%%%%%%%%%%%%%%%%%%%%%%%%%%%%%%%%%",
"%%%%%%%%%%%%%%%%%%%%%%%%%%%%%%%%%%%%%%%%%%%%%%%%%%%%%%%%%%%%%%%%%%%%%%%%%%%%%%%%",
"%%%%%%%%%%%%%%%%%%%%%%%%%%%%%%%%%%%%%%%%%%%%%%%%%%%%%%%%%%%%%%%%%%%%%%%%%%%%%%%%",
"%%%%%%%%%%%%%%%%%%%%%%%%%%%%%%%%%%%%%%%%%%%%%%%%%%%%%%%%%%%%%%%%%%%%%%%%%%%%%%%%",
"%%%%%%%%%%%%%%%%%%%%%%%%%%%%%%%%%%%%%%%%%%%%%%%%%%%%%%%%%%%%%%%%%%%%%%%%%%%%%%%%",
"%%%%%%%%%%%%%%%%%%%%%%%%%%%%%%%%%%%%%%%%%%%%%%%%%%%%%%%%%%%%%%%%%%%%%%%%%%%%%%%%",
"%%%%%%%%%%%%%%%%%%%%%%%%%%%%%%%%%%%%%%%%%%%%%%%%%%%%%%%%%%%%%%%%%%%%%%%%%%%%%%%%",
"%%%%%%%%%%%%%%%%%%%%%%%%%%%%%%%%%%%%%%%%%%%%%%%%%%%%%%%%%%%%%%%%%%%%%%%%%%%%%%%%",
"%%%%%%%%%%%%%%%%%%%%%%%%%%%%%%%%%%%%%%%%%%%%%%%%%%%%%%%%%%%%%%%%%%%%%%%%%%%%%%%%",
"%%%%%%%%%%%%%%%%%%%%%%%%%%%%%%%%%%%%%%%%%%%%%%%%%%%%%%%%%%%%%%%%%%%%%%%%%%%%%%%%",
"%%%%%%%%%%%%%%%%%%%%%%%%%%%%%%%%%%%%%%%%%%%%%%%%%%%%%%%%%%%%%%%%%%%%%%%%%%%%%%%%",
"%%%%%%%%%%%%%%%%%%%%%%%%%%%%%%%%%%%%%%%%%%%%%%%%%%%%%%%%%%%%%%%%%%%%%%%%%%%%%%%%",
"%%%%%%%%%%%%%%%%%%%%%%%%%%%%%%%%%%%%%%%%%%%%%%%%%%%%%%%%%%%%%%%%%%%%%%%%%%%%%%%%",
"%%%%%%%%%%%%%%%%%%%%%%%%%%%%%%%%%%%%%%%%%%%%%%%%%%%%%%%%%%%%%%%%%%%%%%%%%%%%%%%%",
"%%%%%%%%%%%%%%%%%%%%%%%%%%%%%%%%%%%%%%%%%%%%%%%%%%%%%%%%%%%%%%%%%%%%%%%%%%%%%%%%",
"%%%%%%%%%%%%%%%%%%%%%%%%%%%%%%%%%%%%%%%%%%%%%%%%%%%%%%%%%%%%%%%%%%%%%%%%%%%%%%%%",
"%%%%%%%%%%%%%%%%%%%%%%%%%%%%%%%%%%%%%%%%%%%%%%%%%%%%%%%%%%%%%%%%%%%%%%%%%%%%%%%%",
"%%%%%%%%%%%%%%%%%%%%%%%%%%%%%%%%%%%%%%%%%%%%%%%%%%%%%%%%%%%%%%%%%%%%%%%%%%%%%%%%",
"%%%%%%%%%%%%%%%%%%%%%%%%%%%%%%%%%%%%%%%%%%%%%%%%%%%%%%%%%%%%%%%%%%%%%%%%%%%%%%%%",
"%%%%%%%%%%%%%%%%%%%%%%%%%%%%%%%%%%%%%%%%%%%%%%%%%%%%%%%%%%%%%%%%%%%%%%%%%%%%%%%%",
"%%%%%%%%%%%%%%%%%%%%%%%%%%%%%%%%%%%%%%%%%%%%%%%%%%%%%%%%%%%%%%%%%%%%%%%%%%%%%%%%",
"%%%%%%%%%%%%%%%%%%%%%%%%%%%%%%%%%%%%%%%%%%%%%%%%%%%%%%%%%%%%%%%%%%%%%%%%%%%%%%%%",
"%%%%%%%%%%%%%%%%%%%%%%%%%%%%%%%%%%%%%%%%%%%%%%%%%%%%%%%%%%%%%%%%%%%%%%%%%%%%%%%%",
"%%%%%%%%%%%%%%%%%%%%%%%%%%%%%%%%%%%%%%%%%%%%%%%%%%%%%%%%%%%%%%%%%%%%%%%%%%%%%%%%",
"%%%%%%%%%%%%%%%%%%%%%%%%%%%%%%%%%%%%%%%%%%%%%%%%%%%%%%%%%%%%%%%%%%%%%%%%%%%%%%%%",
"%%%%%%%%%%%%%%%%%%%%%%%%%%%%%%%%%%%%%%%%%%%%%%%%%%%%%%%%%%%%%%%%%%%%%%%%%%%%%%%%",
"%%%%%%%%%%%%%%%%%%%%%%%%%%%%%%%%%%%%%%%%%%%%%%%%%%%%%%%%%%%%%%%%%%%%%%%%%%%%%%%%",
"%%%%%%%%%%%%%%%%%%%%%%%%%%%%%%%%%%%%%%%%%%%%%%%%%%%%%%%%%%%%%%%%%%%%%%%%%%%%%%%%",
"%%%%%%%%%%%%%%%%%%%%%%%%%%%%%%%%%%%%%%%%%%%%%%%%%%%%%%%%%%%%%%%%%%%%%%%%%%%%%%%%",
"%%%%%%%%%%%%%%%%%%%%%%%%%%%%%%%%%%%%%%%%%%%%%%%%%%%%%%%%%%%%%%%%%%%%%%%%%%%%%%%%",
"%%%%%%%%%%%%%%%%%%%%%%%%%%%%%%%%%%%%%%%%%%%%%%%%%%%%%%%%%%%%%%%%%%%%%%%%%%%%%%%%",
"%%%%%%%%%%%%%%%%%%%%%%%%%%%%%%%%%%%%%%%%%%%%%%%%%%%%%%%%%%%%%%%%%%%%%%%%%%%%%%%%",
"%%%%%%%%%%%%%%%%%%%%%%%%%%%%%%%%%%%%%%%%%%%%%%%%%%%%%%%%%%%%%%%%%%%%%%%%%%%%%%%%",
"%%%%%%%%%%%%%%%%%%%%%%%%%%%%%%%%%%%%%%%%%%%%%%%%%%%%%%%%%%%%%%%%%%%%%%%%%%%%%%%%",
"%%%%%%%%%%%%%%%%%%%%%%%%%%%%%%%%%%%%%%%%%%%%%%%%%%%%%%%%%%%%%%%%%%%%%%%%%%%%%%%%",
"%%%%%%%%%%%%%%%%%%%%%%%%%%%%%%%%%%%%%%%%%%%%%%%%%%%%%%%%%%%%%%%%%%%%%%%%%%%%%%%%",
"%%%%%%%%%%%%%%%%%%%%%%%%%%%%%%%%%%%        %%%%%%%%%%%%%%%%%%%%%%%%%%%%%%%%%%%%%",
"%%%%%%%%%%%%%%%%%%%%%%%%%%%                       %%%%%%%%%%%%%%%%%%%%%%%%%%%%%%",
"%%%%%%%%%%%%%%%%%%%%%%%%                              %%%%%%%%%%%%%%%%%%%%%%%%%%",
"%%%%%%%%%%%%%%%%%%%%%%%         XXXXXXXXXXXXXX           %%%%%%%%%%%%%%%%%%%%%%%",
"%%%%%%%%%%%%%%%%%%%%%%%%   XXXXXXXXXXXXXXXXXXXXXXXX         %%%%%%%%%%%%%%%%%%%%",
"%%%%%%%%%%%%%%%%%%%%%%%%%   XXXXXXXXXXXXXXXXXXXXXXXXXXX       %%%%%%%%%%%%%%%%%%",
"%%%%%%%%%%%%%%%%%%%%        XXXXXXXXXXXXXXXXXXXXXXXXXXXXXX      %%%%%%%%%%%%%%%%",
"%%%%%%%%%%%%%%%%            XXXXXXXXXXXXXXXXXXXXXXXXXXXXXXXX      %%%%%%%%%%%%%%",
"%%%%%%%%%%%%%           XXXXXXXXXXXXXXXXXXXXXXXXXXXXXXXXXXXXXX     %%%%%%%%%%%%%",
"%%%%%%%%%%%%%      XXXXXXXXXXXXXXXXXXXXXXXXXXXXXXXXXXXXXXXXXXXXX     %%%%%%%%%%%",
"%%%%%%%%%%%%%%      XXXXXXXXXXXXXXXXXXXXXXXXXXXXXXXXXXXXXXXXXXXXXX   %%%%%%%%%%%",
"%%%%%%%%%%%%%%%%    XXXXXXXXXXXXXXXXXXXXXXXXXXXXXXXXXXXXXXXXXXXXXXX   %%%%%%%%%%",
"%%%%%%%%%%%%%%%%   XXXXXXXXXXXXXXXXXX   XXXXXXXXXXXXXXXXXXXXXXXXXXX   %%%%%%%%%%",
"%%%%%%%%%%%%%%%%   XXXXXXXXXXXXXXXXXX   XXXXXXXXXXXXXXXXXXXXXXXXXXXX   %%%%%%%%%",
"%%%%%%%%%%%%%%%%   XXXXXXXXXXXXXXXXXX   XXXXXXXXXXXXXXXXXXXXXXXXXXXX   %%%%%%%%%",
"%%%%%%%%%%%%%%%   XXXX  XXXXXXXXXXXXX   XXXXXXX XXXXXXXXXXXXXXXXXXXXX   %%%%%%%%",
"%%%%%%%%%%%%%%%   XXXX  XXXXXXXXXXXXX   XXXXXX   XXXXX  XXXXXXXXXXXXX   %%%%%%%%",
"%%%%%%%%%%%%%%%   XXX   XXXXXXXXXXXX    XXXXXX    XXXX   XXXXXX XXXXXX   %%%%%%%",
"%%%%%%%%%%%%%%%  XXXX   XXXXXXXXXXXX    XXXXXX    XXXX   XXXXX   XXXXX   %%%%%%%",
"%%%%%%%%%%%%%%   XXXX   XXXXXXXXXXXX    XXXXXX     XXXX   XXXX   XXXXXX  %%%%%%%",
"%%%%%%%%%%%%%%   XXXX   XXXXXXXXXXXX    XXXXXX     XXXX   XXXX    XXXXX   %%%%%%",
"%%%%%%%%%%%%%%   XXX    XXXXXXXXXXXX     XXXXX      XXXX   XXX    XXXXX   %%%%%%",
"%%%%%%%%%%%%%%  XXXX   XXXXXXXXXXXXX     XXXXX       XXX   XX     XXXXXX  %%%%%%",
"%%%%%%%%%%%%%   XXXX   XXXXX     XXX     XX XX  @@                XXXXXX  %%%%%%",
"%%%%%%%%%%%%%   XXXX   XXX                      @@@               XXXXXX   %%%%%",
"%%%%%%%%%%%%%   XXXX    X  XXXXXXX              @@@@@             XXXXXX   %%%%%",
"%%%%%%%%%%%%%   XXXX                  @@        @@       @        XXXXXX   %%%%%",
"%%%%%%%%%%%%%  XXXXX             @@@@@@@           XXXXX  @@@@    XXXXXX   %%%%%",
"%%%%%%%%%%%%%  XXXX        @@@@@@@@@@@@@@        XXXXXX  @@@@@    XXXXXXX  %%%%%",
"%%%%%%%%%%%%   XXXX       @@@@@@@@@@@@@@@@  @@@@        @@@@@@   XXXXXXXX   %%%%",
"%%%%%%%%%%%%   XXXX      @@@@@@@@@@@@@@@@@@@@@@@@@  @@@@@@@@@@   XXXXXXX     %%%",
"%%%%%%%%%%%%   XXXX     @@@@  @@@@@@@@@@@@@@@@@@@@@   @@@@@@@@   XXXXXXX     %%%",
"%%%%%%%%%%%%  XXXXX                   @@@@@                 @@   XXXXXXX      %%",
"%%%%%%%%%%%%  XXXXX                   @@@@@                 @@   XXXXXXX  XX   %",
"%%%%%%%%%%%      XX         ####+#    @@@@@       ###+##         XXXXXXX  XX    ",
"%%%%%%%%%%%      XX      ######++###  @@@@@   ######++###+       XXXXXX   XXX   ",
"%%%%%%%%%%%      XX    @#######++###         @######++###+   @   XXXXXX   XXX   ",
"%%%%%%%%%%%      XX    @#######++###         @######++###+  @@   XXXXXX   XX   %",
"%%%%%%%%%%%            @@######++###  @@@@@  @#######+###+  @@   XXXXXX   XX   %",
"%%%%%%%%%%%%%%%        @@#######+##+  @@@@@  @#######+###+  @@   XXXXXX   XX   %",
"%%%%%%%%%%%%%%%        @@@######++++  @@@@@  @@######+++++  @@   XXXXXX   X   %%",
"%%%%%%%%%%%%%%%        @@@@######+@@  @@@@@  @@@######++@@  @@   XXXXXX   X   %%",
"%%%%%%%%%%%%%%%                       @@@@@                 @@  XXXXXXX   X  %%%",
"%%%%%%%%%%%%%%%                       @@@@@@                @@  XXXXXXX      %%%",
"%%%%%%%%%%%%%%%%  XX   @@@@@@@@@@@@@@@@@@@@@@@@@@@@@@@@@@@@@@@  XXXXXXX      %%%",
"%%%%%%%%%%%%%%%%  XX    @@@@@@@@@@@@@@@@@@@@@@@@@@@@@@@@@@@@@   XXXXXXX     %%%%",
"%%%%%%%%%%%%%%%%        @@@@@@@@@@@@@@@@@@@@@@@@@@@@@@@@@@@@@   XXXXXXX     %%%%",
"%%%%%%%%%%%%%%%%         @@@@@@@@@@@@@@@@@@@@@ @@@@@@@@@@@@@@   XXXXXXX     %%%%",
"%%%%%%%%%%%%%%%%          @@@@@@@@@@@@@@@@@@   @@@@@@@@@@@@@@   XXXXXXX    %%%%%",
"%%%%%%%%%%%%%%%%           @@@@@@@@@@@         @@@@@@@@@@@@@    XXXXXXX    %%%%%",
"%%%%%%%%%%%%%%%%%  XX  %    @@@@@@@@@@@@@@@@@@@@@@@@@@@@@@@     XXXXXXX   %%%%%%",
"%%%%%%%%%%%%%%%%%      %%     @@@@@@@@@@@@@@@@@@@@@@@@@@@      XXXXXXXX   %%%%%%",
"%%%%%%%%%%%%%%%%%       %%%    @@@@@@@@@@@@@@@@@@@@@@@@@       XXXXX      %%%%%%",
"%%%%%%%%%%%%%%%%%       %%%      @@@@@@@@@@@@@@@@@@@@      %   XXX        %%%%%%",
"%%%%%%%%%%%%%%%%%       %           @@@@@@@@@@@@@@        %%   XX         %%%%%%",
"%%%%%%%%%%%%%%%%%%                                      %%%%        %%     %%%%%",
"%%%%%%%%%%%%%%%%%%         @                           %%%%%       %%%%    %%%%%",
"%%%%%%%%%%%%%%%%%%         @   @@@@                     %%%%     %%%%%%    %%%%%",
"%%%%%%%%%%%%%%%%%%% %      @   @@@@      @@@@@           %%    %%%%%%%%%   %%%%%",
"%%%%%%%%%%%%%%%%%%%%%     @@  @@@@       @@@@@        .  %%%  %%%%%%%%%%%%%%%%%%",
"%%%%%%%%%%%%%%%%%%%%%     @@  @@@@   o   @@@@   .        %%%%%%%%%%%%%%%%%%%%%%%",
"%%%%%%%%%%%%%%%%%%%%%   @@@@@@@@@@   oo        .         %%%%%%%%%%%%%%%%%%%%%%%",
"%%%%%%%%%%%%%%%%%%%%%   @@@@@@@@@@   oo           ...    %%%%%%%%%%%%%%%%%%%%%%%",
"%%%%%%%%%%%%%%%%%%%%        @@@@@    oooo         ...     %%%%%%%%%%%%%%%%%%%%%%",
"%%%%%%%%%%%%%%%%%%%%                 oooo        .....       %%%%%%%%%%%%%%%%%%%",
"%%%%%%%%%%%%%%%%%%%%   oo             oo        .......       %%%%%%%%%%%%%%%%%%",
"%%%%%%%%%%%%%%%%%%%%   oooooo                  .......   oo    %%%%%%%%%%%%%%%%%",
"%%%%%%%%%%%%%%%%%%%%   oooooooooo         .   .......   oooo    %%%%%%%%%%%%%%%%",
"%%%%%%%%%%%%%%%%%%%%     oooooooo  ooo         .....    ooooo   %%%%%%%%%%%%%%%%",
"%%%%%%%%%%%%%%%%%%%%         ooo   ooooo       ....    ooooooo   %%%%%%%%%%%%%%%",
"%%%%%%%%%%%%%%%%%%%%%              oooooo   .   ..    oooooooo   %%%%%%%%%%%%%%%",
"%%%%%%%%%%%%%%%%%%%%%  ooo         ooooooo   .       oooooooooo   %%%%%%%%%%%%%%",
"%%%%%%%%%%%%%%%%%%%%   oooooooo    oooooooo         ooooooooooo    %%%%%%%%%%%%%",
"%%%%%%%%%%%%%%%%%%%%   oooooooo  oooooooooo        ooooooooooooo   %%%%%%%%%%%%%",
"%%%%%%%%%%%%%%%%%%%%   ooooooo   ooooooooooo      ooooooooooooooo   %%%%%%%%%%%%",
"%%%%%%%%%%%%%%%%%%%%   ooooooo   oooooooooooooooooooo  oooooooooo   %%%%%%%%%%%%",
"%%%%%%%%%%%%%%%%%%%%  oooooooo   oooooooooooooooooooo   oooooooooo   %%%%%%%%%%%",
"%%%%%%%%%%%%%%%%%%%%  oooooooo   oo$$$$oooooooooooooo   oooooooooo   %%%%%%%%%%%",
"%%%%%%%%%%%%%%%%%%%   oooooooo  oo$$OO$$oooooooooooooo   oooooooooo   %%%%%%%%%%",
"%%%%%%%%%%%%%%%%%%%   oooooooo  o$$OOOO$$ooooooooooooo   oooooooooo   %%%%%%%%%%",
"%%%%%%%%%%%%%%%%%%%   ooooooo   o$OOOOOO$ooooooooooooo    oooooooooo   %%%%%%%%%",
"%%%%%%%%%%%%%%%%%%%   ooooooo   o$O$$$$O$$oooooooooooo     oooooooooo   %%%%%%%%",
"%%%%%%%%%%%%%%%%%%%  oooooooo   o$O$$$$$$$oooooooooooo     oooooooooo   %%%%%%%%",
"%%%%%%%%%%%%%%%%%%%  oooooooo   o$$$$$$$$ooooooooooooo      oooooooooo   %%%%%%%",
"%%%%%%%%%%%%%%%%%%   oooooooo  ooo$$$$$$$ooooooooooooo      oooooooooo   %%%%%%%",
"%%%%%%%%%%%%%%%%%%   ooooooo   oooo$$$$ooooooooooooooo   %   oooooooooo   %%%%%%",
"%%%%%%%%%%%%%%%%%%   ooooooo   ooooooooooooooooooooooo   %   oooooooooo   %%%%%%",
"%%%%%%%%%%%%%%%%%%   ooooooo   ooooooooooooooooooooooo   %%   oooooooooo   %%%%%",
"%%%%%%%%%%%%%%%%%%  oooooooo   ooooooooooooooooooooooo   %%   o  oooooooo  %%%%%",
"%%%%%%%%%%%%%%%%%%  oooooooo   ooooooooooooooooooooooo   %%%  o  oooooooo   %%%%",
"%%%%%%%%%%%%%%%%%%   ooooooo   ooooooooooooooooooooooo   %%%     oooooooo   %%%%",
"%%%%%%%%%%%%%%%%%%     oooo    ooooooooooooooooooooooo   %%%    ooooooooo   %%%%",
"%%%%%%%%%%%%%%%%%%%            ooooooooooooooooooooooo   %%%   oooooooooo   %%%%",
"%%%%%%%%%%%%%%%%%%%%%          ooooooooooooooooooooooo   %%    oooooooooo   %%%%",
"%%%%%%%%%%%%%%%%%%%%%%%%   %%  ooooooooooooooooooooooo   %    oooooooooo   %%%%%",
"%%%%%%%%%%%%%%%%%%%%%%%%%%%%%  ooooooooooooooooooooooo       oooooooooo    %%%%%",
"%%%%%%%%%%%%%%%%%%%%%%%%%%%%%  ooooooooooooooooooooooo      oooooooooo    %%%%%%",
"%%%%%%%%%%%%%%%%%%%%%%%%%%%%%  ooooooooooooooooooooooo     oooooooooo    %%%%%%%",
"%%%%%%%%%%%%%%%%%%%%%%%%%%%%%  ooooooooooooooooooooooo    oooooooooo    %%%%%%%%",
"%%%%%%%%%%%%%%%%%%%%%%%%%%%%%  ooooooooooooooooooooooo   oooooooooo    %%%%%%%%%",
"%%%%%%%%%%%%%%%%%%%%%%%%%%%%%  oooooooooooooooooooooo    oooooooooo   %%%%%%%%%%",
"%%%%%%%%%%%%%%%%%%%%%%%%%%%%%  ooooooooooooooooooooo    oooooooooo   %%%%%%%%%%%",
"%%%%%%%%%%%%%%%%%%%%%%%%%%%%   ooooooooooooooooooo     oooooooooo   %%%%%%%%%%%%",
"%%%%%%%%%%%%%%%%%%%%%%%%%%%%   oooooooooooooooooo     oooooooooo    %%%%%%%%%%%%",
"%%%%%%%%%%%%%%%%%%%%%%%%%%%%  oooooooooooooooooo       oooooooo    %%%%%%%%%%%%%",
"%%%%%%%%%%%%%%%%%%%%%%%%%%%   ooooooooooooooooo         oooooo    %%%%%%%%%%%%%%",
"%%%%%%%%%%%%%%%%%%%%%%%%%%%   ooooooooooooooooo    oo    oooo    %%%%%%%%%%%%%%%",
"%%%%%%%%%%%%%%%%%%%%%%%%%%%   ooooooooooooooooo     ooo   ooo   %%%%%%%%%%%%%%%%",
"%%%%%%%%%%%%%%%%%%%%%%%%%%%%    oooooooooooooo       ooo   o   %%%%%%%%%%%%%%%%%",
"%%%%%%%%%%%%%%%%%%%%%%%%%%%%%                    @    ooo     %%%%%%%%%%%%%%%%%%",
"%%%%%%%%%%%%%%%%%%%%%%%%%%%%%                   @@     ooo    %%%%%%%%%%%%%%%%%%",
"%%%%%%%%%%%%%%%%%%%%%%%%%%%%%  ...                      ooo   %%%%%%%%%%%%%%%%%%",
"%%%%%%%%%%%%%%%%%%%%%%%%%%%%%  ..............            oo   %%%%%%%%%%%%%%%%%%",
"%%%%%%%%%%%%%%%%%%%%%%%%%%%%%  ...............               %%%%%%%%%%%%%%%%%%%",
"%%%%%%%%%%%%%%%%%%%%%%%%%%%%%  ................       @      %%%%%%%%%%%%%%%%%%%",
"%%%%%%%%%%%%%%%%%%%%%%%%%%%%%  ....................   @@    %%%%%%%%%%%%%%%%%%%%",
"%%%%%%%%%%%%%%%%%%%%%%%%%%%%%  ....................   @@    %%%%%%%%%%%%%%%%%%%%",
"%%%%%%%%%%%%%%%%%%%%%%%%%%%%%  ....................   @@   %%%%%%%%%%%%%%%%%%%%%",
"%%%%%%%%%%%%%%%%%%%%%%%%%%%%%  .........     ......   @@   %%%%%%%%%%%%%%%%%%%%%",
"%%%%%%%%%%%%%%%%%%%%%%%%%%%%%  .........     ......   @@   %%%%%%%%%%%%%%%%%%%%%",
"%%%%%%%%%%%%%%%%%%%%%%%%%%%%%  ...........   ......   @@   %%%%%%%%%%%%%%%%%%%%%",
"%%%%%%%%%%%%%%%%%%%%%%%%%%%%%  ...........   ......   @@   %%%%%%%%%%%%%%%%%%%%%",
"%%%%%%%%%%%%%%%%%%%%%%%%%%%%%  ..........    ......        %%%%%%%%%%%%%%%%%%%%%",
"%%%%%%%%%%%%%%%%%%%%%%%%%%%%   ..........    .......       %%%%%%%%%%%%%%%%%%%%%",
"%%%%%%%%%%%%%%%%%%%%%%%%%%%%   ..........    ........     %%%%%%%%%%%%%%%%%%%%%%",
"%%%%%%%%%%%%%%%%%%%%%%%%%%%%   ..........    ..........   %%%%%%%%%%%%%%%%%%%%%%",
"%%%%%%%%%%%%%%%%%%%%%%%%%%%%   ..........    ..........   %%%%%%%%%%%%%%%%%%%%%%",
"%%%%%%%%%%%%%%%%%%%%%%%%%%%%   ..........    ..........   %%%%%%%%%%%%%%%%%%%%%%",
"%%%%%%%%%%%%%%%%%%%%%%%%%%%%   ..........    ..........   %%%%%%%%%%%%%%%%%%%%%%",
"%%%%%%%%%%%%%%%%%%%%%%%%%%%%   ..........    ..........   %%%%%%%%%%%%%%%%%%%%%%",
"%%%%%%%%%%%%%%%%%%%%%%%%%%%%   ..........    ..........   %%%%%%%%%%%%%%%%%%%%%%",
"%%%%%%%%%%%%%%%%%%%%%%%%%%%%   ..........    ..........   %%%%%%%%%%%%%%%%%%%%%%",
"%%%%%%%%%%%%%%%%%%%%%%%%%%%%   ..........    ..........   %%%%%%%%%%%%%%%%%%%%%%",
"%%%%%%%%%%%%%%%%%%%%%%%%%%%%   ..........    ..........   %%%%%%%%%%%%%%%%%%%%%%",
"%%%%%%%%%%%%%%%%%%%%%%%%%%%%   ..........    ..........   %%%%%%%%%%%%%%%%%%%%%%",
"%%%%%%%%%%%%%%%%%%%%%%%%%%%%   ..........    ..........   %%%%%%%%%%%%%%%%%%%%%%",
"%%%%%%%%%%%%%%%%%%%%%%%%%%%%   ..........     .........   %%%%%%%%%%%%%%%%%%%%%%",
"%%%%%%%%%%%%%%%%%%%%%%%%%%%%   ..........     ..........  %%%%%%%%%%%%%%%%%%%%%%",
"%%%%%%%%%%%%%%%%%%%%%%%%%%%%   ..........     ..........  %%%%%%%%%%%%%%%%%%%%%%",
"%%%%%%%%%%%%%%%%%%%%%%%%%%%%   ..........     ..........  %%%%%%%%%%%%%%%%%%%%%%",
"%%%%%%%%%%%%%%%%%%%%%%%%%%%%   ..........     ..........  %%%%%%%%%%%%%%%%%%%%%%",
"%%%%%%%%%%%%%%%%%%%%%%%%%%%%   ..........     ..........  %%%%%%%%%%%%%%%%%%%%%%",
"%%%%%%%%%%%%%%%%%%%%%%%%%%%%   ..........     ..........  %%%%%%%%%%%%%%%%%%%%%%",
"%%%%%%%%%%%%%%%%%%%%%%%%%%%%   ..........     ..........  %%%%%%%%%%%%%%%%%%%%%%",
"%%%%%%%%%%%%%%%%%%%%%%%%%%%%   ..........     ..........  %%%%%%%%%%%%%%%%%%%%%%",
"%%%%%%%%%%%%%%%%%%%%%%%%%%%%   ..........     ..........  %%%%%%%%%%%%%%%%%%%%%%",
"%%%%%%%%%%%%%%%%%%%%%%%%%%%%   ..........     ..........  %%%%%%%%%%%%%%%%%%%%%%",
"%%%%%%%%%%%%%%%%%%%%%%%%%%%%   ..........     ..........  %%%%%%%%%%%%%%%%%%%%%%",
"%%%%%%%%%%%%%%%%%%%%%%%%%%%%  ...........     ..........   %%%%%%%%%%%%%%%%%%%%%",
"%%%%%%%%%%%%%%%%%%%%%%%%%%%%  ...........     ..........   %%%%%%%%%%%%%%%%%%%%%",
"%%%%%%%%%%%%%%%%%%%%%%%%%%%%  ...........     ..........   %%%%%%%%%%%%%%%%%%%%%",
"%%%%%%%%%%%%%%%%%%%%%%%%%%%%  ...........     ..........   %%%%%%%%%%%%%%%%%%%%%",
"%%%%%%%%%%%%%%%%%%%%%%%%%%%%  ...........     ..........   %%%%%%%%%%%%%%%%%%%%%",
"%%%%%%%%%%%%%%%%%%%%%%%%%%%%  ...........     ..........   %%%%%%%%%%%%%%%%%%%%%",
"%%%%%%%%%%%%%%%%%%%%%%%%%%%%  ...........     ..........   %%%%%%%%%%%%%%%%%%%%%",
"%%%%%%%%%%%%%%%%%%%%%%%%%%%%  ...........     ..........   %%%%%%%%%%%%%%%%%%%%%",
"%%%%%%%%%%%%%%%%%%%%%%%%%%%%  ...........     ..........   %%%%%%%%%%%%%%%%%%%%%",
"%%%%%%%%%%%%%%%%%%%%%%%%%%%%  ...........     ..........   %%%%%%%%%%%%%%%%%%%%%",
"%%%%%%%%%%%%%%%%%%%%%%%%%%%%  ...........     ..........   %%%%%%%%%%%%%%%%%%%%%",
"%%%%%%%%%%%%%%%%%%%%%%%%%%%%  ...........     ..........   %%%%%%%%%%%%%%%%%%%%%",
"%%%%%%%%%%%%%%%%%%%%%%%%%%%%  ...........     ..........   %%%%%%%%%%%%%%%%%%%%%",
"%%%%%%%%%%%%%%%%%%%%%%%%%%%   ...........     ..........   %%%%%%%%%%%%%%%%%%%%%",
"%%%%%%%%%%%%%%%%%%%%%%%%%%%   ...........     ..........   %%%%%%%%%%%%%%%%%%%%%",
"%%%%%%%%%%%%%%%%%%%%%%%%%%%   ...........     ..........   %%%%%%%%%%%%%%%%%%%%%",
"%%%%%%%%%%%%%%%%%%%%%%%%%%%   ...........     ..........   %%%%%%%%%%%%%%%%%%%%%",
"%%%%%%%%%%%%%%%%%%%%%%%%%%%   ...........     ..........   %%%%%%%%%%%%%%%%%%%%%",
"%%%%%%%%%%%%%%%%%%%%%%%%%%%   ...........     ..........   %%%%%%%%%%%%%%%%%%%%%",
"%%%%%%%%%%%%%%%%%%%%%%%%%%%   ...........  %  ..........   %%%%%%%%%%%%%%%%%%%%%",
"%%%%%%%%%%%%%%%%%%%%%%%%%%%   ...........  %  ..........   %%%%%%%%%%%%%%%%%%%%%",
"%%%%%%%%%%%%%%%%%%%%%%%%%%%   ...........  %  ..........   %%%%%%%%%%%%%%%%%%%%%",
"%%%%%%%%%%%%%%%%%%%%%%%%%%%   ...........  %  ..........   %%%%%%%%%%%%%%%%%%%%%",
"%%%%%%%%%%%%%%%%%%%%%%%%%%%   ...........  %  ...........  %%%%%%%%%%%%%%%%%%%%%",
"%%%%%%%%%%%%%%%%%%%%%%%%%%%   ...........  %  ...........  %%%%%%%%%%%%%%%%%%%%%",
"%%%%%%%%%%%%%%%%%%%%%%%%%%%   ...........  %  ...........  %%%%%%%%%%%%%%%%%%%%%",
"%%%%%%%%%%%%%%%%%%%%%%%%%%%   ...........  %  ...........  %%%%%%%%%%%%%%%%%%%%%",
"%%%%%%%%%%%%%%%%%%%%%%%%%%%   ..........   %  ...........  %%%%%%%%%%%%%%%%%%%%%",
"%%%%%%%%%%%%%%%%%%%%%%%%%%%   ..........   %  ...........  %%%%%%%%%%%%%%%%%%%%%",
"%%%%%%%%%%%%%%%%%%%%%%%%%%%   ..........   %  ...........  %%%%%%%%%%%%%%%%%%%%%",
"%%%%%%%%%%%%%%%%%%%%%%%%%%%   ..........   %  ...........  %%%%%%%%%%%%%%%%%%%%%",
"%%%%%%%%%%%%%%%%%%%%%%%%%%%   ..........   %  ...........  %%%%%%%%%%%%%%%%%%%%%",
"%%%%%%%%%%%%%%%%%%%%%%%%%%%   ..........   %  ...........  %%%%%%%%%%%%%%%%%%%%%",
"%%%%%%%%%%%%%%%%%%%%%%%%%%%   ..........   %  ...........  %%%%%%%%%%%%%%%%%%%%%",
"%%%%%%%%%%%%%%%%%%%%%%%%%%%   ..........   %  ...........   %%%%%%%%%%%%%%%%%%%%",
"%%%%%%%%%%%%%%%%%%%%%%%%%%%   ..........   %   ..........   %%%%%%%%%%%%%%%%%%%%",
"%%%%%%%%%%%%%%%%%%%%%%%%%%   ...........   %   ..........    %%%%%%%%%%%%%%%%%%%",
"%%%%%%%%%%%%%%%%%%%%%%%%%%   ...........   %   ...........    %%%%%%%%%%%%%%%%%%",
"%%%%%%%%%%%%%%%%%%%%%%%%%%   ...........   %   ...........   %%%%%%%%%%%%%%%%%%%",
"%%%%%%%%%%%%%%%%%%%%%%%%%%            ..   %   ....          %%%%%%%%%%%%%%%%%%%",
"%%%%%%%%%%%%%%%%%%%%%%%%%%                 %                %%%%%%%%%%%%%%%%%%%%",
"%%%%%%%%%%%%%%%%%%%%%%%%                   %                  %%%%%%%%%%%%%%%%%%",
"%%%%%%%%%%%%%%%%%%%%%        XXXXXXXXXXX  %%%   XXXXXXXXXX      %%%%%%%%%%%%%%%%",
"%%%%%%%%%%%%%%%%%%%%      XXXXXXXXXXXXXX  %%%  XXXXXXXXXXXXX     %%%%%%%%%%%%%%%",
"%%%%%%%%%%%%%%%%%%%     XXXXXXXXXXXXXXXX  %%%  XXXXXXXXXXXXXXX    %%%%%%%%%%%%%%",
"%%%%%%%%%%%%%%%%%%%   XXXXXXXXXXXXX       %%%      XXXXXXXXXXXX   %%%%%%%%%%%%%%",
"%%%%%%%%%%%%%%%%%%%  XXXXXXXXXX           %%%          XXXXXXXXX  %%%%%%%%%%%%%%",
"%%%%%%%%%%%%%%%%%%   XXXXXXXXX         X  %%%           XXXXXXXX   %%%%%%%%%%%%%",
"%%%%%%%%%%%%%%%%%%   XXXXXXXX    XXXXXXX  %%   XXXXXX    XXXXXXX   %%%%%%%%%%%%%",
"%%%%%%%%%%%%%%%%%%   XXXXXXX    XXXXXXXX  %%   XXXXXXX   XXXXXXX   %%%%%%%%%%%%%",
"%%%%%%%%%%%%%%%%%%                        %%                       %%%%%%%%%%%%%",
"%%%%%%%%%%%%%%%%%%                        %%                       %%%%%%%%%%%%%",
"%%%%%%%%%%%%%%%%%%                        %%%                      %%%%%%%%%%%%%"
};
