/* XPM */
static const char *cSciss[] = {
/* columns rows colors chars-per-pixel */
"80 240 10 1 ",
"  c black",
". c #001A33",
"X c #3E3226",
"o c #403327",
"O c #802400",
"+ c #80674E",
"@ c #A6857C",
"# c #00BFBF",
"$ c white",
"% c None",
/* pixels */
"%%%%%%%%%%%%%%%%%%%%%%%%%%%%%%%%%%%%%%%%%%%%%%%%%%%%%%%%%%%%%%%%%%%%%%%%%%%%%%%%",
"%%%%%%%%%%%%%%%%%%%%%%%%%%%%%%%%%%%%%%%%%%%%%%%%%%%%%%%%%%%%%%%%%%%%%%%%%%%%%%%%",
"%%%%%%%%%%%%%%%%%%%%%%%%%%%%%%%%%%%%%%%%%%%%%%%%%%%%%%%%%%%%%%%%%%%%%%%%%%%%%%%%",
"%%%%%%%%%%%%%%%%%%%%%%%%%%%%%%%%%%%%%%%%%%%%%%%%%%%%%%%%%%%%%%%%%%%%%%%%%%%%%%%%",
"%%%%%%%%%%%%%%%%%%%%%%%%%%%%%%%%%%%%%%%%%%%%%%%%%%%%%%%%%%%%%%%%%%%%%%%%%%%%%%%%",
"%%%%%%%%%%%%%%%%%%%%%%%%%%%%%%%%%%%%%%%%%%%%%%%%%%%%%%%%%%%%%%%%%%%%%%%%%%%%%%%%",
"%%%%%%%%%%%%%%%%%%%%%%%%%%%%%%%%%%%%%%%%%%%%%%%%%%%%%%%%%%%%%%%%%%%%%%%%%%%%%%%%",
"%%%%%%%%%%%%%%%%%%%%%%%%%%%%%%%%%%%%%%%%%%%%%%%%%%%%%%%%%%%%%%%%%%%%%%%%%%%%%%%%",
"%%%%%%%%%%%%%%%%%%%%%%%%%%%%%%%%%%%%%%%%%%%%%%%%%%%%%%%%%%%%%%%%%%%%%%%%%%%%%%%%",
"%%%%%%%%%%%%%%%%%%%%%%%%%%%%%%%%%%%%%%%%%%%%%%%%%%%%%%%%%%%%%%%%%%%%%%%%%%%%%%%%",
"%%%%%%%%%%%%%%%%%%%%%%%%%%%%%%%%%%%%%%%%%%%%%%%%%%%%%%%%%%%%%%%%%%%%%%%%%%%%%%%%",
"%%%%%%%%%%%%%%%%%%%%%%%%%%%%%%%%%%%%%%%%%%%%%%%%%%%%%%%%%%%%%%%%%%%%%%%%%%%%%%%%",
"%%%%%%%%%%%%%%%%%%%%%%%%%%%%%%%%%%%%%%%%%%%%%%%%%%%%%%%%%%%%%%%%%%%%%%%%%%%%%%%%",
"%%%%%%%%%%%%%%%%%%%%%%%%%%%%%%%%%%%%%%%%%%%%%%%%%%%%%%%%%%%%%%%%%%%%%%%%%%%%%%%%",
"%%%%%%%%%%%%%%%%%%%%%%%%%%%%%%%%%%%%%%%%%%%%%%%%%%%%%%%%%%%%%%%%%%%%%%%%%%%%%%%%",
"%%%%%%%%%%%%%%%%%%%%%%%%%%%%%%%%%%%%%%%%%%%%%%%%%%%%%%%%%%%%%%%%%%%%%%%%%%%%%%%%",
"%%%%%%%%%%%%%%%%%%%%%%%%%%%%%%%%%%%%%%%%%%%%%%%%%%%%%%%%%%%%%%%%%%%%%%%%%%%%%%%%",
"%%%%%%%%%%%%%%%%%%%%%%%%%%%%%%%%%%%%%%%%%%%%%%%%%%%%%%%%%%%%%%%%%%%%%%%%%%%%%%%%",
"%%%%%%%%%%%%%%%%%%%%%%%%%%%%%%%%%%%%%%%%%%%%%%%%%%%%%%%%%%%%%%%%%%%%%%%%%%%%%%%%",
"%%%%%%%%%%%%%%%%%%%%%%%%%%%%%%%%%%%%%%%%%%%%%%%%%%%%%%%%%%%%%%%%%%%%%%%%%%%%%%%%",
"%%%%%%%%%%%%%%%%%%%%%%%%%%%%%%%%%%%%%%%%%%%%%%%%%%%%%%%%%%%%%%%%%%%%%%%%%%%%%%%%",
"%%%%%%%%%%%%%%%%%%%%%%%%%%%%%%%%%%%%%%%%%%%%%%%%%%%%%%%%%%%%%%%%%%%%%%%%%%%%%%%%",
"%%%%%%%%%%%%%%%%%%%%%%%%%%%%%%%%%%%%%%%%%%%%%%%%%%%%%%%%%%%%%%%%%%%%%%%%%%%%%%%%",
"%%%%%%%%%%%%%%%%%%%%%%%%%%%%%%%%%%%%%%%%%%%%%%%%%%%%%%%%%%%%%%%%%%%%%%%%%%%%%%%%",
"%%%%%%%%%%%%%%%%%%%%%%%%%%%%%%%%%%%%%%%%%%%%%%%%%%%%%%%%%%%%%%%%%%%%%%%%%%%%%%%%",
"%%%%%%%%%%%%%%%%%%%%%%%%%%%%%%%%%%%%%%%%%%%%%%%%%%%%%%%%%%%%%%%%%%%%%%%%%%%%%%%%",
"%%%%%%%%%%%%%%%%%%%%%%%%%%%%%%%%%%%%%%%%%%%%%%%%%%%%%%%%%%%%%%%%%%%%%%%%%%%%%%%%",
"%%%%%%%%%%%%%%%%%%%%%%%%%%%%%%%%%%%%%%%%%%%%%%%%%%%%%%%%%%%%%%%%%%%%%%%%%%%%%%%%",
"%%%%%%%%%%%%%%%%%%%%%%%%%%%%%%%%%%%%%%%%%%%%%%%%%%%%%%%%%%%%%%%%%%%%%%%%%%%%%%%%",
"%%%%%%%%%%%%%%%%%%%%%%%%%%%%%%%%%%%%%%%%%%%%%%%%%%%%%%%%%%%%%%%%%%%%%%%%%%%%%%%%",
"%%%%%%%%%%%%%%%%%%%%%%%%%%%%%%%%%%%%%%%%%%%%%%%%%%%%%%%%%%%%%%%%%%%%%%%%%%%%%%%%",
"%%%%%%%%%%%%%%%%%%%%%%%%%%%%%%%%%%%%%%%%%%%%%%%%%%%%%%%%%%%%%%%%%%%%%%%%%%%%%%%%",
"%%%%%%%%%%%%%%%%%%%%%%%%%%%%%%%%%%%%%%%%%%%%%%%%%%%%%%%%%%%%%%%%%%%%%%%%%%%%%%%%",
"%%%%%%%%%%%%%%%%%%%%%%%%%%%%%%%%%%%%%%%%%%%%%%%%%%%%%  %%%%%%%%%%%%%%%%%%%%%%%%%",
"%%%%%%%%%%%%%%%%%%%%%%%%%%%%%%%%%%%%%%%%%%%%%%%%%%%%    %%%%%%%%%%%%%%%%%%%%%%%%",
"%%%%%%%%%%%%%%%%%%%%%%%%%%%%%%%%%%%%%%%%%%%%%%%%%%%       %%%%%%%%%%%%%%%%%%%%%%",
"%%%%%%%%%%%%%%%%%%%%%%%%%%%%%%%%%%%%%%%%%%%%%%%%%%         %%%%%%%%%%%%%%%%%%%%%",
"%%%%%%%%%%%%%%%%%%%%%%%%%%%%%%%%%%%%%%%%%%%%%%%%%%         %%%%%%%%%%%%%%%%%%%%%",
"%%%%%%%%%%%%%%%%%%%%%%%%%%%%%%%%%%%%%%%%%%%%%%%%%          %%%%%%%%%%%%%%%%%%%%%",
"%%%%%%%%%%%%%%%%%%%%%%%%%%%%%%%%%%%%%%%%%%%%%%%%%       %%%%%%%%%%%%%%%%%%%%%%%%",
"%%%%%%%%%%%%%%%%%%%%%%%%%%%%%%%%%%%%%%%%%%%%%%%        %%%%%%%%%%%%%%%%%%%%%%%%%",
"%%%%%%%%%%%%%%%%%%%%%%%%%%%%%%%%%%%%%                        %%%%%%%%%%%%%%%%%%%",
"%%%%%%%%%%%%%%%%%%%%%%%%%%%%%%%%%%%                             %%%%%%%%%%%%%%%%",
"%%%%%%%%%%%%%%%%%%%%%%%%%%%%%%%%%       OOOOOOOOOOOOOOOOOO        %%%%%%%%%%%%%%",
"%%%%%%%%%%%%%%%%%%%%%%%%%%%%%%%%     OOOOOOOOOOOOOOOOOOOOOOOO       %%%%%%%%%%%%",
"%%%%%%%%%%%%%%%%%%%%%%%%%%%%%%%    OOOOOOOOOOOOOOOOOOOOOOOOOOOOO     %%%%%%%%%%%",
"%%%%%%%%%%%%%%%%%%%%%%%%%%%%%%    OOOOOOOOOOOOOOOOOOOOOOOOOOOOOOOO     %%%%%%%%%",
"%%%%%%%%%%%%%%%%%%%%%%%%%%%%%    OOOOOOOOOOOOOOOOOOOOOOOOOOOOOOOOOO     %%%%%%%%",
"%%%%%%%%%%%%%%%%%%%%%%%%%%%%    OOOOOOOOOOOOOOOOOOOOOOOOOOOOOOOOOOOOO    %%%%%%%",
"%%%%%%%%%%%%%%%%%%%%%%%%%%%    OOOOOOOOOOOOOOOOOOOOOOOOOOOOOOOOOOOOOOO    %%%%%%",
"%%%%%%%%%%%%%%%%%%%%%%%%%%%   OOOOOOOOOOOOOOOOOOOOOOOOOOOOOOOOOOOOOOOOO    %%%%%",
"%%%%%%%%%%%%%%%%%%%%%%%%%%   OOOOOOOOOOOOOOOOOOOOOOOOOOOOOOOOOOOOOOOOOOO    %%%%",
"%%%%%%%%%%%%%%%%%%%%%%%%%   OOOOOOOOOOOOOOOOOOOOOOOOOOOOOOOOOOOOOOOOOOOOO    %%%",
"%%%%%%%%%%%%%%%%%%%%%%%%%   OOOOOOOOOOOOOOOOOOOOOOOOOOOOOOOOOOOOOOOOOOOOOO   %%%",
"%%%%%%%%%%%%%%%%%%%%%%%%   OOOOOOOOOOOOOOOOOOOOOOOOOOOOOOOOOOOOOOOOOOOOOOO    %%",
"%%%%%%%%%%%%%%%%%%%%%%%%   OOOOOOOOOOOOOOOOOOOOOOOOOOOOOOOOOOOOOOOOOOOOOOOO   %%",
"%%%%%%%%%%%%%%%%%%%%%%%%   OOOOOOOOOOOOOOOOOOOOOOOOOOOOOOOOOOOOOOOOOOOOOOOO   %%",
"%%%%%%%%%%%%%%%%%%%%%%%%   OOOOOOOOOOOOOOOOOOOOOOOOOOOOOOOOOOOOOOOOOOOOOOOO   %%",
"%%%%%%%%%%%%%%%%%%%%%%%   OOOOOOOOOOOOOOOOOOOOOOOOOOOOOOOOOOOOOOOOOOOOOOOOO    %",
"%%%%%%%%%%%%%%%%%%%%%%%   OOOOOOOOOOOOOOOOOOOOOOOOOOOOOOOOOOOOOOOOOOOOOOOOOO   %",
"%%%%%%%%%%%%%%%%%%%%%%%   OOOOOO               OOO               OOOOOOOOOOO   %",
"%%%%%%%%%%%%%%%%%%%%%%%   OOOOO                                   OOOOOOOOOO   %",
"%%%%%%%%%%%%%%%%%%%%%%%   OOOO                                     OOOOOOOOO   %",
"%%%%%%%%%%%%%%%%%%%%%%%   OOO   @@@      @@@@@@@@@@@@@@@      @@@   OOOOOOOO   %",
"%%%%%%%%%%%%%%%%%%%%%%%   OOO   @@@@@@@@@@@@@@@@@@@@@@@@@@@@@@@@@   OOOOOOOO   %",
"%%%%%%%%%%%%%%%%%%%%%%%   OO   @@@@@@@@@@@@@@@@@@@@@@@@@@@@@@@@@@@  OOOOOOOO    ",
"%%%%%%%%%%%%%%%%%%%%%%%   OO   @@@@@@   @@@@@@@@@@@@@@@@    @@@@@@   OOOOOOO    ",
"%%%%%%%%%%%%%%%%%%%%%%%       @@@@@       @@@@@@@@@@@@        @@@@   OOOOOOOO   ",
"%%%%%%%%%%%%%%%%%%%%%%%       @@@           @@@@@@@@@          @@@   OOOOOOOO   ",
"%%%%%%%%%%%%%%%%%%%%%%%       @@     $$$#    @@@@@@@    $$$$     @@  OOOOOOOO   ",
"%%%%%%%%%%%%%%%%%%%%%%%       @    $$$$$#$   @@@@@@@   $$$$$#$    @  OOOOOOOO   ",
"%%%%%%%%%%%%%%%%%%%%%%%           $$$$$##$$  @@@@@@@  $$$$$$#$$      OOOOOOOO   ",
"%%%%%%%%%%%%%%%%%%%%%%%          $$$$$$##$$#@@@@@@@@@$$$$$$##$$#     OOOOOOOO   ",
"%%%%%%%%%%%%%%%%%%%%%%%       @$$$$$$$$##$$$@@@@@@@@@$$$$$$##$$$#@@  OOOOOOOO   ",
"%%%%%%%%%%%%%%%%%%%%%%%       @@$$$$$$$##$$#@@@@@@@@@$$$$$$##$$##@@  OOOOOOOO   ",
"%%%%%%%%%%%%%%%%%%%%%%%       @@$$$$$$$##$$#@@@@@@@@@$$$$$$##$$##@@  OOOOOOOO   ",
"%%%%%%%%%%%%%%%%%%%%%%%       @@$$$$$$$$#$$@@@@@@@@@@$$$$$$$#$$#@@@  OOOOOOOO   ",
"%%%%%%%%%%%%%%%%%%%%%%%   OO  @@@$$$$$$$###@@@@@@@@@@@$$$$$$####@@@  OOOOOOOO   ",
"%%%%%%%%%%%%%%%%%%%%%%%   OO  @@@@$$$$$$$#@@@@@@@@@@@@$$$$$$$#@@@@@  OOOOOOOO   ",
"%%%%%%%%%%%%%%%%%%%%%%%   OO  @@@@@@@@@@@@@@@@@@@@@@@@@@@@@@@@@@@@@  OOOOOOOO   ",
"%%%%%%%%%%%%%%%%%%%%%%%   OO  @@@@@@@@@@@@@@@@@@@@@@@@@@@@@@@@@@@@@  OOOOOOOO   ",
"%%%%%%%%%%%%%%%%%%%%%%%   OO  @@@@@@@@@@@@@@@@@@@@@@@@@@@@@@@@@@@@@  OOOOOOOO   ",
"%%%%%%%%%%%%%%%%%%%%%%%   OO   @@@@@@@@@@@@@@@@@@@@@@@@@@@@@@@@@@@@  OOOOOOOO   ",
"%%%%%%%%%%%%%%%%%%%%%%%   OO    @@@@@@@@@@@@@@@@@@@@@@@@@@@@@@@@@@@  OOOOOOOO   ",
"%%%%%%%%%%%%%%%%%%%%%%%   OO    @@@@@@@@@@@@@@@@@@@@@@@@@@@@@@@@@@@  OOOOOOOO   ",
"%%%%%%%%%%%%%%%%%%%%%%%   OO     @@@@@@@@@@@@@@@@@@@  @@@@@@@@@@@@@  OOOOOOOO   ",
"%%%%%%%%%%%%%%%%%%%%%%%   OO      @@@@@@@@@@@        @@@@@@@@@@@@@@  OOOOOOOO   ",
"%%%%%%%%%%%%%%%%%%%%%%%   OOO      @@@@@@@@@@@@@@@@@@@@@@@@@@@@@@@   OOOOOOOO   ",
"%%%%%%%%%%%%%%%%%%%%%%%   OOO  O     @@@@@@@@@@@@@@@@@@@@@@@@@@@@    OOOOOOOO   ",
"%%%%%%%%%%%%%%%%%%%%%%%   OOO   OO    @@@@@@@@@@@@@@@@@@@@@@@@@@     OOOOOOOO   ",
"%%%%%%%%%%%%%%%%%%%%%%%   OOO   OOO     @@@@@@@@@@@@@@@@@@@@@@       OOOOOOOO   ",
"%%%%%%%%%%%%%%%%%%%%%%%   OOO   OOOO       @@@@@@@@@@@@@@@@          OOOOOOOO   ",
"%%%%%%%%%%%%%%%%%%%%%%%%  OOO   OOOOOO          @@@@@@          OO   OOOOOOOO   ",
"%%%%%%%%%%%%%%%%%%%%%%%%  OOOO  OOOOOOOOO                    OOOOO   OOOOOOOO   ",
"%%%%%%%%%%%%%%%%%%%%%%%%  OOOO     OOOOOOOOO              O   OOOO   OOOOOOOO   ",
"%%%%%%%%%%%%%%%%%%%%%%%%  OOOO       OOOOOO     @@@@@   OO     OOO   OOOOOOOO   ",
"%%%%%%%%%%%%%%%%%%%%%%%%  OOOO        OOOO      @@@@@           OO  OOOOOOOOO   ",
"%%%%%%%%%%%%%%%%%%%%%%%%  OOOOO        OO    %  @@@@@            O  OOOOOOOOO   ",
"%%%%%%%%%%%%%%%%%%%%%%%%          %%            @@@@@     %%%%      OO    OOO   ",
"%%%%%%%%%%%%%%%%%%%%%%%%          %%%           @@@@@                           ",
"%%%%%%%%%%%%%%%%%%%%%%%%          %             @@@@@                           ",
"%%%%%%%%%%%%%%%%%%%%%%%%   %              oo    @@@@     oooo          %%%      ",
"%%%%%%%%%%%%%%%%%%%%%%%%%%%%%%%       oooooo     @@      oooooooo      %%%%%    ",
"%%%%%%%%%%%%%%%%%%%%%%%%%%%%%%     ooooooooo             ooooooooooo    %%%%%  %",
"%%%%%%%%%%%%%%%%%%%%%%%%%%%%%    ooooooooooo         .   oooooooooooo   %%%%%%%%",
"%%%%%%%%%%%%%%%%%%%%%%%%%%%%%   oooooooooooo        ..   ooooooooooooo   %%%%%%%",
"%%%%%%%%%%%%%%%%%%%%%%%%%%%%%   oooooooooooo   .   ...   ooooooooooooo   %%%%%%%",
"%%%%%%%%%%%%%%%%%%%%%%%%%%%%%   oooooooooooo   .. ....   ooooooooooooo   %%%%%%%",
"%%%%%%%%%%%%%%%%%%%%%%%%%%%%%   oooooooooooo   .......   ooooooooooooo   %%%%%%%",
"%%%%%%%%%%%%%%%%%%%%%%%%%%%%%   oooooooooooo   .   ...   ooooooooooooo   %%%%%%%",
"%%%%%%%%%%%%%%%%%%%%%%%%%%%%%   oooooooooooo   .         oo  ooooooooo   %%%%%%%",
"%%%%%%%%%%%%%%%%%%%%%%%%%%%%%   oooo  oooooo   .         oo   oooooooo   %%%%%%%",
"%%%%%%%%%%%%%%%%%%%%%%%%%%%%%   oooo   ooooo   .  $$     oo   oooooooo  %%%%%%%%",
"%%%%%%%%%%%%%%%%%%%%%%%%%%%%%   oooo   ooooo   .  $$     oo  ooooooooo  %%%%%%%%",
"%%%%%%%%%%%%%%%%%%%%%%%%%%%%%   oooo   ooooo   .  $$     oo  ooooooooo  %%%%%%%%",
"%%%%%%%%%%%%%%%%%%%%%%%%%%%%%   oooo   ooooo   .  $$     oo  oooooooo   %%%%%%%%",
"%%%%%%%%%%%%%%%%%%%%%%%%%%%%%   oooo   ooooo      $$     o   oooooooo   %%%%%%%%",
"%%%%%%%%%%%%%%%%%%%%%%%%%%%%%   oooo   ooooo             o   oooooooo   %%%%%%%%",
"%%%%%%%%%%%%%%%%%%%%%%%%%%%%%   oooo   ooooo             o   oooooooo   %%%%%%%%",
"%%%%%%%%%%%%%%%%%%%%%%%%%%%%%   oooo   ooooo             o   oooooooo   %%%%%%%%",
"%%%%%%%%%%%%%%%%%%%%%%%%%%%%%   ooo    ooooo             o   oooooooo   %%%%%%%%",
"%%%%%%%%%%%%%%%%%%%%%%%%%%%%%   o       oooo             o   oooooooo  %%%%%%%%%",
"%%%%%%%%%%%%%%%%%%%%%%%%%%%%%   o       oooo         .   o   oooooooo  %%%%%%%%%",
"%%%%%%%%%%%%%%%%%%%%%%%%%%%%%   oo       ooo         .   o  ooooooooo  %%%%%%%%%",
"%%%%%%%%%%%%%%%%%%%%%%%%%%%%%   oo                            oooooo   %%%%%%%%%",
"%%%%%%%%%%%%%%%%%%%%%%%%%%%%%                                  ooooo   %%%%%%%%%",
"%%%%%%%%%%%%%%%%%%%%%%%%%%%%                                  oooooo   %%%%%%%%%",
"%%%%%%%%%%%%%%%%%%%%%%%%%%%%          @   oooooooooooooooooooooooooo   %%%%%%%%%",
"%%%%%%%%%%%%%%%%%%%%%%%%%%%%   @@@@@@@@   oooooooooooooooooooooooooo   %%%%%%%%%",
"%%%%%%%%%%%%%%%%%%%%%%%%%%%%       @@@@   oooooooooooooooooooooooooo   %%%%%%%%%",
"%%%%%%%%%%%%%%%%%%%%%%%%%%%%        @@@   oooooooooooooooooooooooooo  %%%%%%%%%%",
"%%%%%%%%%%%%%%%%%%%%%%%%%%%%        @@@   ooooooooooooooooooooooooo   %%%%%%%%%%",
"%%%%%%%%%%%%%%%%%%%%%%%%%%%%%  @@@@@@@@   ooooooooooooooooooooooooo   %%%%%%%%%%",
"%%%%%%%%%%%%%%%%%%%%%%%%%%%%%  @@@@@@@@   oooooooooooooooooooooooo    %%%%%%%%%%",
"%%%%%%%%%%%%%%%%%%%%%%%%%%%%%   @@@@@@@   ooooooooooooooooooooooo    %%%%%%%%%%%",
"%%%%%%%%%%%%%%%%%%%%%%%%%%%%%                                       %%%%%%%%%%%%",
"%%%%%%%%%%%%%%%%%%%%%%%%%%%%%                                      %%%%%%%%%%%%%",
"%%%%%%%%%%%%%%%%%%%%%%%%%%%%%   oooo                              %%%%%%%%%%%%%%",
"%%%%%%%%%%%%%%%%%%%%%%%%%%%%%   oooo   oo oo        ..   ooooooo  %%%%%%%%%%%%%%",
"%%%%%%%%%%%%%%%%%%%%%%%%%%%%%   oooo   ooooo   .......   ooooooo  %%%%%%%%%%%%%%",
"%%%%%%%%%%%%%%%%%%%%%%%%%%%%%   oooo   ooooo   .......   ooooooo   %%%%%%%%%%%%%",
"%%%%%%%%%%%%%%%%%%%%%%%%%%%%%   oooo   ooooo             ooooooo  %%%%%%%%%%%%%%",
"%%%%%%%%%%%%%%%%%%%%%%%%%%%%%   oooo   ooooo             ooooooo  %%%%%%%%%%%%%%",
"%%%%%%%%%%%%%%%%%%%%%%%%%%%%%   oooo   ooooo             ooooooo  %%%%%%%%%%%%%%",
"%%%%%%%%%%%%%%%%%%%%%%%%%%%%%   oooo   ooooo   +++++++   ooooooo  %%%%%%%%%%%%%%",
"%%%%%%%%%%%%%%%%%%%%%%%%%%%%%   oooo  oooooo   +++++++   ooooooo  %%%%%%%%%%%%%%",
"%%%%%%%%%%%%%%%%%%%%%%%%%%%%%   oooo  oooooo   +++++++   ooooooo  %%%%%%%%%%%%%%",
"%%%%%%%%%%%%%%%%%%%%%%%%%%%%%   oooo  oooooo   +++++++   ooooooo   %%%%%%%%%%%%%",
"%%%%%%%%%%%%%%%%%%%%%%%%%%%%%   ooo   oooooo   +++++++   ooooooo   %%%%%%%%%%%%%",
"%%%%%%%%%%%%%%%%%%%%%%%%%%%%%   ooo   oooooo   +++++++   ooooooo   %%%%%%%%%%%%%",
"%%%%%%%%%%%%%%%%%%%%%%%%%%%%%   ooo   oooooo   +++++++   ooooooo   %%%%%%%%%%%%%",
"%%%%%%%%%%%%%%%%%%%%%%%%%%%%%  oooo   oooooo   +++++++   ooooooo   %%%%%%%%%%%%%",
"%%%%%%%%%%%%%%%%%%%%%%%%%%%%   oooo   oooooo   +++++++   oooooooo  %%%%%%%%%%%%%",
"%%%%%%%%%%%%%%%%%%%%%%%%%%%%          oooooo   +++++++   oooooooo  %%%%%%%%%%%%%",
"%%%%%%%%%%%%%%%%%%%%%%%%%%%%%             oo   +         ooo        %%%%%%%%%%%%",
"%%%%%%%%%%%%%%%%%%%%%%%%%%%%%                  +                    %%%%%%%%%%%%",
"%%%%%%%%%%%%%%%%%%%%%%%%%%%%   @@@@@           ++                  %%%%%%%%%%%%%",
"%%%%%%%%%%%%%%%%%%%%%%%%%%%%   @@@@   ++++++  +++     +  +++++++   %%%%%%%%%%%%%",
"%%%%%%%%%%%%%%%%%%%%%%%%%%%     @@@   +++++++++++     ++++++++++   %%%%%%%%%%%%%",
"%%%%%%%%%%%%%%%%%%%%%%%%%%       @    +++++++++++     ++++++++++   %%%%%%%%%%%%%",
"%%%%%%%%%%%%%%%%%%%%%%%%%%            +++++++++++     ++++++++++   %%%%%%%%%%%%%",
"%%%%%%%%%%%%%%%%%%%%%%%%%%            +++++++++++  %  ++++++++++   %%%%%%%%%%%%%",
"%%%%%%%%%%%%%%%%%%%%%%%%%%%           +++++++++++  %  ++++++++++   %%%%%%%%%%%%%",
"%%%%%%%%%%%%%%%%%%%%%%%%%%%%    @     +++++++++++  %  ++++++++++   %%%%%%%%%%%%%",
"%%%%%%%%%%%%%%%%%%%%%%%%%%%%%%   @    +++++++++++  %  ++++++++++   %%%%%%%%%%%%%",
"%%%%%%%%%%%%%%%%%%%%%%%%%%%%%%%       +++++++++++  %  ++++++++++   %%%%%%%%%%%%%",
"%%%%%%%%%%%%%%%%%%%%%%%%%%%%%%%       +++++++++++  %  ++++++++++   %%%%%%%%%%%%%",
"%%%%%%%%%%%%%%%%%%%%%%%%%%%%%%%%%%%   +++++++++++  %  ++++++++++   %%%%%%%%%%%%%",
"%%%%%%%%%%%%%%%%%%%%%%%%%%%%%%%%%%%   +++++++++++  %  ++++++++++   %%%%%%%%%%%%%",
"%%%%%%%%%%%%%%%%%%%%%%%%%%%%%%%%%%%   +++++++++++  %  ++++++++++   %%%%%%%%%%%%%",
"%%%%%%%%%%%%%%%%%%%%%%%%%%%%%%%%%%%   ++++++++++   %  ++++++++++   %%%%%%%%%%%%%",
"%%%%%%%%%%%%%%%%%%%%%%%%%%%%%%%%%%%   ++++++++++   %  ++++++++++   %%%%%%%%%%%%%",
"%%%%%%%%%%%%%%%%%%%%%%%%%%%%%%%%%%%   ++++++++++   %  +++++++++++  %%%%%%%%%%%%%",
"%%%%%%%%%%%%%%%%%%%%%%%%%%%%%%%%%%%   ++++++++++   %  +++++++++++  %%%%%%%%%%%%%",
"%%%%%%%%%%%%%%%%%%%%%%%%%%%%%%%%%%%   ++++++++++   %  +++++++++++  %%%%%%%%%%%%%",
"%%%%%%%%%%%%%%%%%%%%%%%%%%%%%%%%%%%   ++++++++++   %  +++++++++++  %%%%%%%%%%%%%",
"%%%%%%%%%%%%%%%%%%%%%%%%%%%%%%%%%%%   ++++++++++   %  +++++++++++  %%%%%%%%%%%%%",
"%%%%%%%%%%%%%%%%%%%%%%%%%%%%%%%%%%%   ++++++++++   %  +++++++++++  %%%%%%%%%%%%%",
"%%%%%%%%%%%%%%%%%%%%%%%%%%%%%%%%%%%   ++++++++++   %  +++++++++++  %%%%%%%%%%%%%",
"%%%%%%%%%%%%%%%%%%%%%%%%%%%%%%%%%%%   ++++++++++   %  +++++++++++  %%%%%%%%%%%%%",
"%%%%%%%%%%%%%%%%%%%%%%%%%%%%%%%%%%%   ++++++++++   %  +++++++++++  %%%%%%%%%%%%%",
"%%%%%%%%%%%%%%%%%%%%%%%%%%%%%%%%%%%   ++++++++++   %   ++++++++++  %%%%%%%%%%%%%",
"%%%%%%%%%%%%%%%%%%%%%%%%%%%%%%%%%%%  +++++++++++   %   ++++++++++  %%%%%%%%%%%%%",
"%%%%%%%%%%%%%%%%%%%%%%%%%%%%%%%%%%%  +++++++++++   %   ++++++++++   %%%%%%%%%%%%",
"%%%%%%%%%%%%%%%%%%%%%%%%%%%%%%%%%%%  +++++++++++   %   ++++++++++   %%%%%%%%%%%%",
"%%%%%%%%%%%%%%%%%%%%%%%%%%%%%%%%%%%  +++++++++++   %   ++++++++++   %%%%%%%%%%%%",
"%%%%%%%%%%%%%%%%%%%%%%%%%%%%%%%%%%%  +++++++++++   %   ++++++++++   %%%%%%%%%%%%",
"%%%%%%%%%%%%%%%%%%%%%%%%%%%%%%%%%%%  +++++++++++   %   ++++++++++   %%%%%%%%%%%%",
"%%%%%%%%%%%%%%%%%%%%%%%%%%%%%%%%%%%  +++++++++++   %   ++++++++++   %%%%%%%%%%%%",
"%%%%%%%%%%%%%%%%%%%%%%%%%%%%%%%%%%%  +++++++++++   %   ++++++++++   %%%%%%%%%%%%",
"%%%%%%%%%%%%%%%%%%%%%%%%%%%%%%%%%%%  +++++++++++   %   ++++++++++   %%%%%%%%%%%%",
"%%%%%%%%%%%%%%%%%%%%%%%%%%%%%%%%%%%  +++++++++++   %   ++++++++++   %%%%%%%%%%%%",
"%%%%%%%%%%%%%%%%%%%%%%%%%%%%%%%%%%%  +++++++++++   %   ++++++++++   %%%%%%%%%%%%",
"%%%%%%%%%%%%%%%%%%%%%%%%%%%%%%%%%%%  +++++++++++   %   ++++++++++   %%%%%%%%%%%%",
"%%%%%%%%%%%%%%%%%%%%%%%%%%%%%%%%%%%  +++++++++++   %   ++++++++++   %%%%%%%%%%%%",
"%%%%%%%%%%%%%%%%%%%%%%%%%%%%%%%%%%   +++++++++++   %   ++++++++++   %%%%%%%%%%%%",
"%%%%%%%%%%%%%%%%%%%%%%%%%%%%%%%%%%   +++++++++++  %%   ++++++++++   %%%%%%%%%%%%",
"%%%%%%%%%%%%%%%%%%%%%%%%%%%%%%%%%%   +++++++++++  %%   ++++++++++   %%%%%%%%%%%%",
"%%%%%%%%%%%%%%%%%%%%%%%%%%%%%%%%%%   +++++++++++  %%   ++++++++++   %%%%%%%%%%%%",
"%%%%%%%%%%%%%%%%%%%%%%%%%%%%%%%%%%   +++++++++++  %%   ++++++++++   %%%%%%%%%%%%",
"%%%%%%%%%%%%%%%%%%%%%%%%%%%%%%%%%%   +++++++++++  %%   ++++++++++   %%%%%%%%%%%%",
"%%%%%%%%%%%%%%%%%%%%%%%%%%%%%%%%%%   +++++++++++  %%   ++++++++++   %%%%%%%%%%%%",
"%%%%%%%%%%%%%%%%%%%%%%%%%%%%%%%%%%   +++++++++++  %%   ++++++++++   %%%%%%%%%%%%",
"%%%%%%%%%%%%%%%%%%%%%%%%%%%%%%%%%%   +++++++++++  %%   ++++++++++   %%%%%%%%%%%%",
"%%%%%%%%%%%%%%%%%%%%%%%%%%%%%%%%%%   +++++++++++  %%   ++++++++++   %%%%%%%%%%%%",
"%%%%%%%%%%%%%%%%%%%%%%%%%%%%%%%%%%   +++++++++++  %%   ++++++++++   %%%%%%%%%%%%",
"%%%%%%%%%%%%%%%%%%%%%%%%%%%%%%%%%%   +++++++++++  %%   +++++++++++  %%%%%%%%%%%%",
"%%%%%%%%%%%%%%%%%%%%%%%%%%%%%%%%%%   +++++++++++  %%   +++++++++++  %%%%%%%%%%%%",
"%%%%%%%%%%%%%%%%%%%%%%%%%%%%%%%%%%   +++++++++++  %%   +++++++++++  %%%%%%%%%%%%",
"%%%%%%%%%%%%%%%%%%%%%%%%%%%%%%%%%%   ++++++++++   %%   +++++++++++  %%%%%%%%%%%%",
"%%%%%%%%%%%%%%%%%%%%%%%%%%%%%%%%%%   ++++++++++   %%   +++++++++++  %%%%%%%%%%%%",
"%%%%%%%%%%%%%%%%%%%%%%%%%%%%%%%%%%   ++++++++++   %%   +++++++++++  %%%%%%%%%%%%",
"%%%%%%%%%%%%%%%%%%%%%%%%%%%%%%%%%%   ++++++++++   %%   +++++++++++  %%%%%%%%%%%%",
"%%%%%%%%%%%%%%%%%%%%%%%%%%%%%%%%%%   ++++++++++   %%   +++++++++++  %%%%%%%%%%%%",
"%%%%%%%%%%%%%%%%%%%%%%%%%%%%%%%%%%   ++++++++++   %%   +++++++++++  %%%%%%%%%%%%",
"%%%%%%%%%%%%%%%%%%%%%%%%%%%%%%%%%%   ++++++++++   %%   +++++++++++  %%%%%%%%%%%%",
"%%%%%%%%%%%%%%%%%%%%%%%%%%%%%%%%%%   ++++++++++   %%   +++++++++++  %%%%%%%%%%%%",
"%%%%%%%%%%%%%%%%%%%%%%%%%%%%%%%%%%   ++++++++++   %%   +++++++++++   %%%%%%%%%%%",
"%%%%%%%%%%%%%%%%%%%%%%%%%%%%%%%%%%   ++++++++++   %%   +++++++++++   %%%%%%%%%%%",
"%%%%%%%%%%%%%%%%%%%%%%%%%%%%%%%%%%   ++++++++++   %%   +++++++++++   %%%%%%%%%%%",
"%%%%%%%%%%%%%%%%%%%%%%%%%%%%%%%%%%   ++++++++++   %%   +++++++++++   %%%%%%%%%%%",
"%%%%%%%%%%%%%%%%%%%%%%%%%%%%%%%%%%  +++++++++++   %%%  +++++++++++   %%%%%%%%%%%",
"%%%%%%%%%%%%%%%%%%%%%%%%%%%%%%%%%%  +++++++++++   %%%  +++++++++++   %%%%%%%%%%%",
"%%%%%%%%%%%%%%%%%%%%%%%%%%%%%%%%%   +++++++++++   %%%  +++++++++++   %%%%%%%%%%%",
"%%%%%%%%%%%%%%%%%%%%%%%%%%%%%%%%%   +++++++++++   %%   +++++++++++   %%%%%%%%%%%",
"%%%%%%%%%%%%%%%%%%%%%%%%%%%%%%%%   ++++++++++++    %   +++++++++++   %%%%%%%%%%%",
"%%%%%%%%%%%%%%%%%%%%%%%%%%%%%%%%   +++             %       ++   +++   %%%%%%%%%%",
"%%%%%%%%%%%%%%%%%%%%%%%%%%%%%%%%%                 %%                  %%%%%%%%%%",
"%%%%%%%%%%%%%%%%%%%%%%%%%%%%%%%                   %%                  %%%%%%%%%%",
"%%%%%%%%%%%%%%%%%%%%%%%%%%%%%        XXXXXXXXXX   %%   XXXXXXXXXX      %%%%%%%%%",
"%%%%%%%%%%%%%%%%%%%%%%%%%%%      XXXXXXXXXXXXXX   %%   XXXXXXXXXXXXX    %%%%%%%%",
"%%%%%%%%%%%%%%%%%%%%%%%%%%%    XXXXXXXXXXXXXXXX   %%   XXXXXXXXXXXXXX    %%%%%%%",
"%%%%%%%%%%%%%%%%%%%%%%%%%%   XXXXXXXXXXXXX        %%       XXXXXXXXXXXX  %%%%%%%",
"%%%%%%%%%%%%%%%%%%%%%%%%%%   XXXXXXXXXX           %%          XXXXXXXXX   %%%%%%",
"%%%%%%%%%%%%%%%%%%%%%%%%%%  XXXXXXXXX             %%           XXXXXXXX   %%%%%%",
"%%%%%%%%%%%%%%%%%%%%%%%%%%  XXXXXXXX     XXXXXX   %%   XXXXX    XXXXXXX   %%%%%%",
"%%%%%%%%%%%%%%%%%%%%%%%%%   XXXXXXXX   XXXXXXXX   %%   XXXXXX   XXXXXXXX  %%%%%%",
"%%%%%%%%%%%%%%%%%%%%%%%%%                         %%                      %%%%%%",
"%%%%%%%%%%%%%%%%%%%%%%%%%                         %%                      %%%%%%",
"%%%%%%%%%%%%%%%%%%%%%%%%%%                       %%%%                     %%%%%%"
};
